;FLAVOR:Marlin
;TIME:5107
;Filament used: 3.36821m
;Layer height: 0.2
;MINX:80.5
;MINY:89.293
;MINZ:0.2
;MAXX:134.601
;MAXY:131.188
;MAXZ:55
;POSTPROCESSED
;Generated with Cura_SteamEngine 4.9.0
M140 S60
M105
M190 S60
M104 S240
M105
M109 S240
M82 ;absolute extrusion mode
M201 X500.00 Y500.00 Z100.00 E5000.00 ;Setup machine max acceleration
M203 X500.00 Y500.00 Z10.00 E50.00 ;Setup machine max feedrate
M204 P500.00 R1000.00 T500.00 ;Setup Print/Retract/Travel acceleration
M205 X8.00 Y8.00 Z0.40 E5.00 ;Setup Jerk
M220 S100 ;Reset Feedrate
M221 S100 ;Reset Flowrate
G28 ;Home
G29 ;Auto Bed Leveling
M420 S1 Z2 ;Enable ABL using saved Mesh and Fade Height
G92 E0 ;Reset Extruder
G1 Z2.0 F3000 ;Move Z Axis up
G1 X10.1 Y20 Z0.28 F5000.0 ;Move to start position
G1 X10.1 Y200.0 Z0.28 F1500.0 E15 ;Draw the first line
G1 X10.4 Y200.0 Z0.28 F5000.0 ;Move to side a little
G1 X10.4 Y20 Z0.28 F1500.0 E30 ;Draw the second line
G92 E0 ;Reset Extruder
G1 Z2.0 F3000 ;Move Z Axis up
G92 E0
G92 E0
G1 F2700 E-5
;LAYER_COUNT:275
;LAYER:0
M107
G0 F6000 X84.386 Y91.92 Z0.2
;TYPE:SKIRT
G1 F2700 E0
G1 F600 X85.126 Y91.344 E0.03119
G1 X85.912 Y90.832 E0.06239
G1 X86.739 Y90.39 E0.09358
G1 X87.601 Y90.02 E0.12478
G1 X88.491 Y89.724 E0.15597
G1 X89.403 Y89.506 E0.18716
G1 X90.33 Y89.365 E0.21835
G1 X91.201 Y89.306 E0.24738
G1 X91.522 Y89.297 E0.25806
G1 X91.83 Y89.293 E0.26831
G1 X92.793 Y89.293 E0.30034
G1 X93.67 Y89.305 E0.32951
G1 X94.258 Y89.33 E0.34909
G1 X94.6 Y89.354 E0.36049
G1 X97.18 Y89.501 E0.44644
G1 X99.666 Y89.572 E0.52916
G1 X102.19 Y89.572 E0.61311
G1 X104.715 Y89.501 E0.69712
G1 X107.302 Y89.356 E0.7833
G1 X107.861 Y89.321 E0.80193
G1 X108.201 Y89.306 E0.81325
G1 X108.521 Y89.297 E0.8239
G1 X108.83 Y89.293 E0.83417
G1 X123.052 Y89.294 E1.3072
G1 X123.75 Y89.304 E1.33042
G1 X124.686 Y89.358 E1.3616
G1 X125.614 Y89.49 E1.39278
G1 X126.528 Y89.702 E1.42398
G1 X127.42 Y89.991 E1.45517
G1 X128.285 Y90.354 E1.48637
G1 X129.115 Y90.79 E1.51755
G1 X129.906 Y91.295 E1.54877
G1 X130.65 Y91.866 E1.57996
G1 X131.343 Y92.498 E1.61115
G1 X131.98 Y93.186 E1.64234
G1 X132.555 Y93.927 E1.67354
G1 X133.066 Y94.713 E1.70472
G1 X133.508 Y95.541 E1.73593
G1 X133.877 Y96.403 E1.76712
G1 X134.172 Y97.293 E1.79831
G1 X134.39 Y98.205 E1.82949
G1 X134.53 Y99.133 E1.86071
G1 X134.588 Y99.993 E1.88938
G1 X134.597 Y100.312 E1.89999
G1 X134.601 Y100.623 E1.91034
G1 X134.599 Y112.204 E2.29552
G1 X134.589 Y112.904 E2.31881
G1 X134.536 Y113.84 E2.34999
G1 X134.403 Y114.769 E2.3812
G1 X134.191 Y115.683 E2.41241
G1 X133.902 Y116.575 E2.44359
G1 X133.539 Y117.439 E2.47476
G1 X133.103 Y118.27 E2.50598
G1 X132.598 Y119.06 E2.53716
G1 X132.253 Y119.526 E2.55645
G1 X131.996 Y119.848 E2.57015
G1 X131.627 Y120.293 E2.58938
G1 X126.022 Y126.92 E2.87806
G1 X125.573 Y127.434 E2.90076
G1 X124.927 Y128.113 E2.93193
G1 X124.225 Y128.735 E2.96312
G1 X123.472 Y129.295 E2.99434
G1 X122.675 Y129.788 E3.02551
G1 X121.838 Y130.212 E3.05671
G1 X120.968 Y130.563 E3.08792
G1 X120.072 Y130.839 E3.1191
G1 X119.155 Y131.038 E3.15031
G1 X118.225 Y131.157 E3.18149
G1 X116.856 Y131.188 E3.22704
G1 X116.729 Y131.183 E3.23126
G1 X115.795 Y131.107 E3.26243
G1 X115.164 Y131.009 E3.28367
G1 X114.574 Y130.9 E3.30363
G1 X114.254 Y130.836 E3.31448
G1 X113.6 Y130.695 E3.33673
G1 X112.761 Y130.479 E3.36555
G1 X112.474 Y130.393 E3.37551
G1 X112.132 Y130.285 E3.38744
G1 X111.638 Y130.117 E3.4048
G1 X110.984 Y129.884 E3.42789
G1 X110.16 Y129.552 E3.45743
G1 X109.969 Y129.466 E3.4644
G1 X109.698 Y129.34 E3.47434
G1 X109.367 Y129.18 E3.48657
G1 X109.145 Y129.069 E3.49482
G1 X107.621 Y128.289 E3.55177
G1 X106.586 Y127.742 E3.5907
G1 X104.346 Y126.638 E3.67376
G1 X102.033 Y125.58 E3.75836
G1 X99.758 Y124.614 E3.84056
G1 X97.357 Y123.674 E3.92632
G1 X95.005 Y122.833 E4.0094
G1 X92.667 Y122.068 E4.09122
G1 X89.668 Y121.188 E4.19517
G1 X88.584 Y120.889 E4.23257
G1 X87.691 Y120.601 E4.26378
G1 X86.826 Y120.238 E4.29498
G1 X85.995 Y119.803 E4.32618
G1 X85.205 Y119.298 E4.35736
G1 X84.46 Y118.729 E4.38854
G1 X83.766 Y118.097 E4.41976
G1 X83.129 Y117.409 E4.45095
G1 X82.552 Y116.669 E4.48216
G1 X82.041 Y115.883 E4.51334
G1 X81.599 Y115.056 E4.54453
G1 X81.228 Y114.195 E4.57571
G1 X80.933 Y113.305 E4.6069
G1 X80.714 Y112.393 E4.63809
G1 X80.574 Y111.465 E4.66931
G1 X80.515 Y110.626 E4.69728
G1 X80.505 Y110.304 E4.708
G1 X80.5 Y109.963 E4.71934
G1 X80.501 Y100.818 E5.0235
G1 X80.51 Y100.153 E5.04562
G1 X80.563 Y99.217 E5.0768
G1 X80.695 Y98.288 E5.10801
G1 X80.906 Y97.374 E5.13921
G1 X81.194 Y96.482 E5.17039
G1 X81.557 Y95.617 E5.20159
G1 X81.992 Y94.786 E5.23279
G1 X82.496 Y93.996 E5.26395
G1 X83.066 Y93.251 E5.29515
G1 X83.698 Y92.557 E5.32637
G1 X84.386 Y91.92 E5.35756
G0 F6000 X84.774 Y92.116
G1 F600 X85.51 Y91.563 E5.38818
G1 X86.291 Y91.075 E5.41881
G1 X87.111 Y90.657 E5.44942
G1 X87.965 Y90.312 E5.48005
G1 X88.845 Y90.042 E5.51067
G1 X89.745 Y89.85 E5.54128
G1 X90.659 Y89.736 E5.57191
G1 X91.212 Y89.706 E5.59033
G1 X91.533 Y89.697 E5.60101
G1 X91.83 Y89.693 E5.61089
G1 X92.793 Y89.693 E5.64292
G1 X93.664 Y89.705 E5.67189
G1 X94.23 Y89.729 E5.69074
G1 X94.544 Y89.751 E5.7012
G1 X97.148 Y89.899 E5.78795
G1 X99.689 Y89.972 E5.8725
G1 X102.201 Y89.972 E5.95605
G1 X104.748 Y89.901 E6.0408
G1 X107.301 Y89.757 E6.12585
G1 X107.495 Y89.743 E6.13232
G1 X107.884 Y89.72 E6.14528
G1 X108.212 Y89.706 E6.1562
G1 X108.532 Y89.697 E6.16684
G1 X108.83 Y89.693 E6.17676
G1 X123.046 Y89.694 E6.64958
G1 X123.744 Y89.704 E6.6728
G1 X124.663 Y89.757 E6.70342
G1 X125.574 Y89.89 E6.73404
G1 X126.47 Y90.101 E6.76465
G1 X127.344 Y90.389 E6.79526
G1 X128.191 Y90.752 E6.82591
G1 X129.002 Y91.187 E6.85652
G1 X129.772 Y91.691 E6.88713
G1 X130.496 Y92.26 E6.91776
G1 X131.168 Y92.89 E6.94839
G1 X131.783 Y93.575 E6.97901
G1 X132.336 Y94.311 E7.00963
G1 X132.823 Y95.092 E7.04024
G1 X133.24 Y95.913 E7.07087
G1 X133.585 Y96.767 E7.1015
G1 X133.854 Y97.647 E7.13211
G1 X134.046 Y98.548 E7.16275
G1 X134.159 Y99.461 E7.19335
G1 X134.188 Y100.004 E7.21143
G1 X134.197 Y100.323 E7.22205
G1 X134.201 Y100.623 E7.23203
G1 X134.199 Y112.198 E7.61701
G1 X134.189 Y112.898 E7.6403
G1 X134.136 Y113.818 E7.67095
G1 X134.003 Y114.729 E7.70157
G1 X133.792 Y115.625 E7.73219
G1 X133.504 Y116.499 E7.76279
G1 X133.141 Y117.345 E7.79341
G1 X132.706 Y118.157 E7.82405
G1 X131.938 Y119.28 E7.8693
G1 X131.688 Y119.593 E7.88262
G1 X131.321 Y120.035 E7.90173
G1 X125.721 Y126.657 E8.19018
G1 X125.272 Y127.171 E8.21288
G1 X124.637 Y127.837 E8.24348
G1 X123.946 Y128.446 E8.27412
G1 X123.205 Y128.992 E8.30473
G1 X122.42 Y129.472 E8.33534
G1 X121.596 Y129.883 E8.36596
G1 X120.739 Y130.22 E8.39659
G1 X119.856 Y130.481 E8.42722
G1 X118.954 Y130.665 E8.45783
G1 X118.04 Y130.77 E8.48843
G1 X116.872 Y130.789 E8.52729
G1 X116.745 Y130.784 E8.53151
G1 X115.828 Y130.708 E8.56212
G1 X115.236 Y130.616 E8.58204
G1 X114.646 Y130.507 E8.602
G1 X114.338 Y130.445 E8.61245
G1 X113.684 Y130.304 E8.6347
G1 X112.875 Y130.096 E8.66248
G1 X112.588 Y130.01 E8.67245
G1 X112.259 Y129.905 E8.68394
G1 X111.773 Y129.74 E8.70101
G1 X111.119 Y129.507 E8.7241
G1 X110.324 Y129.187 E8.7526
G1 X109.872 Y128.98 E8.76914
G1 X109.541 Y128.82 E8.78136
G1 X109.327 Y128.713 E8.78932
G1 X107.808 Y127.935 E8.84609
G1 X106.799 Y127.402 E8.88404
G1 X104.482 Y126.26 E8.96995
G1 X102.22 Y125.226 E9.05268
G1 X99.881 Y124.232 E9.13721
G1 X97.512 Y123.305 E9.22182
G1 X95.148 Y122.459 E9.30533
G1 X92.777 Y121.683 E9.3883
G1 X89.76 Y120.798 E9.49288
G1 X88.69 Y120.503 E9.52979
G1 X87.814 Y120.22 E9.56041
G1 X86.966 Y119.862 E9.59103
G1 X86.152 Y119.431 E9.62166
G1 X85.379 Y118.932 E9.65226
G1 X84.651 Y118.367 E9.68291
G1 X83.976 Y117.742 E9.71351
G1 X83.357 Y117.06 E9.74414
G1 X82.8 Y116.327 E9.77476
G1 X82.309 Y115.548 E9.80539
G1 X81.887 Y114.73 E9.836
G1 X81.538 Y113.878 E9.86663
G1 X81.263 Y112.999 E9.89726
G1 X81.067 Y112.1 E9.92786
G1 X80.948 Y111.187 E9.95849
G1 X80.915 Y110.614 E9.97758
G1 X80.905 Y110.292 E9.98829
G1 X80.9 Y109.963 E9.99923
G1 X80.901 Y100.824 E10.3032
G1 X80.91 Y100.159 E10.32532
G1 X80.962 Y99.239 E10.35597
G1 X81.094 Y98.328 E10.38658
G1 X81.305 Y97.432 E10.4172
G1 X81.592 Y96.557 E10.44783
G1 X81.955 Y95.711 E10.47845
G1 X82.389 Y94.899 E10.50907
G1 X82.892 Y94.128 E10.53969
G1 X83.461 Y93.404 E10.57032
G1 X84.089 Y92.732 E10.60091
G1 X84.774 Y92.116 E10.63155
G0 F6000 X85.162 Y92.317
G1 F600 X85.894 Y91.787 E10.66161
G1 X86.669 Y91.324 E10.69163
G1 X87.482 Y90.931 E10.72167
G1 X88.327 Y90.611 E10.75172
G1 X89.196 Y90.368 E10.78173
G1 X90.084 Y90.202 E10.81178
G1 X91.223 Y90.106 E10.84979
G1 X91.544 Y90.097 E10.86047
G1 X91.83 Y90.093 E10.86999
G1 X92.793 Y90.093 E10.90202
G1 X93.658 Y90.105 E10.93079
G1 X94.203 Y90.128 E10.94893
G1 X94.58 Y90.154 E10.9615
G1 X97.113 Y90.299 E11.04589
G1 X99.678 Y90.372 E11.13124
G1 X102.212 Y90.372 E11.21552
G1 X104.747 Y90.301 E11.29986
G1 X107.36 Y90.154 E11.38691
G1 X107.908 Y90.12 E11.40517
G1 X108.223 Y90.106 E11.41566
G1 X108.543 Y90.097 E11.42631
G1 X108.83 Y90.093 E11.43585
G1 X123.04 Y90.094 E11.90848
G1 X123.738 Y90.104 E11.9317
G1 X124.64 Y90.157 E11.96175
G1 X125.533 Y90.289 E11.99177
G1 X126.411 Y90.5 E12.02181
G1 X127.267 Y90.788 E12.05185
G1 X128.094 Y91.15 E12.08187
G1 X128.886 Y91.585 E12.11193
G1 X129.637 Y92.087 E12.14197
G1 X130.34 Y92.654 E12.17201
G1 X130.99 Y93.281 E12.20205
G1 X131.582 Y93.963 E12.23209
G1 X132.112 Y94.694 E12.26212
G1 X132.574 Y95.47 E12.29215
G1 X132.967 Y96.283 E12.32219
G1 X133.285 Y97.128 E12.35222
G1 X133.528 Y97.998 E12.38226
G1 X133.693 Y98.886 E12.4123
G1 X133.788 Y100.015 E12.44999
G1 X133.797 Y100.334 E12.4606
G1 X133.801 Y100.623 E12.47021
G1 X133.799 Y112.193 E12.85503
G1 X133.789 Y112.893 E12.87832
G1 X133.736 Y113.794 E12.90834
G1 X133.604 Y114.688 E12.93839
G1 X133.393 Y115.566 E12.96843
G1 X133.105 Y116.422 E12.99847
G1 X132.743 Y117.249 E13.02849
G1 X132.309 Y118.041 E13.05853
G1 X131.623 Y119.033 E13.09864
G1 X131.379 Y119.338 E13.11164
G1 X131.016 Y119.777 E13.13058
G1 X125.527 Y126.269 E13.41334
G1 X124.971 Y126.907 E13.44149
G1 X124.347 Y127.561 E13.47155
G1 X123.668 Y128.156 E13.50158
G1 X122.939 Y128.689 E13.53162
G1 X122.166 Y129.156 E13.56166
G1 X121.354 Y129.552 E13.5917
G1 X120.511 Y129.875 E13.62173
G1 X119.642 Y130.122 E13.65178
G1 X118.755 Y130.291 E13.68181
G1 X117.857 Y130.381 E13.71183
G1 X116.888 Y130.389 E13.74406
G1 X116.761 Y130.384 E13.74828
G1 X115.861 Y130.309 E13.77832
G1 X115.309 Y130.222 E13.79691
G1 X114.719 Y130.113 E13.81686
G1 X114.422 Y130.054 E13.82694
G1 X113.768 Y129.913 E13.84919
G1 X112.99 Y129.713 E13.8759
G1 X112.703 Y129.627 E13.88587
G1 X112.386 Y129.526 E13.89694
G1 X111.907 Y129.363 E13.91376
G1 X111.253 Y129.13 E13.93686
G1 X110.488 Y128.823 E13.96427
G1 X110.297 Y128.737 E13.97124
G1 X110.046 Y128.619 E13.98046
G1 X109.509 Y128.357 E14.00034
G1 X107.995 Y127.581 E14.05692
G1 X106.984 Y127.047 E14.09495
G1 X104.688 Y125.916 E14.18008
G1 X102.363 Y124.852 E14.26512
G1 X100.034 Y123.863 E14.34928
G1 X97.656 Y122.932 E14.43422
G1 X95.259 Y122.074 E14.51889
G1 X92.888 Y121.298 E14.60187
G1 X89.869 Y120.413 E14.70651
G1 X88.796 Y120.117 E14.74353
G1 X87.937 Y119.839 E14.77356
G1 X87.106 Y119.485 E14.8036
G1 X86.31 Y119.06 E14.83361
G1 X85.554 Y118.565 E14.86367
G1 X84.845 Y118.006 E14.8937
G1 X84.188 Y117.386 E14.92374
G1 X83.589 Y116.711 E14.95376
G1 X83.051 Y115.985 E14.98381
G1 X82.58 Y115.214 E15.01386
G1 X82.179 Y114.405 E15.0439
G1 X81.851 Y113.564 E15.07392
G1 X81.599 Y112.697 E15.10395
G1 X81.425 Y111.811 E15.13398
G1 X81.315 Y110.602 E15.17436
G1 X81.305 Y110.28 E15.18507
G1 X81.3 Y109.963 E15.19562
G1 X81.301 Y100.829 E15.49942
G1 X81.31 Y100.164 E15.52154
G1 X81.362 Y99.262 E15.55159
G1 X81.494 Y98.369 E15.58161
G1 X81.704 Y97.491 E15.61164
G1 X81.991 Y96.634 E15.6417
G1 X82.353 Y95.807 E15.67172
G1 X82.786 Y95.015 E15.70174
G1 X83.288 Y94.264 E15.73179
G1 X83.855 Y93.56 E15.76185
G1 X84.481 Y92.91 E15.79187
G1 X85.162 Y92.317 E15.8219
G1 F2700 E10.8219
;MESH:Heat_tower_190-240_Bridge.stl
G0 F6000 X93.253 Y98.907
G0 X107.923 Y111.623
G0 X109.003 Y111.552
G0 X109.974 Y113.822
G0 X110.507 Y114.904
G0 X111.179 Y115.908
G0 X111.976 Y116.817
G0 X112.884 Y117.614
G0 X113.889 Y118.286
G0 X114.764 Y118.717
G0 X117.051 Y119.567
;TYPE:WALL-INNER
G1 F2700 E15.8219
G1 F600 X116.068 Y119.372 E15.85523
G1 X114.907 Y118.978 E15.89601
G1 X113.799 Y118.431 E15.93711
G1 X112.78 Y117.751 E15.97786
G1 X111.855 Y116.938 E16.01882
G1 X111.042 Y116.012 E16.0598
G1 X110.362 Y114.994 E16.10052
G1 X109.815 Y113.886 E16.14162
G1 X109.421 Y112.725 E16.1824
G1 X109.182 Y111.525 E16.22309
G1 X109.1 Y110.269 E16.26496
G1 X109.1 Y100.893 E16.5768
G1 X122.802 Y100.893 E17.03253
G1 X123.001 Y100.893 E17.03915
G1 X123.001 Y101.092 E17.04343
G1 X123 Y112.531 E17.4239
G1 X117.051 Y119.567 E17.73035
G0 F6000 X117.204 Y120.005
;TYPE:WALL-OUTER
G1 F600 X115.962 Y119.758 E17.77247
G1 X114.752 Y119.348 E17.81496
G1 X113.599 Y118.779 E17.85773
G1 X112.535 Y118.068 E17.90029
G1 X111.571 Y117.222 E17.94295
G1 X110.724 Y116.257 E17.98565
G1 X110.014 Y115.194 E18.02817
G1 X109.445 Y114.041 E18.07094
G1 X109.035 Y112.831 E18.11343
G1 X108.785 Y111.576 E18.15599
G1 X108.7 Y110.28 E18.19919
G1 X108.7 Y100.493 E18.5247
G1 X123.401 Y100.493 E19.01366
G1 X123.4 Y112.677 E19.4189
G1 X117.204 Y120.005 E19.73808
G0 F6000 X117.013 Y119.55
G0 X116.901 Y119.14
;TYPE:SKIN
G1 F600 X116.17 Y118.995 E19.76287
G1 X115.056 Y118.617 E19.80199
G1 X113.994 Y118.093 E19.84138
G1 X113.02 Y117.443 E19.88033
G1 X112.132 Y116.661 E19.91968
G1 X111.353 Y115.775 E19.95892
G1 X110.698 Y114.796 E19.9981
G1 X110.176 Y113.737 E20.03737
G1 X109.798 Y112.623 E20.07649
G1 X109.571 Y111.484 E20.11512
G1 X109.49 Y110.244 E20.15645
G1 X109.49 Y101.283 E20.4545
G1 X122.611 Y101.283 E20.8909
G1 X122.61 Y112.388 E21.26026
G1 X116.901 Y119.14 E21.55435
G0 F6000 X116.847 Y119.414
G0 X115.159 Y118.879
G0 X113.588 Y118.157
G0 X113.832 Y117.792
G1 F600 X111 Y114.96 E21.68755
G0 F6000 X110.635 Y115.203
G0 X109.97 Y113.951
G0 X110.364 Y113.758
G1 F600 X115.032 Y118.426 E21.90712
G0 F6000 X115.908 Y118.736
G1 F600 X110.054 Y112.883 E22.18245
G0 F6000 X109.861 Y112.123
G1 F600 X116.666 Y118.929 E22.50256
G0 F6000 X117.035 Y118.732
G1 F600 X109.726 Y111.423 E22.84636
G0 F6000 X109.687 Y110.819
G1 F600 X117.294 Y118.426 E23.20417
G0 F6000 X117.553 Y118.119
G1 F600 X109.649 Y110.215 E23.57595
G0 F6000 X109.649 Y109.649
G1 F600 X117.813 Y117.813 E23.95996
G0 F6000 X118.071 Y117.506
G1 F600 X109.649 Y109.083 E24.35612
G0 F6000 X109.649 Y108.518
G1 F600 X118.331 Y117.2 E24.7645
G0 F6000 X118.59 Y116.893
G1 F600 X109.649 Y107.952 E25.18506
G0 F6000 X109.649 Y107.386
G1 F600 X118.849 Y116.587 E25.61782
G0 F6000 X119.109 Y116.28
G1 F600 X109.649 Y106.821 E26.06276
G0 F6000 X109.649 Y106.255
G1 F600 X119.368 Y115.973 E26.51989
G0 F6000 X119.627 Y115.667
G1 F600 X109.649 Y105.689 E26.98923
G0 F6000 X109.649 Y105.124
G1 F600 X119.886 Y115.36 E27.47072
G0 F6000 X120.145 Y115.054
G1 F600 X109.649 Y104.558 E27.96442
G0 F6000 X109.649 Y103.992
G1 F600 X120.404 Y114.747 E28.4703
G0 F6000 X120.664 Y114.441
G1 F600 X109.649 Y103.427 E28.98839
G0 F6000 X109.649 Y102.861
G1 F600 X120.923 Y114.134 E29.51866
G0 F6000 X121.182 Y113.828
G1 F600 X109.649 Y102.295 E30.06114
G0 F6000 X109.649 Y101.73
G1 F600 X121.442 Y113.522 E30.61582
G0 F6000 X121.7 Y113.215
G1 F600 X109.928 Y101.442 E31.16956
G0 F6000 X110.493 Y101.442
G1 F600 X121.96 Y112.909 E31.70894
G0 F6000 X122.219 Y112.602
G1 F600 X111.059 Y101.442 E32.23387
G0 F6000 X111.625 Y101.442
G1 F600 X122.449 Y112.267 E32.74302
G0 F6000 X122.449 Y111.701
G1 F600 X112.19 Y101.442 E33.22557
G0 F6000 X112.756 Y101.442
G1 F600 X122.449 Y111.135 E33.6815
G0 F6000 X122.449 Y110.57
G1 F600 X113.322 Y101.442 E34.11083
G0 F6000 X113.888 Y101.442
G1 F600 X122.449 Y110.004 E34.51354
G0 F6000 X122.449 Y109.438
G1 F600 X114.453 Y101.442 E34.88965
G0 F6000 X115.019 Y101.442
G1 F600 X122.449 Y108.873 E35.23915
G0 F6000 X122.449 Y108.307
G1 F600 X115.585 Y101.442 E35.56204
G0 F6000 X116.15 Y101.442
G1 F600 X122.449 Y107.741 E35.85832
G0 F6000 X122.449 Y107.176
G1 F600 X116.716 Y101.442 E36.12801
