;FLAVOR:Marlin
;TIME:645
;Filament used: 0.137308m
;Layer height: 0.15
;MINX:95
;MINY:96
;MINZ:0.2
;MAXX:125
;MAXY:124
;MAXZ:9.05
;Generated with Cura_SteamEngine 4.10.0
M140 S60
M105
M190 S60
M104 S210
M105
M109 S210
M82 ;absolute extrusion mode
M201 X500.00 Y500.00 Z100.00 E5000.00 ;Setup machine max acceleration
M203 X500.00 Y500.00 Z10.00 E50.00 ;Setup machine max feedrate
M204 P500.00 R1000.00 T500.00 ;Setup Print/Retract/Travel acceleration
M205 X8.00 Y8.00 Z0.40 E5.00 ;Setup Jerk
M220 S100 ;Reset Feedrate
M221 S100 ;Reset Flowrate

G28 ;Home
G29 ;Auto Bed Leveling
M420 S1 Z2 ;Enable ABL using saved Mesh and Fade Height

G92 E0 ;Reset Extruder
G1 Z2.0 F3000 ;Move Z Axis up
G1 X10.1 Y20 Z0.28 F5000.0 ;Move to start position
G1 X10.1 Y200.0 Z0.28 F1500.0 E15 ;Draw the first line
G1 X10.4 Y200.0 Z0.28 F5000.0 ;Move to side a little
G1 X10.4 Y20 Z0.28 F1500.0 E30 ;Draw the second line
G92 E0 ;Reset Extruder
G1 Z2.0 F3000 ;Move Z Axis up
G92 E0
G92 E0
G1 F2700 E-5
;LAYER_COUNT:60
;LAYER:0
M107
G0 F6000 X98.198 Y99.264 Z0.2
;TYPE:SKIRT
G1 F2700 E0
G1 F600 X98.886 Y98.627 E0.03119
G1 X99.626 Y98.051 E0.06237
G1 X100.412 Y97.539 E0.09357
G1 X101.239 Y97.097 E0.12476
G1 X102.101 Y96.727 E0.15596
G1 X102.991 Y96.431 E0.18716
G1 X103.903 Y96.213 E0.21835
G1 X104.83 Y96.072 E0.24953
G1 X105.701 Y96.013 E0.27857
G1 X106.022 Y96.004 E0.28925
G1 X106.33 Y96 E0.29949
G1 X113.293 Y96 E0.53108
G1 X114.149 Y96.011 E0.55956
G1 X115.085 Y96.065 E0.59074
G1 X116.013 Y96.197 E0.62192
G1 X116.927 Y96.409 E0.65312
G1 X117.819 Y96.698 E0.68431
G1 X118.684 Y97.061 E0.71551
G1 X119.514 Y97.497 E0.74669
G1 X120.305 Y98.002 E0.77791
G1 X121.049 Y98.573 E0.8091
G1 X121.742 Y99.205 E0.8403
G1 X122.379 Y99.893 E0.87148
G1 X122.954 Y100.634 E0.90268
G1 X123.465 Y101.42 E0.93386
G1 X123.907 Y102.248 E0.96508
G1 X124.276 Y103.11 E0.99626
G1 X124.571 Y104 E1.02745
G1 X124.789 Y104.912 E1.05863
G1 X124.929 Y105.84 E1.08985
G1 X124.987 Y106.701 E1.11855
G1 X124.996 Y107.021 E1.1292
G1 X125 Y107.33 E1.13948
G1 X124.999 Y112.4 E1.30811
G1 X124.99 Y113.127 E1.33229
G1 X124.939 Y114.064 E1.3635
G1 X124.807 Y114.992 E1.39467
G1 X124.598 Y115.906 E1.42586
G1 X124.311 Y116.799 E1.45706
G1 X123.949 Y117.665 E1.48828
G1 X123.515 Y118.496 E1.51946
G1 X123.011 Y119.287 E1.55065
G1 X122.442 Y120.032 E1.58183
G1 X121.811 Y120.727 E1.61305
G1 X121.124 Y121.365 E1.64424
G1 X120.385 Y121.942 E1.67542
G1 X119.599 Y122.454 E1.70662
G1 X118.773 Y122.897 E1.73779
G1 X117.911 Y123.269 E1.76902
G1 X117.022 Y123.565 E1.80019
G1 X116.11 Y123.785 E1.83139
G1 X115.183 Y123.926 E1.86258
G1 X114.299 Y123.987 E1.89205
G1 X113.978 Y123.996 E1.90273
G1 X113.67 Y124 E1.91297
G1 X106.565 Y123.999 E2.14929
G1 X105.867 Y123.99 E2.1725
G1 X104.931 Y123.938 E2.20368
G1 X104.002 Y123.806 E2.23489
G1 X103.088 Y123.596 E2.26608
G1 X102.195 Y123.309 E2.29728
G1 X101.33 Y122.946 E2.32848
G1 X100.499 Y122.512 E2.35966
G1 X99.708 Y122.008 E2.39086
G1 X98.963 Y121.438 E2.42206
G1 X98.269 Y120.807 E2.45326
G1 X97.632 Y120.12 E2.48442
G1 X97.055 Y119.38 E2.51563
G1 X96.543 Y118.594 E2.54683
G1 X96.1 Y117.767 E2.57803
G1 X95.729 Y116.906 E2.60921
G1 X95.433 Y116.016 E2.64041
G1 X95.214 Y115.104 E2.6716
G1 X95.073 Y114.177 E2.70279
G1 X95.013 Y113.288 E2.73243
G1 X95.004 Y112.955 E2.74351
G1 X95 Y112.658 E2.75338
G1 X95.001 Y107.525 E2.92411
G1 X95.01 Y106.86 E2.94623
G1 X95.063 Y105.924 E2.97741
G1 X95.195 Y104.995 E3.00862
G1 X95.406 Y104.081 E3.03982
G1 X95.694 Y103.189 E3.07099
G1 X96.057 Y102.324 E3.1022
G1 X96.492 Y101.493 E3.13339
G1 X96.996 Y100.703 E3.16456
G1 X97.566 Y99.958 E3.19576
G1 X98.198 Y99.264 E3.22698
G0 F6000 X98.589 Y99.439
G1 F600 X99.274 Y98.823 E3.25762
G1 X100.01 Y98.27 E3.28824
G1 X100.791 Y97.782 E3.31887
G1 X101.611 Y97.364 E3.34948
G1 X102.465 Y97.019 E3.38012
G1 X103.345 Y96.749 E3.41073
G1 X104.245 Y96.557 E3.44134
G1 X105.159 Y96.443 E3.47197
G1 X105.712 Y96.413 E3.49039
G1 X106.033 Y96.404 E3.50107
G1 X106.33 Y96.4 E3.51095
G1 X113.293 Y96.4 E3.74254
G1 X114.143 Y96.411 E3.77082
G1 X115.062 Y96.464 E3.80143
G1 X115.973 Y96.597 E3.83206
G1 X116.869 Y96.808 E3.86267
G1 X117.743 Y97.096 E3.89328
G1 X118.59 Y97.459 E3.92393
G1 X119.401 Y97.894 E3.95454
G1 X120.171 Y98.398 E3.98515
G1 X120.895 Y98.967 E4.01577
G1 X121.567 Y99.597 E4.04641
G1 X122.182 Y100.282 E4.07703
G1 X122.735 Y101.018 E4.10765
G1 X123.222 Y101.799 E4.13826
G1 X123.639 Y102.62 E4.16889
G1 X123.984 Y103.474 E4.19952
G1 X124.253 Y104.354 E4.23013
G1 X124.445 Y105.255 E4.26077
G1 X124.558 Y106.168 E4.29137
G1 X124.587 Y106.712 E4.30949
G1 X124.596 Y107.032 E4.32013
G1 X124.6 Y107.33 E4.33005
G1 X124.599 Y112.395 E4.49851
G1 X124.59 Y113.122 E4.52269
G1 X124.539 Y114.041 E4.5533
G1 X124.408 Y114.953 E4.58395
G1 X124.198 Y115.849 E4.61456
G1 X123.912 Y116.724 E4.64517
G1 X123.551 Y117.571 E4.6758
G1 X123.117 Y118.383 E4.70642
G1 X122.615 Y119.155 E4.73705
G1 X122.047 Y119.88 E4.76768
G1 X121.419 Y120.553 E4.7983
G1 X120.735 Y121.169 E4.82891
G1 X120 Y121.723 E4.85953
G1 X119.22 Y122.212 E4.89014
G1 X118.4 Y122.631 E4.92077
G1 X117.547 Y122.977 E4.95139
G1 X116.667 Y123.248 E4.98201
G1 X115.767 Y123.441 E5.01263
G1 X114.853 Y123.556 E5.04327
G1 X114.288 Y123.587 E5.06209
G1 X113.967 Y123.596 E5.07277
G1 X113.67 Y123.6 E5.08265
G1 X106.57 Y123.599 E5.31879
G1 X105.872 Y123.59 E5.34201
G1 X104.953 Y123.538 E5.37263
G1 X104.042 Y123.407 E5.40324
G1 X103.146 Y123.197 E5.43385
G1 X102.271 Y122.91 E5.46448
G1 X101.424 Y122.548 E5.49511
G1 X100.612 Y122.114 E5.52574
G1 X99.841 Y121.612 E5.55634
G1 X99.116 Y121.044 E5.58697
G1 X98.443 Y120.415 E5.61761
G1 X97.828 Y119.731 E5.6482
G1 X97.274 Y118.996 E5.67881
G1 X96.786 Y118.215 E5.70944
G1 X96.367 Y117.395 E5.74007
G1 X96.021 Y116.542 E5.77069
G1 X95.751 Y115.662 E5.8013
G1 X95.558 Y114.761 E5.83195
G1 X95.444 Y113.848 E5.86255
G1 X95.413 Y113.277 E5.88157
G1 X95.404 Y112.944 E5.89265
G1 X95.4 Y112.658 E5.90216
G1 X95.401 Y107.531 E6.07269
G1 X95.41 Y106.866 E6.09481
G1 X95.462 Y105.946 E6.12546
G1 X95.594 Y105.035 E6.15607
G1 X95.805 Y104.139 E6.18669
G1 X96.092 Y103.264 E6.21732
G1 X96.455 Y102.418 E6.24794
G1 X96.889 Y101.606 E6.27856
G1 X97.392 Y100.835 E6.30918
G1 X97.961 Y100.111 E6.3398
G1 X98.589 Y99.439 E6.3704
G0 F6000 X98.981 Y99.617
G1 F600 X99.662 Y99.024 E6.40043
G1 X100.394 Y98.494 E6.43049
G1 X101.169 Y98.031 E6.46051
G1 X101.982 Y97.638 E6.49055
G1 X102.827 Y97.318 E6.5206
G1 X103.696 Y97.075 E6.55061
G1 X104.584 Y96.909 E6.58066
G1 X105.723 Y96.813 E6.61868
G1 X106.044 Y96.804 E6.62936
G1 X106.33 Y96.8 E6.63887
G1 X113.293 Y96.8 E6.87046
G1 X114.137 Y96.811 E6.89854
G1 X115.039 Y96.864 E6.92859
G1 X115.932 Y96.996 E6.95861
G1 X116.81 Y97.207 E6.98865
G1 X117.666 Y97.495 E7.01868
G1 X118.493 Y97.857 E7.04871
G1 X119.285 Y98.292 E7.07876
G1 X120.036 Y98.794 E7.10881
G1 X120.739 Y99.361 E7.13885
G1 X121.389 Y99.988 E7.16889
G1 X121.981 Y100.67 E7.19892
G1 X122.511 Y101.401 E7.22895
G1 X122.973 Y102.177 E7.25899
G1 X123.366 Y102.99 E7.28903
G1 X123.684 Y103.835 E7.31906
G1 X123.927 Y104.705 E7.3491
G1 X124.092 Y105.593 E7.37914
G1 X124.187 Y106.723 E7.41686
G1 X124.196 Y107.043 E7.4275
G1 X124.2 Y107.33 E7.43705
G1 X124.199 Y112.39 E7.60535
G1 X124.19 Y113.117 E7.62953
G1 X124.139 Y114.019 E7.65958
G1 X124.008 Y114.913 E7.68963
G1 X123.799 Y115.791 E7.71965
G1 X123.513 Y116.648 E7.7497
G1 X123.152 Y117.476 E7.77974
G1 X122.72 Y118.268 E7.80975
G1 X122.219 Y119.02 E7.8398
G1 X121.653 Y119.724 E7.86984
G1 X121.028 Y120.375 E7.89986
G1 X120.347 Y120.969 E7.92992
G1 X119.616 Y121.5 E7.95997
G1 X118.842 Y121.964 E7.98998
G1 X118.029 Y122.358 E8.02003
G1 X117.185 Y122.678 E8.05005
G1 X116.315 Y122.923 E8.08011
G1 X115.428 Y123.089 E8.11013
G1 X114.277 Y123.187 E8.14855
G1 X113.956 Y123.196 E8.15923
G1 X113.67 Y123.2 E8.16874
G1 X106.575 Y123.199 E8.40472
G1 X105.877 Y123.19 E8.42794
G1 X104.976 Y123.139 E8.45796
G1 X104.082 Y123.007 E8.48801
G1 X103.204 Y122.798 E8.51803
G1 X102.347 Y122.511 E8.54809
G1 X101.52 Y122.15 E8.5781
G1 X100.727 Y121.717 E8.60815
G1 X99.976 Y121.216 E8.63818
G1 X99.272 Y120.65 E8.66823
G1 X98.621 Y120.024 E8.69826
G1 X98.028 Y119.343 E8.7283
G1 X97.498 Y118.612 E8.75833
G1 X97.034 Y117.837 E8.78837
G1 X96.64 Y117.024 E8.81842
G1 X96.32 Y116.18 E8.84844
G1 X96.076 Y115.31 E8.8785
G1 X95.91 Y114.422 E8.90854
G1 X95.813 Y113.267 E8.94709
G1 X95.804 Y112.934 E8.95817
G1 X95.8 Y112.658 E8.96735
G1 X95.801 Y107.536 E9.13771
G1 X95.81 Y106.871 E9.15983
G1 X95.862 Y105.969 E9.18988
G1 X95.994 Y105.076 E9.21991
G1 X96.204 Y104.198 E9.24993
G1 X96.491 Y103.341 E9.27999
G1 X96.853 Y102.514 E9.31002
G1 X97.286 Y101.722 E9.34004
G1 X97.788 Y100.971 E9.37008
G1 X98.355 Y100.267 E9.40015
G1 X98.981 Y99.617 E9.43016
G1 F2700 E4.43016
;MESH:LCD_Display_Support_ReneB.stl
G0 F6000 X106.414 Y106.335
G0 X106.414 Y107.414
G0 X113.218 Y107.782
G0 X113.4 Y112.4
;TYPE:WALL-INNER
G1 F2700 E9.43016
G1 F600 X106.6 Y112.4 E9.65633
G1 X106.6 Y107.6 E9.81598
G1 X113.4 Y107.6 E10.04215
G1 X113.4 Y112.4 E10.2018
G0 F6000 X113.8 Y112.8
;TYPE:WALL-OUTER
G1 F600 X106.2 Y112.8 E10.45458
G1 X106.2 Y107.2 E10.64083
G1 X113.8 Y107.2 E10.89361
G1 X113.8 Y112.8 E11.07987
G0 F6000 X113.53 Y112.53
G0 X113.29 Y112.01
G0 X113.01 Y112.01
;TYPE:SKIN
G1 F600 X106.99 Y112.01 E11.28009
G1 X106.99 Y107.99 E11.4138
G1 X113.01 Y107.99 E11.61402
G1 X113.01 Y112.01 E11.74773
G0 F6000 X113.29 Y112.01
G0 X113.29 Y108.323
G0 X112.849 Y108.323
G1 F600 X112.675 Y108.149 E11.75592
G0 F6000 X112.109 Y108.149
G1 F600 X112.849 Y108.889 E11.79072
G0 F6000 X112.849 Y109.455
G1 F600 X111.543 Y108.149 E11.85215
G0 F6000 X110.978 Y108.149
G1 F600 X112.849 Y110.02 E11.94016
G0 F6000 X112.849 Y110.586
G1 F600 X110.412 Y108.149 E12.05479
G0 F6000 X109.846 Y108.149
G1 F600 X112.849 Y111.152 E12.19604
G0 F6000 X112.849 Y111.717
G1 F600 X109.281 Y108.149 E12.36387
G0 F6000 X108.715 Y108.149
G1 F600 X112.415 Y111.849 E12.5379
G0 F6000 X111.849 Y111.849
G1 F600 X108.149 Y108.149 E12.71194
G0 F6000 X107.584 Y108.149
G1 F600 X111.283 Y111.849 E12.88595
G0 F6000 X110.718 Y111.849
G1 F600 X107.15 Y108.281 E13.05378
G0 F6000 X107.15 Y108.847
G1 F600 X110.152 Y111.849 E13.19499
G0 F6000 X109.586 Y111.849
G1 F600 X107.15 Y109.412 E13.30959
G0 F6000 X107.15 Y109.978
G1 F600 X109.021 Y111.849 E13.3976
G0 F6000 X108.455 Y111.849
G1 F600 X107.15 Y110.544 E13.45898
G0 F6000 X107.15 Y111.109
G1 F600 X107.889 Y111.849 E13.49377
G0 F6000 X107.323 Y111.849
G1 F600 X107.15 Y111.675 E13.50193
G0 F6000 X106.8 Y111.675
;MESH:NONMESH
G0 F300 X106.8 Y111.675 Z0.35
G0 F6000 X106.71 Y111.675
G0 X106.782 Y112.218
G0 X113.4 Y112.4
;TIME_ELAPSED:47.868305
;LAYER:1
M106 S85
;TYPE:WALL-INNER
;MESH:LCD_Display_Support_ReneB.stl
G1 F745.2 X106.6 Y112.4 E13.67155
G1 X106.6 Y107.6 E13.79129
G1 X113.4 Y107.6 E13.96092
G1 X113.4 Y112.4 E14.08065
G0 F7500 X113.8 Y112.8
;TYPE:WALL-OUTER
G1 F745.2 X106.2 Y112.8 E14.27024
G1 X106.2 Y107.2 E14.40993
G1 X113.8 Y107.2 E14.59951
G1 X113.8 Y112.8 E14.7392
G0 F7500 X113.53 Y112.53
G0 X113.29 Y112.01
G0 X113.01 Y112.01
;TYPE:SKIN
G1 F745.2 X106.99 Y112.01 E14.88937
G1 X106.99 Y107.99 E14.98965
G1 X113.01 Y107.99 E15.13982
G1 X113.01 Y112.01 E15.2401
G0 F7500 X112.727 Y111.849
G1 F745.2 X112.849 Y111.727 E15.2444
G0 F7500 X112.849 Y111.162
G1 F745.2 X112.161 Y111.849 E15.26866
G0 F7500 X111.596 Y111.849
G1 F745.2 X112.849 Y110.596 E15.31286
G0 F7500 X112.849 Y110.03
G1 F745.2 X111.03 Y111.849 E15.37703
G0 F7500 X110.464 Y111.849
G1 F745.2 X112.849 Y109.465 E15.46115
G0 F7500 X112.849 Y108.899
G1 F745.2 X109.899 Y111.849 E15.56522
G0 F7500 X109.333 Y111.849
G1 F745.2 X112.849 Y108.333 E15.68926
G0 F7500 X112.467 Y108.149
G1 F745.2 X108.767 Y111.849 E15.81978
G0 F7500 X108.202 Y111.849
G1 F745.2 X111.901 Y108.149 E15.95029
G0 F7500 X111.336 Y108.149
G1 F745.2 X107.636 Y111.849 E16.08082
G0 F7500 X107.15 Y111.77
G1 F745.2 X110.77 Y108.149 E16.20854
G0 F7500 X110.204 Y108.149
G1 F745.2 X107.15 Y111.204 E16.3163
G0 F7500 X107.15 Y110.638
G1 F745.2 X109.639 Y108.149 E16.40411
G0 F7500 X109.073 Y108.149
G1 F745.2 X107.15 Y110.073 E16.47196
G0 F7500 X107.15 Y109.507
G1 F745.2 X108.507 Y108.149 E16.51985
G0 F7500 X107.941 Y108.149
G1 F745.2 X107.15 Y108.941 E16.54777
G0 F7500 X107.15 Y108.376
G1 F745.2 X107.376 Y108.149 E16.55577
G0 F7500 X107.376 Y107.8
;MESH:NONMESH
G0 F300 X107.376 Y107.8 Z0.5
G0 F7500 X107.376 Y107.71
G0 X113.218 Y107.782
G0 X113.4 Y112.4
;TIME_ELAPSED:59.433137
;LAYER:2
M106 S170
;TYPE:WALL-INNER
;MESH:LCD_Display_Support_ReneB.stl
G1 F746.1 X106.6 Y112.4 E16.72539
G1 X106.6 Y107.6 E16.84513
G1 X113.4 Y107.6 E17.01475
G1 X113.4 Y112.4 E17.13449
G0 F9000 X113.8 Y112.8
;TYPE:WALL-OUTER
G1 F746.1 X106.2 Y112.8 E17.32407
G1 X106.2 Y107.2 E17.46377
G1 X113.8 Y107.2 E17.65335
G1 X113.8 Y112.8 E17.79304
G0 F9000 X113.53 Y112.53
G0 X113.29 Y112.01
G0 X113.01 Y112.01
;TYPE:SKIN
G1 F746.1 X106.99 Y112.01 E17.94321
G1 X106.99 Y107.99 E18.04349
G1 X113.01 Y107.99 E18.19366
G1 X113.01 Y112.01 E18.29394
G0 F9000 X113.29 Y112.01
G0 X113.29 Y108.323
G0 X112.849 Y108.323
G1 F746.1 X112.675 Y108.149 E18.30008
G0 F9000 X112.109 Y108.149
G1 F746.1 X112.849 Y108.889 E18.32618
G0 F9000 X112.849 Y109.455
G1 F746.1 X111.543 Y108.149 E18.37226
G0 F9000 X110.978 Y108.149
G1 F746.1 X112.849 Y110.02 E18.43826
G0 F9000 X112.849 Y110.586
G1 F746.1 X110.412 Y108.149 E18.52423
G0 F9000 X109.846 Y108.149
G1 F746.1 X112.849 Y111.152 E18.63017
G0 F9000 X112.849 Y111.717
G1 F746.1 X109.281 Y108.149 E18.75604
G0 F9000 X108.715 Y108.149
G1 F746.1 X112.415 Y111.849 E18.88657
G0 F9000 X111.849 Y111.849
G1 F746.1 X108.149 Y108.149 E19.0171
G0 F9000 X107.584 Y108.149
G1 F746.1 X111.283 Y111.849 E19.14761
G0 F9000 X110.718 Y111.849
G1 F746.1 X107.15 Y108.281 E19.27348
G0 F9000 X107.15 Y108.847
G1 F746.1 X110.152 Y111.849 E19.37938
G0 F9000 X109.586 Y111.849
G1 F746.1 X107.15 Y109.412 E19.46534
G0 F9000 X107.15 Y109.978
G1 F746.1 X109.021 Y111.849 E19.53134
G0 F9000 X108.455 Y111.849
G1 F746.1 X107.15 Y110.544 E19.57738
G0 F9000 X107.15 Y111.109
G1 F746.1 X107.889 Y111.849 E19.60347
G0 F9000 X107.323 Y111.849
G1 F746.1 X107.15 Y111.675 E19.60959
G0 F9000 X106.8 Y111.675
;MESH:NONMESH
G0 F300 X106.8 Y111.675 Z0.65
G0 F9000 X106.71 Y111.675
G0 X106.782 Y112.218
G0 X113.4 Y112.4
;TIME_ELAPSED:71.083384
;LAYER:3
M106 S255
;TYPE:WALL-INNER
;MESH:LCD_Display_Support_ReneB.stl
G1 F743.4 X106.6 Y112.4 E19.77921
G1 X106.6 Y107.6 E19.89895
G1 X113.4 Y107.6 E20.06858
G1 X113.4 Y112.4 E20.18831
G0 F9000 X113.8 Y112.8
;TYPE:WALL-OUTER
G1 F743.4 X106.2 Y112.8 E20.3779
G1 X106.2 Y107.2 E20.51759
G1 X113.8 Y107.2 E20.70717
G1 X113.8 Y112.8 E20.84686
G0 F9000 X113.53 Y112.53
G0 X113.29 Y112.01
G0 X113.01 Y112.01
;TYPE:SKIN
G1 F743.4 X106.99 Y112.01 E20.99703
G1 X106.99 Y107.99 E21.09731
G1 X113.01 Y107.99 E21.24748
G1 X113.01 Y112.01 E21.34776
G0 F9000 X112.727 Y111.849
G1 F743.4 X112.849 Y111.727 E21.35206
G0 F9000 X112.849 Y111.162
G1 F743.4 X112.161 Y111.849 E21.37632
G0 F9000 X111.596 Y111.849
G1 F743.4 X112.849 Y110.596 E21.42052
G0 F9000 X112.849 Y110.03
G1 F743.4 X111.03 Y111.849 E21.48469
G0 F9000 X110.464 Y111.849
G1 F743.4 X112.849 Y109.465 E21.56881
G0 F9000 X112.849 Y108.899
G1 F743.4 X109.899 Y111.849 E21.67288
G0 F9000 X109.333 Y111.849
G1 F743.4 X112.849 Y108.333 E21.79692
G0 F9000 X112.467 Y108.149
G1 F743.4 X108.767 Y111.849 E21.92744
G0 F9000 X108.202 Y111.849
G1 F743.4 X111.901 Y108.149 E22.05795
G0 F9000 X111.336 Y108.149
G1 F743.4 X107.636 Y111.849 E22.18848
G0 F9000 X107.15 Y111.77
G1 F743.4 X110.77 Y108.149 E22.3162
G0 F9000 X110.204 Y108.149
G1 F743.4 X107.15 Y111.204 E22.42396
G0 F9000 X107.15 Y110.638
G1 F743.4 X109.639 Y108.149 E22.51177
G0 F9000 X109.073 Y108.149
G1 F743.4 X107.15 Y110.073 E22.57962
G0 F9000 X107.15 Y109.507
G1 F743.4 X108.507 Y108.149 E22.62751
G0 F9000 X107.941 Y108.149
G1 F743.4 X107.15 Y108.941 E22.65543
G0 F9000 X107.15 Y108.376
G1 F743.4 X107.376 Y108.149 E22.66343
G0 F9000 X107.376 Y107.8
;MESH:NONMESH
G0 F300 X107.376 Y107.8 Z0.8
G0 F9000 X107.376 Y107.71
G0 X113.218 Y107.782
G0 X113.4 Y112.4
;TIME_ELAPSED:82.683555
;LAYER:4
;TYPE:WALL-INNER
