;FLAVOR:Marlin
;TIME:7023
;Filament used: 3.55516m
;Layer height: 0.15
;MINX:61.021
;MINY:60.013
;MINZ:0.2
;MAXX:158.982
;MAXY:160
;MAXZ:5
;Generated with Cura_SteamEngine 4.9.0
M140 S60
M105
M190 S60
M104 S210
M105
M109 S210
M82 ;absolute extrusion mode
M201 X500.00 Y500.00 Z100.00 E5000.00 ;Setup machine max acceleration
M203 X500.00 Y500.00 Z10.00 E50.00 ;Setup machine max feedrate
M204 P500.00 R1000.00 T500.00 ;Setup Print/Retract/Travel acceleration
M205 X8.00 Y8.00 Z0.40 E5.00 ;Setup Jerk
M220 S100 ;Reset Feedrate
M221 S100 ;Reset Flowrate

G28 ;Home
G29 ;Auto Bed Leveling
M420 S1 Z2 ;Enable ABL using saved Mesh and Fade Height

G92 E0 ;Reset Extruder
G1 Z2.0 F3000 ;Move Z Axis up
G1 X10.1 Y20 Z0.28 F5000.0 ;Move to start position
G1 X10.1 Y200.0 Z0.28 F1500.0 E15 ;Draw the first line
G1 X10.4 Y200.0 Z0.28 F5000.0 ;Move to side a little
G1 X10.4 Y20 Z0.28 F1500.0 E30 ;Draw the second line
G92 E0 ;Reset Extruder
G1 Z2.0 F3000 ;Move Z Axis up
G92 E0
G92 E0
G1 F2700 E-5
;LAYER_COUNT:33
;LAYER:0
M107
G0 F6000 X70.455 Y71.362 Z0.2
;TYPE:SKIRT
G1 F2700 E0
G1 F600 X71.139 Y70.72 E0.0312
G1 X71.875 Y70.139 E0.06239
G1 X72.658 Y69.622 E0.0936
G1 X73.482 Y69.174 E0.12479
G1 X74.341 Y68.798 E0.15598
G1 X75.229 Y68.496 E0.18718
G1 X76.139 Y68.271 E0.21835
G1 X76.968 Y68.136 E0.24629
G1 X77.7 Y68.045 E0.27082
G1 X80.263 Y67.69 E0.35688
G1 X82.713 Y67.281 E0.4395
G1 X85.204 Y66.792 E0.52393
G1 X87.623 Y66.245 E0.60642
G1 X90.071 Y65.62 E0.69045
G1 X92.542 Y64.912 E0.77594
G1 X94.894 Y64.166 E0.85801
G1 X97.313 Y63.323 E0.94321
G1 X98.891 Y62.732 E0.99926
G1 X99.663 Y62.435 E1.02677
G1 X99.926 Y62.337 E1.0361
G1 X100.193 Y62.242 E1.04553
G1 X100.597 Y62.106 E1.05971
G1 X102.766 Y61.414 E1.13543
G1 X103.631 Y61.152 E1.16549
G1 X104.181 Y61.002 E1.18445
G1 X104.413 Y60.945 E1.1924
G1 X104.781 Y60.861 E1.20495
G1 X107.128 Y60.369 E1.28471
G1 X107.953 Y60.209 E1.31266
G1 X108.881 Y60.071 E1.34387
G1 X109.817 Y60.013 E1.37506
G1 X110.755 Y60.035 E1.40627
G1 X111.687 Y60.137 E1.43745
G1 X112.214 Y60.23 E1.45525
G1 X112.451 Y60.278 E1.46329
G1 X112.74 Y60.341 E1.47313
G1 X113.076 Y60.419 E1.4846
G1 X115.716 Y61.056 E1.57493
G1 X116.376 Y61.226 E1.5976
G1 X117.232 Y61.484 E1.62733
G1 X118.018 Y61.757 E1.65501
G1 X122.686 Y63.447 E1.82013
G1 X125.089 Y64.242 E1.90431
G1 X127.507 Y64.966 E1.98826
G1 X129.919 Y65.615 E2.07134
G1 X132.381 Y66.204 E2.15554
G1 X134.846 Y66.718 E2.23929
G1 X137.317 Y67.161 E2.32278
G1 X139.804 Y67.536 E2.40643
G1 X142.225 Y67.834 E2.48757
G1 X143.225 Y67.945 E2.52103
G1 X144.152 Y68.088 E2.55223
G1 X145.064 Y68.309 E2.58344
G1 X145.953 Y68.607 E2.61462
G1 X146.814 Y68.98 E2.64583
G1 X147.639 Y69.425 E2.67701
G1 X148.424 Y69.938 E2.7082
G1 X149.162 Y70.516 E2.73938
G1 X149.849 Y71.156 E2.77061
G1 X150.478 Y71.851 E2.80178
G1 X151.046 Y72.598 E2.83299
G1 X151.5 Y73.307 E2.861
G1 X151.658 Y73.576 E2.87137
G1 X151.834 Y73.887 E2.88326
G1 X157.29 Y83.909 E3.26279
G1 X157.722 Y84.729 E3.29361
G1 X158.123 Y85.577 E3.32481
G1 X158.45 Y86.456 E3.356
G1 X158.701 Y87.36 E3.38721
G1 X158.874 Y88.281 E3.41838
G1 X158.968 Y89.215 E3.4496
G1 X158.982 Y90.152 E3.48077
G1 X158.916 Y91.088 E3.51198
G1 X158.78 Y91.968 E3.54159
G1 X158.627 Y92.741 E3.5678
G1 X158.329 Y94.15 E3.6157
G1 X157.874 Y96.646 E3.70009
G1 X157.499 Y99.095 E3.78249
G1 X157.186 Y101.613 E3.86688
G1 X156.947 Y104.117 E3.95055
G1 X156.779 Y106.613 E4.03375
G1 X156.679 Y109.169 E4.11883
G1 X156.654 Y111.655 E4.20152
G1 X156.698 Y114.181 E4.28555
G1 X156.813 Y116.667 E4.36832
G1 X157.002 Y119.215 E4.4533
G1 X157.259 Y121.706 E4.53659
G1 X157.585 Y124.186 E4.61978
G1 X157.993 Y126.723 E4.70525
G1 X158.29 Y128.305 E4.75879
G1 X158.358 Y128.695 E4.77195
G1 X158.479 Y129.625 E4.80315
G1 X158.516 Y130.252 E4.82404
G1 X158.526 Y130.583 E4.83505
G1 X158.531 Y130.915 E4.84609
G1 X158.53 Y142.5 E5.23141
G1 X158.52 Y143.23 E5.25569
G1 X158.467 Y144.166 E5.28688
G1 X158.335 Y145.095 E5.31809
G1 X158.124 Y146.008 E5.34925
G1 X157.836 Y146.901 E5.38046
G1 X157.473 Y147.766 E5.41166
G1 X157.037 Y148.596 E5.44284
G1 X156.533 Y149.387 E5.47404
G1 X155.963 Y150.132 E5.50524
G1 X155.331 Y150.825 E5.53643
G1 X154.643 Y151.462 E5.56762
G1 X153.903 Y152.038 E5.59881
G1 X153.117 Y152.549 E5.62999
G1 X152.624 Y152.824 E5.64877
G1 X152.153 Y153.071 E5.66645
G1 X149.871 Y154.306 E5.75276
G1 X147.704 Y155.559 E5.83601
G1 X145.564 Y156.878 E5.91962
G1 X143.819 Y158.024 E5.98906
G1 X143.39 Y158.296 E6.00595
G1 X142.576 Y158.762 E6.03715
G1 X141.725 Y159.156 E6.06834
G1 X140.844 Y159.477 E6.09953
G1 X140.187 Y159.663 E6.12224
G1 X139.268 Y159.851 E6.15344
G1 X138.337 Y159.961 E6.18462
G1 X137.83 Y159.987 E6.2015
G1 X137.512 Y159.996 E6.21208
G1 X137.201 Y160 E6.22243
G1 X83.081 Y159.999 E8.02247
G1 X82.379 Y159.989 E8.04582
G1 X81.443 Y159.936 E8.077
G1 X80.515 Y159.803 E8.10818
G1 X79.601 Y159.591 E8.13939
G1 X78.708 Y159.303 E8.17059
G1 X77.844 Y158.939 E8.20178
G1 X77.013 Y158.503 E8.23299
G1 X76.517 Y158.197 E8.25237
G1 X75.545 Y157.561 E8.29101
G1 X73.338 Y156.16 E8.37795
G1 X71.164 Y154.865 E8.46212
G1 X68.969 Y153.638 E8.54576
G1 X68.271 Y153.274 E8.57194
G1 X67.304 Y152.751 E8.6085
G1 X66.499 Y152.27 E8.63969
G1 X65.738 Y151.722 E8.67089
G1 X65.027 Y151.111 E8.70207
G1 X64.37 Y150.442 E8.73325
G1 X63.772 Y149.719 E8.76446
G1 X63.238 Y148.948 E8.79565
G1 X62.772 Y148.134 E8.82685
G1 X62.377 Y147.284 E8.85802
G1 X62.055 Y146.402 E8.88925
G1 X61.81 Y145.497 E8.92044
G1 X61.643 Y144.574 E8.95163
G1 X61.546 Y143.418 E8.99022
G1 X61.536 Y143.095 E9.00097
G1 X61.531 Y142.755 E9.01228
G1 X61.532 Y131.121 E9.39922
G1 X61.543 Y130.415 E9.42271
G1 X61.598 Y129.478 E9.45393
G1 X61.727 Y128.576 E9.48423
G1 X61.863 Y127.846 E9.50893
G1 X62.304 Y125.274 E9.59572
G1 X62.655 Y122.805 E9.67867
G1 X62.943 Y120.273 E9.76343
G1 X63.154 Y117.79 E9.84631
G1 X63.297 Y115.29 E9.9296
G1 X63.369 Y112.742 E10.01438
G1 X63.369 Y110.253 E10.09716
G1 X63.297 Y107.721 E10.18141
G1 X63.154 Y105.181 E10.26602
G1 X62.945 Y102.721 E10.34814
G1 X62.659 Y100.202 E10.43246
G1 X62.301 Y97.683 E10.51708
G1 X61.883 Y95.239 E10.59955
G1 X61.438 Y92.998 E10.67554
G1 X61.25 Y92.105 E10.7059
G1 X61.096 Y91.18 E10.73708
G1 X61.021 Y90.245 E10.76828
G1 X61.027 Y89.307 E10.79948
G1 X61.112 Y88.373 E10.83067
G1 X61.277 Y87.45 E10.86186
G1 X61.519 Y86.544 E10.89305
G1 X61.838 Y85.662 E10.92425
G1 X62.336 Y84.611 E10.96293
G1 X62.49 Y84.326 E10.9737
G1 X62.67 Y84.006 E10.98591
G1 X68.55 Y73.943 E11.37356
G1 X68.861 Y73.425 E11.39365
G1 X69.378 Y72.642 E11.42486
G1 X69.829 Y72.06 E11.44935
G1 X70.455 Y71.362 E11.48054
G0 F6000 X70.753 Y71.63
G1 F600 X71.426 Y71.001 E11.51117
G1 X72.15 Y70.433 E11.54178
G1 X72.922 Y69.931 E11.57241
G1 X73.734 Y69.497 E11.60303
G1 X74.58 Y69.135 E11.63364
G1 X75.455 Y68.848 E11.66427
G1 X76.351 Y68.637 E11.69488
G1 X77.017 Y68.533 E11.7173
G1 X77.738 Y68.444 E11.74146
G1 X80.312 Y68.087 E11.8279
G1 X82.785 Y67.674 E11.91129
G1 X85.298 Y67.181 E11.99646
G1 X87.738 Y66.629 E12.07967
G1 X90.184 Y66.005 E12.16363
G1 X92.626 Y65.305 E12.24812
G1 X95.042 Y64.539 E12.33242
G1 X97.445 Y63.701 E12.41706
G1 X98.984 Y63.124 E12.47173
G1 X99.807 Y62.808 E12.50105
G1 X100.06 Y62.714 E12.51003
G1 X100.327 Y62.619 E12.51945
G1 X100.816 Y62.455 E12.53661
G1 X102.887 Y61.795 E12.6089
G1 X103.747 Y61.535 E12.63879
G1 X104.277 Y61.39 E12.65706
G1 X104.509 Y61.333 E12.66501
G1 X104.863 Y61.253 E12.67708
G1 X107.384 Y60.726 E12.76274
G1 X108.029 Y60.602 E12.78459
G1 X108.94 Y60.467 E12.81522
G1 X109.859 Y60.412 E12.84584
G1 X110.779 Y60.437 E12.87645
G1 X112.134 Y60.622 E12.92193
G1 X112.371 Y60.67 E12.92998
G1 X112.651 Y60.73 E12.9395
G1 X112.982 Y60.808 E12.95081
G1 X115.616 Y61.443 E13.04093
G1 X116.276 Y61.613 E13.0636
G1 X117.101 Y61.862 E13.09226
G1 X117.881 Y62.133 E13.11972
G1 X122.561 Y63.827 E13.28526
G1 X124.954 Y64.619 E13.3691
G1 X127.393 Y65.349 E13.45378
G1 X129.828 Y66.004 E13.53765
G1 X132.311 Y66.598 E13.62256
G1 X134.759 Y67.108 E13.70573
G1 X137.264 Y67.558 E13.79038
G1 X139.732 Y67.931 E13.8734
G1 X142.131 Y68.226 E13.95379
G1 X143.181 Y68.342 E13.98893
G1 X144.091 Y68.483 E14.01955
G1 X144.985 Y68.703 E14.05018
G1 X145.857 Y68.999 E14.0808
G1 X146.7 Y69.369 E14.11142
G1 X147.507 Y69.812 E14.14204
G1 X148.273 Y70.323 E14.17267
G1 X148.992 Y70.898 E14.20329
G1 X149.658 Y71.533 E14.2339
G1 X150.267 Y72.224 E14.26453
G1 X150.813 Y72.965 E14.29514
G1 X151.155 Y73.51 E14.31654
G1 X151.313 Y73.779 E14.32692
G1 X151.483 Y74.079 E14.33839
G1 X157.011 Y84.236 E14.72301
G1 X157.368 Y84.915 E14.74852
G1 X157.761 Y85.748 E14.77915
G1 X158.08 Y86.611 E14.80976
G1 X158.323 Y87.5 E14.84041
G1 X158.487 Y88.405 E14.871
G1 X158.573 Y89.322 E14.90163
G1 X158.579 Y90.243 E14.93227
G1 X158.504 Y91.16 E14.96287
G1 X158.387 Y91.891 E14.98749
G1 X158.236 Y92.658 E15.01349
G1 X157.931 Y94.101 E15.06255
G1 X157.484 Y96.55 E15.14535
G1 X157.101 Y99.056 E15.22966
G1 X156.789 Y101.567 E15.31382
G1 X156.548 Y104.088 E15.39805
G1 X156.378 Y106.606 E15.48199
G1 X156.279 Y109.149 E15.56664
G1 X156.254 Y111.658 E15.65009
G1 X156.298 Y114.172 E15.73372
G1 X156.415 Y116.714 E15.81836
G1 X156.604 Y119.25 E15.90294
G1 X156.863 Y121.763 E15.98696
G1 X157.188 Y124.235 E16.06989
G1 X157.598 Y126.783 E16.15573
G1 X157.895 Y128.373 E16.20953
G1 X157.963 Y128.763 E16.22269
G1 X158.082 Y129.676 E16.25332
G1 X158.116 Y130.264 E16.27291
G1 X158.126 Y130.595 E16.28392
G1 X158.131 Y130.915 E16.29456
G1 X158.13 Y142.494 E16.67968
G1 X158.12 Y143.224 E16.70397
G1 X158.067 Y144.143 E16.73458
G1 X157.935 Y145.054 E16.7652
G1 X157.725 Y145.951 E16.79584
G1 X157.437 Y146.825 E16.82645
G1 X157.074 Y147.672 E16.8571
G1 X156.64 Y148.483 E16.88769
G1 X156.137 Y149.254 E16.91831
G1 X155.568 Y149.978 E16.94893
G1 X154.939 Y150.651 E16.97957
G1 X154.254 Y151.266 E17.01019
G1 X153.518 Y151.819 E17.04081
G1 X152.439 Y152.469 E17.08271
G1 X151.954 Y152.723 E17.10092
G1 X149.701 Y153.942 E17.18612
G1 X147.5 Y155.215 E17.27069
G1 X145.315 Y156.562 E17.35606
G1 X143.431 Y157.798 E17.431
G1 X143.177 Y157.958 E17.44099
G1 X142.377 Y158.414 E17.47161
G1 X141.541 Y158.8 E17.50224
G1 X140.675 Y159.111 E17.53284
G1 X140.09 Y159.275 E17.55305
G1 X139.188 Y159.459 E17.58367
G1 X137.819 Y159.587 E17.6294
G1 X137.501 Y159.596 E17.63998
G1 X137.201 Y159.6 E17.64996
G1 X83.087 Y159.599 E19.4498
G1 X82.385 Y159.589 E19.47315
G1 X81.466 Y159.536 E19.50377
G1 X80.555 Y159.403 E19.53439
G1 X79.659 Y159.192 E19.56501
G1 X78.784 Y158.904 E19.59564
G1 X77.938 Y158.541 E19.62626
G1 X76.736 Y157.862 E19.67218
G1 X75.773 Y157.233 E19.71044
G1 X73.536 Y155.812 E19.79858
G1 X71.358 Y154.514 E19.88291
G1 X69.17 Y153.292 E19.96626
G1 X68.317 Y152.845 E19.99829
G1 X67.495 Y152.4 E20.02938
G1 X66.705 Y151.927 E20.06001
G1 X65.959 Y151.387 E20.09064
G1 X65.263 Y150.784 E20.12127
G1 X64.622 Y150.124 E20.15187
G1 X64.04 Y149.41 E20.18251
G1 X63.523 Y148.648 E20.21313
G1 X63.073 Y147.845 E20.24375
G1 X62.695 Y147.005 E20.27439
G1 X62.392 Y146.136 E20.305
G1 X62.165 Y145.244 E20.33561
G1 X62.016 Y144.336 E20.36621
G1 X61.946 Y143.406 E20.39723
G1 X61.936 Y143.083 E20.40798
G1 X61.931 Y142.755 E20.41889
G1 X61.932 Y131.127 E20.80564
G1 X61.943 Y130.421 E20.82912
G1 X61.998 Y129.502 E20.85975
G1 X62.12 Y128.649 E20.88841
G1 X62.258 Y127.909 E20.91344
G1 X62.699 Y125.332 E21.0004
G1 X63.055 Y122.835 E21.08429
G1 X63.337 Y120.354 E21.16734
G1 X63.554 Y117.807 E21.25236
G1 X63.697 Y115.29 E21.33621
G1 X63.769 Y112.753 E21.42063
G1 X63.769 Y110.242 E21.50414
G1 X63.697 Y107.686 E21.58919
G1 X63.556 Y105.194 E21.67221
G1 X63.339 Y102.643 E21.75736
G1 X63.059 Y100.172 E21.84007
G1 X62.698 Y97.631 E21.92543
G1 X62.269 Y95.129 E22.00986
G1 X61.855 Y93.04 E22.0807
G1 X61.641 Y92.023 E22.11526
G1 X61.491 Y91.114 E22.1459
G1 X61.42 Y90.196 E22.17653
G1 X61.429 Y89.276 E22.20713
G1 X61.518 Y88.359 E22.23777
G1 X61.686 Y87.454 E22.26839
G1 X61.932 Y86.567 E22.299
G1 X62.254 Y85.705 E22.32961
G1 X62.688 Y84.801 E22.36296
G1 X62.842 Y84.516 E22.37373
G1 X63.015 Y84.208 E22.38548
G1 X68.893 Y74.149 E22.77298
G1 X69.204 Y73.631 E22.79308
G1 X69.712 Y72.863 E22.8237
G1 X70.138 Y72.315 E22.84679
G1 X70.753 Y71.63 E22.87741
G0 F6000 X71.051 Y71.898
G1 F600 X71.712 Y71.283 E22.90744
G1 X72.425 Y70.729 E22.93747
G1 X73.185 Y70.24 E22.96753
G1 X73.984 Y69.82 E22.99755
G1 X74.818 Y69.473 E23.02759
G1 X75.679 Y69.201 E23.05762
G1 X76.561 Y69.006 E23.08767
G1 X77.066 Y68.93 E23.10465
G1 X77.775 Y68.842 E23.12842
G1 X80.391 Y68.48 E23.21625
G1 X82.862 Y68.067 E23.29958
G1 X85.358 Y67.577 E23.38418
G1 X87.82 Y67.021 E23.46813
G1 X90.288 Y66.39 E23.55286
G1 X92.752 Y65.684 E23.63811
G1 X95.158 Y64.921 E23.72206
G1 X97.591 Y64.073 E23.80776
G1 X99.141 Y63.493 E23.8628
G1 X99.951 Y63.181 E23.89167
G1 X100.194 Y63.091 E23.90029
G1 X100.461 Y62.996 E23.90971
G1 X100.847 Y62.866 E23.92326
G1 X103.162 Y62.129 E24.00407
G1 X103.862 Y61.918 E24.02838
G1 X104.372 Y61.779 E24.04596
G1 X104.604 Y61.722 E24.05391
G1 X104.945 Y61.644 E24.06555
G1 X107.459 Y61.118 E24.15097
G1 X108.104 Y60.994 E24.17282
G1 X108.998 Y60.863 E24.20287
G1 X109.9 Y60.812 E24.23292
G1 X110.802 Y60.84 E24.26293
G1 X112.055 Y61.014 E24.30501
G1 X112.292 Y61.062 E24.31305
G1 X112.561 Y61.12 E24.3222
G1 X112.889 Y61.196 E24.3334
G1 X115.516 Y61.83 E24.42328
G1 X116.176 Y62 E24.44595
G1 X116.97 Y62.24 E24.47354
G1 X117.745 Y62.509 E24.50083
G1 X122.436 Y64.207 E24.66676
G1 X124.829 Y64.999 E24.75059
G1 X127.275 Y65.731 E24.83551
G1 X129.736 Y66.393 E24.92028
G1 X132.241 Y66.993 E25.00595
G1 X134.678 Y67.501 E25.08875
G1 X137.165 Y67.947 E25.17278
G1 X139.7 Y68.33 E25.25806
G1 X142.118 Y68.627 E25.33908
G1 X143.137 Y68.74 E25.37318
G1 X144.03 Y68.879 E25.40324
G1 X144.906 Y69.096 E25.43326
G1 X145.76 Y69.39 E25.4633
G1 X146.585 Y69.759 E25.49336
G1 X147.373 Y70.199 E25.52338
G1 X148.12 Y70.707 E25.55342
G1 X148.819 Y71.279 E25.58346
G1 X149.464 Y71.91 E25.61347
G1 X150.052 Y72.597 E25.64355
G1 X150.81 Y73.712 E25.68839
G1 X150.968 Y73.981 E25.69877
G1 X151.131 Y74.27 E25.7098
G1 X156.657 Y84.422 E26.09424
G1 X157.014 Y85.101 E26.11976
G1 X157.399 Y85.918 E26.1498
G1 X157.709 Y86.766 E26.17983
G1 X157.944 Y87.639 E26.2099
G1 X158.1 Y88.528 E26.23992
G1 X158.177 Y89.428 E26.26996
G1 X158.175 Y90.331 E26.3
G1 X158.092 Y91.23 E26.33002
G1 X157.995 Y91.814 E26.34971
G1 X157.844 Y92.575 E26.37552
G1 X157.547 Y93.978 E26.42322
G1 X157.089 Y96.49 E26.50814
G1 X156.703 Y99.018 E26.5932
G1 X156.392 Y101.516 E26.67692
G1 X156.149 Y104.059 E26.76189
G1 X155.978 Y106.597 E26.8465
G1 X155.879 Y109.13 E26.93081
G1 X155.853 Y111.661 E27.01499
G1 X155.898 Y114.197 E27.09935
G1 X156.015 Y116.729 E27.18366
G1 X156.205 Y119.285 E27.26891
G1 X156.463 Y121.784 E27.35247
G1 X156.796 Y124.314 E27.43734
G1 X157.202 Y126.841 E27.52247
G1 X157.501 Y128.442 E27.57664
G1 X157.569 Y128.832 E27.5898
G1 X157.685 Y129.728 E27.61985
G1 X157.716 Y130.276 E27.63811
G1 X157.726 Y130.607 E27.64912
G1 X157.731 Y130.915 E27.65937
G1 X157.73 Y142.489 E28.04432
G1 X157.72 Y143.219 E28.0686
G1 X157.668 Y144.12 E28.09862
G1 X157.536 Y145.014 E28.12868
G1 X157.325 Y145.892 E28.15871
G1 X157.038 Y146.748 E28.18874
G1 X156.676 Y147.576 E28.2188
G1 X156.243 Y148.368 E28.24882
G1 X155.741 Y149.119 E28.27886
G1 X155.174 Y149.822 E28.3089
G1 X154.548 Y150.472 E28.33892
G1 X153.866 Y151.065 E28.36898
G1 X153.135 Y151.595 E28.39901
G1 X152.253 Y152.115 E28.43306
G1 X151.759 Y152.374 E28.45161
G1 X149.517 Y153.587 E28.5364
G1 X147.27 Y154.887 E28.62274
G1 X145.132 Y156.204 E28.70626
G1 X143.38 Y157.355 E28.77598
G1 X142.963 Y157.619 E28.79239
G1 X142.179 Y158.066 E28.82241
G1 X141.358 Y158.442 E28.85244
G1 X140.506 Y158.744 E28.88251
G1 X139.993 Y158.886 E28.90021
G1 X139.108 Y159.066 E28.93025
G1 X137.808 Y159.187 E28.97368
G1 X137.49 Y159.196 E28.98426
G1 X137.201 Y159.2 E28.99387
G1 X83.093 Y159.199 E30.79351
G1 X82.391 Y159.189 E30.81686
G1 X81.489 Y159.136 E30.84691
G1 X80.596 Y159.004 E30.87694
G1 X79.718 Y158.793 E30.90697
G1 X78.862 Y158.505 E30.93701
G1 X78.034 Y158.143 E30.96707
G1 X76.955 Y157.528 E31.00837
G1 X75.901 Y156.839 E31.05026
G1 X73.75 Y155.473 E31.13501
