;FLAVOR:Marlin
;TIME:1748
;Filament used: 0.642807m
;Layer height: 0.15
;MINX:66.5
;MINY:87
;MINZ:0.2
;MAXX:153.5
;MAXY:133
;MAXZ:3.95
;Generated with Cura_SteamEngine 4.9.0
M140 S60
M105
M190 S60
M104 S210
M105
M109 S210
M82 ;absolute extrusion mode
M201 X500.00 Y500.00 Z100.00 E5000.00 ;Setup machine max acceleration
M203 X500.00 Y500.00 Z10.00 E50.00 ;Setup machine max feedrate
M204 P500.00 R1000.00 T500.00 ;Setup Print/Retract/Travel acceleration
M205 X8.00 Y8.00 Z0.40 E5.00 ;Setup Jerk
M220 S100 ;Reset Feedrate
M221 S100 ;Reset Flowrate

G28 ;Home
G29 ;Auto Bed Leveling
M420 S1 Z2 ;Enable ABL using saved Mesh and Fade Height

G92 E0 ;Reset Extruder
G1 Z2.0 F3000 ;Move Z Axis up
G1 X10.1 Y20 Z0.28 F5000.0 ;Move to start position
G1 X10.1 Y200.0 Z0.28 F1500.0 E15 ;Draw the first line
G1 X10.4 Y200.0 Z0.28 F5000.0 ;Move to side a little
G1 X10.4 Y20 Z0.28 F1500.0 E30 ;Draw the second line
G92 E0 ;Reset Extruder
G1 Z2.0 F3000 ;Move Z Axis up
G92 E0
G92 E0
G1 F2700 E-5
;LAYER_COUNT:26
;LAYER:0
M107
G0 F6000 X71.415 Y96.568 Z0.2
;TYPE:SKIRT
G1 F2700 E0
G1 F600 X72.179 Y96.023 E0.03121
G1 X73.001 Y95.537 E0.06297
G1 X73.235 Y95.412 E0.0718
G1 X74.08 Y95.005 E0.10299
G1 X75.012 Y94.655 E0.13611
G1 X75.273 Y94.57 E0.14524
G1 X75.63 Y94.46 E0.15766
G1 X76.079 Y94.339 E0.17313
G1 X76.761 Y94.171 E0.19649
G1 X84.15 Y92.431 E0.44897
G1 X86.726 Y91.787 E0.53728
G1 X89.153 Y91.106 E0.62112
G1 X91.525 Y90.367 E0.70376
G1 X93.927 Y89.544 E0.78821
G1 X96.301 Y88.654 E0.87253
G1 X98.383 Y87.812 E0.94723
G1 X99.266 Y87.498 E0.9784
G1 X100.173 Y87.26 E1.00959
G1 X101.098 Y87.101 E1.0408
G1 X102.167 Y87.015 E1.07647
G1 X102.491 Y87.005 E1.08726
G1 X102.83 Y87 E1.09853
G1 X116.793 Y87 E1.56294
G1 X117.67 Y87.012 E1.59212
G1 X118.607 Y87.067 E1.62333
G1 X119.535 Y87.201 E1.65452
G1 X120.448 Y87.414 E1.6857
G1 X121.586 Y87.798 E1.72565
G1 X122.996 Y88.363 E1.77617
G1 X123.244 Y88.465 E1.78509
G1 X125.622 Y89.375 E1.86978
G1 X127.972 Y90.195 E1.95256
G1 X130.38 Y90.961 E2.0366
G1 X132.755 Y91.644 E2.1188
G1 X135.91 Y92.445 E2.22706
G1 X143.327 Y94.192 E2.4805
G1 X144.005 Y94.362 E2.50375
G1 X144.674 Y94.553 E2.52689
G1 X144.909 Y94.628 E2.5351
G1 X145.79 Y94.951 E2.56631
G1 X146.572 Y95.313 E2.59497
G1 X146.795 Y95.427 E2.6033
G1 X147.611 Y95.889 E2.63449
G1 X148.388 Y96.421 E2.66581
G1 X148.588 Y96.571 E2.67412
G1 X149.314 Y97.165 E2.70532
G1 X149.96 Y97.791 E2.73524
G1 X150.134 Y97.974 E2.74364
G1 X150.75 Y98.681 E2.77483
G1 X151.26 Y99.371 E2.80336
G1 X151.4 Y99.577 E2.81165
G1 X151.893 Y100.374 E2.84282
G1 X152.322 Y101.222 E2.87443
G1 X152.418 Y101.434 E2.88217
G1 X152.769 Y102.304 E2.91337
G1 X153.014 Y103.092 E2.94082
G1 X153.084 Y103.35 E2.94971
G1 X153.291 Y104.264 E2.98088
G1 X153.427 Y105.281 E3.015
G1 X153.449 Y105.535 E3.02348
G1 X153.489 Y106.326 E3.04983
G1 X153.5 Y107.182 E3.0783
G1 X153.499 Y108.535 E3.1233
G1 X153.489 Y109.217 E3.14599
G1 X153.453 Y109.953 E3.17049
G1 X153.43 Y110.234 E3.17987
G1 X153.314 Y111.165 E3.21108
G1 X153.121 Y112.074 E3.24198
G1 X153.065 Y112.292 E3.24947
G1 X152.793 Y113.189 E3.28065
G1 X152.468 Y114.012 E3.31008
G1 X152.355 Y114.267 E3.31935
G1 X151.939 Y115.107 E3.35053
G1 X151.48 Y115.867 E3.38006
G1 X151.356 Y116.055 E3.38755
G1 X150.807 Y116.815 E3.41873
G1 X150.114 Y117.611 E3.45384
G1 X149.905 Y117.829 E3.46388
G1 X149.228 Y118.477 E3.49505
G1 X148.466 Y119.09 E3.52758
G1 X148.294 Y119.216 E3.53467
G1 X147.187 Y119.929 E3.57846
G1 X146.619 Y120.249 E3.60015
G1 X144.398 Y121.535 E3.68551
G1 X142.268 Y122.851 E3.76878
G1 X140.134 Y124.252 E3.85369
G1 X138.085 Y125.684 E3.93683
G1 X136.037 Y127.201 E4.0216
G1 X134.104 Y128.72 E4.10337
G1 X132.033 Y130.444 E4.19299
G1 X131.287 Y131.012 E4.22418
G1 X130.496 Y131.515 E4.25536
G1 X129.664 Y131.949 E4.28657
G1 X128.799 Y132.311 E4.31776
G1 X127.656 Y132.663 E4.35753
G1 X126.737 Y132.851 E4.38873
G1 X125.806 Y132.961 E4.41991
G1 X125.299 Y132.987 E4.4368
G1 X124.981 Y132.996 E4.44738
G1 X124.67 Y133 E4.45772
G1 X95.551 Y132.999 E5.42623
G1 X94.848 Y132.989 E5.44961
G1 X93.911 Y132.936 E5.48082
G1 X92.983 Y132.803 E5.51201
G1 X92.069 Y132.591 E5.54321
G1 X91.177 Y132.303 E5.57439
G1 X90.312 Y131.939 E5.6056
G1 X89.482 Y131.503 E5.63678
G1 X88.691 Y130.998 E5.668
G1 X87.979 Y130.455 E5.69778
G1 X86.933 Y129.585 E5.74303
G1 X86.775 Y129.45 E5.74994
G1 X84.836 Y127.883 E5.83286
G1 X82.838 Y126.361 E5.9164
G1 X80.778 Y124.881 E6.00077
G1 X78.695 Y123.473 E6.08439
G1 X76.579 Y122.128 E6.16778
G1 X74.377 Y120.815 E6.25305
G1 X72.838 Y119.945 E6.31185
G1 X71.853 Y119.317 E6.35071
G1 X71.653 Y119.174 E6.35888
G1 X70.914 Y118.597 E6.39007
G1 X70.381 Y118.111 E6.41406
G1 X70.198 Y117.933 E6.42255
G1 X69.554 Y117.251 E6.45375
G1 X68.832 Y116.321 E6.49291
G1 X68.664 Y116.079 E6.50271
G1 X68.162 Y115.286 E6.53392
G1 X67.735 Y114.463 E6.56476
G1 X67.642 Y114.264 E6.57207
G1 X67.281 Y113.398 E6.60327
G1 X66.994 Y112.498 E6.63469
G1 X66.918 Y112.219 E6.64431
G1 X66.71 Y111.304 E6.67552
G1 X66.567 Y110.219 E6.71192
G1 X66.547 Y109.973 E6.72013
G1 X66.512 Y109.248 E6.74427
G1 X66.5 Y108.352 E6.77407
G1 X66.501 Y107.025 E6.81821
G1 X66.512 Y106.3 E6.84232
G1 X66.554 Y105.493 E6.8692
G1 X66.574 Y105.268 E6.87671
G1 X66.697 Y104.338 E6.90792
G1 X66.854 Y103.595 E6.93317
G1 X66.913 Y103.357 E6.94133
G1 X67.177 Y102.457 E6.97252
G1 X67.524 Y101.568 E7.00426
G1 X67.628 Y101.332 E7.01284
G1 X68.042 Y100.491 E7.04402
G1 X68.535 Y99.677 E7.07567
G1 X68.672 Y99.471 E7.0839
G1 X69.224 Y98.712 E7.11512
G1 X69.75 Y98.099 E7.14198
G1 X69.907 Y97.929 E7.14968
G1 X70.572 Y97.268 E7.18086
G1 X71.219 Y96.721 E7.20904
G1 X71.415 Y96.568 E7.21731
G0 F6000 X71.661 Y96.883
G1 F600 X72.411 Y96.349 E7.24793
G1 X73.19 Y95.889 E7.27802
G1 X73.424 Y95.764 E7.28685
G1 X74.254 Y95.366 E7.31746
G1 X75.136 Y95.035 E7.3488
G1 X75.397 Y94.95 E7.35793
G1 X75.742 Y94.844 E7.36993
G1 X76.175 Y94.727 E7.38485
G1 X76.853 Y94.56 E7.40807
G1 X84.276 Y92.813 E7.66171
G1 X86.827 Y92.174 E7.74918
G1 X89.266 Y91.489 E7.83344
G1 X91.636 Y90.751 E7.916
G1 X94.061 Y89.92 E8.00126
G1 X96.463 Y89.02 E8.08657
G1 X98.533 Y88.183 E8.16083
G1 X99.4 Y87.875 E8.19144
G1 X100.291 Y87.644 E8.22205
G1 X101.199 Y87.491 E8.25268
G1 X102.179 Y87.415 E8.28537
G1 X102.503 Y87.405 E8.29615
G1 X102.83 Y87.4 E8.30703
G1 X116.793 Y87.4 E8.77144
G1 X117.664 Y87.412 E8.80041
G1 X118.583 Y87.467 E8.83103
G1 X119.494 Y87.6 E8.86165
G1 X120.39 Y87.813 E8.89229
G1 X121.437 Y88.17 E8.92908
G1 X122.844 Y88.733 E8.97948
G1 X123.111 Y88.843 E8.98909
G1 X125.473 Y89.746 E9.07319
G1 X127.835 Y90.571 E9.15641
G1 X130.263 Y91.343 E9.24115
G1 X132.673 Y92.036 E9.32455
G1 X135.763 Y92.821 E9.43059
G1 X143.23 Y94.58 E9.68574
G1 X143.908 Y94.75 E9.70899
G1 X144.553 Y94.934 E9.7313
G1 X144.788 Y95.009 E9.7395
G1 X145.652 Y95.327 E9.77012
G1 X146.39 Y95.669 E9.79718
G1 X146.613 Y95.783 E9.80551
G1 X147.414 Y96.237 E9.83613
G1 X148.148 Y96.741 E9.86575
G1 X148.348 Y96.891 E9.87406
G1 X149.06 Y97.475 E9.90469
G1 X149.67 Y98.067 E9.93296
G1 X149.844 Y98.25 E9.94136
G1 X150.449 Y98.944 E9.97198
G1 X150.929 Y99.596 E9.99891
G1 X151.069 Y99.802 E10.00719
G1 X151.553 Y100.585 E10.03781
G1 X151.958 Y101.387 E10.06769
G1 X152.054 Y101.599 E10.07543
G1 X152.397 Y102.454 E10.10607
G1 X152.628 Y103.196 E10.13192
G1 X152.698 Y103.454 E10.14081
G1 X152.9 Y104.353 E10.17146
G1 X153.028 Y105.315 E10.20374
G1 X153.05 Y105.569 E10.21222
G1 X153.089 Y106.332 E10.23763
G1 X153.1 Y107.182 E10.2659
G1 X153.099 Y108.529 E10.3107
G1 X153.089 Y109.211 E10.33339
G1 X153.055 Y109.921 E10.35703
G1 X153.032 Y110.202 E10.36641
G1 X152.917 Y111.115 E10.39701
G1 X152.734 Y111.974 E10.42623
G1 X152.678 Y112.192 E10.43371
G1 X152.41 Y113.073 E10.46434
G1 X152.102 Y113.849 E10.49211
G1 X151.989 Y114.104 E10.50139
G1 X151.58 Y114.929 E10.53201
G1 X151.147 Y115.646 E10.55987
G1 X151.023 Y115.834 E10.56736
G1 X150.483 Y116.58 E10.59799
G1 X149.826 Y117.334 E10.63125
G1 X149.617 Y117.552 E10.6413
G1 X148.951 Y118.188 E10.67193
G1 X148.229 Y118.767 E10.70271
G1 X148.057 Y118.893 E10.7098
G1 X146.991 Y119.58 E10.75198
G1 X146.429 Y119.896 E10.77343
G1 X144.208 Y121.183 E10.8588
G1 X142.018 Y122.535 E10.94441
G1 X139.932 Y123.906 E11.02743
G1 X137.864 Y125.35 E11.11132
G1 X135.797 Y126.881 E11.19687
G1 X133.825 Y128.432 E11.28032
G1 X131.777 Y130.136 E11.36893
G1 X131.045 Y130.694 E11.39954
G1 X130.266 Y131.186 E11.43019
G1 X129.449 Y131.608 E11.46077
G1 X128.597 Y131.959 E11.49142
G1 X127.559 Y132.275 E11.52751
G1 X126.657 Y132.459 E11.55813
G1 X125.288 Y132.587 E11.60386
G1 X124.97 Y132.596 E11.61444
G1 X124.67 Y132.6 E11.62442
G1 X95.556 Y132.599 E12.59275
G1 X94.853 Y132.589 E12.61614
G1 X93.934 Y132.536 E12.64676
G1 X93.023 Y132.403 E12.67738
G1 X92.127 Y132.192 E12.70799
G1 X91.253 Y131.904 E12.7386
G1 X90.406 Y131.541 E12.76925
G1 X89.595 Y131.106 E12.79986
G1 X88.824 Y130.602 E12.8305
G1 X88.235 Y130.147 E12.85525
G1 X87.193 Y129.281 E12.90031
G1 X87.041 Y129.151 E12.90697
G1 X85.067 Y127.556 E12.99138
G1 X83.068 Y126.033 E13.07496
G1 X81.007 Y124.552 E13.15937
G1 X78.927 Y123.146 E13.24288
G1 X76.777 Y121.78 E13.3276
G1 X74.617 Y120.492 E13.41124
G1 X73.034 Y119.597 E13.47173
G1 X72.086 Y118.992 E13.50913
G1 X71.886 Y118.849 E13.51731
G1 X71.161 Y118.281 E13.54794
G1 X70.66 Y117.824 E13.57049
G1 X70.477 Y117.646 E13.57899
G1 X69.846 Y116.976 E13.6096
G1 X69.161 Y116.093 E13.64677
G1 X68.993 Y115.851 E13.65657
G1 X68.501 Y115.072 E13.68721
G1 X68.097 Y114.294 E13.71637
G1 X68.004 Y114.095 E13.72367
G1 X67.651 Y113.245 E13.75428
G1 X67.38 Y112.393 E13.78402
G1 X67.304 Y112.114 E13.79364
G1 X67.1 Y111.216 E13.82427
G1 X66.966 Y110.187 E13.85878
G1 X66.946 Y109.941 E13.86699
G1 X66.912 Y109.242 E13.89027
G1 X66.9 Y108.352 E13.91987
G1 X66.901 Y107.031 E13.96381
G1 X66.912 Y106.306 E13.98792
G1 X66.953 Y105.528 E14.01384
G1 X66.973 Y105.303 E14.02135
G1 X67.094 Y104.391 E14.05195
G1 X67.242 Y103.691 E14.07575
G1 X67.301 Y103.453 E14.0839
G1 X67.562 Y102.57 E14.11453
G1 X67.89 Y101.729 E14.14455
G1 X67.994 Y101.493 E14.15313
G1 X68.402 Y100.668 E14.18374
G1 X68.868 Y99.898 E14.21367
G1 X69.005 Y99.692 E14.2219
G1 X69.547 Y98.948 E14.25252
G1 X70.044 Y98.37 E14.27787
G1 X70.201 Y98.2 E14.28557
G1 X70.854 Y97.552 E14.31617
G1 X71.465 Y97.036 E14.34277
G1 X71.661 Y96.883 E14.35104
G0 F6000 X71.908 Y97.199
G1 F600 X72.643 Y96.675 E14.38106
G1 X73.378 Y96.242 E14.40943
G1 X73.612 Y96.117 E14.41826
G1 X74.427 Y95.727 E14.44831
G1 X75.259 Y95.415 E14.47786
G1 X75.52 Y95.33 E14.48699
G1 X75.855 Y95.228 E14.49864
G1 X76.271 Y95.115 E14.51297
G1 X76.945 Y94.949 E14.53606
G1 X84.385 Y93.198 E14.79028
G1 X86.927 Y92.561 E14.87744
G1 X89.355 Y91.88 E14.96131
G1 X91.801 Y91.118 E15.04652
G1 X94.193 Y90.298 E15.13063
G1 X96.591 Y89.399 E15.2158
G1 X98.682 Y88.554 E15.29081
G1 X99.534 Y88.253 E15.32087
G1 X100.409 Y88.028 E15.35092
G1 X101.3 Y87.882 E15.38095
G1 X102.191 Y87.815 E15.41067
G1 X102.515 Y87.805 E15.42145
G1 X102.83 Y87.8 E15.43193
G1 X116.793 Y87.8 E15.89634
G1 X117.658 Y87.812 E15.92511
G1 X118.559 Y87.866 E15.95513
G1 X119.453 Y88 E15.9852
G1 X120.33 Y88.212 E16.01521
G1 X121.288 Y88.541 E16.0489
G1 X122.692 Y89.103 E16.0992
G1 X122.944 Y89.206 E16.10825
G1 X125.365 Y90.133 E16.19448
G1 X127.697 Y90.947 E16.27663
G1 X130.159 Y91.73 E16.36256
G1 X132.562 Y92.42 E16.44571
G1 X135.69 Y93.215 E16.55305
G1 X143.133 Y94.968 E16.80738
G1 X143.811 Y95.138 E16.83063
G1 X144.431 Y95.315 E16.85208
G1 X144.666 Y95.39 E16.86028
G1 X145.514 Y95.702 E16.89033
G1 X146.208 Y96.025 E16.91579
G1 X146.431 Y96.139 E16.92412
G1 X147.216 Y96.585 E16.95415
G1 X147.908 Y97.061 E16.98209
G1 X148.108 Y97.211 E16.9904
G1 X148.806 Y97.784 E17.02044
G1 X149.38 Y98.343 E17.04709
G1 X149.554 Y98.526 E17.05549
G1 X150.147 Y99.207 E17.08552
G1 X150.598 Y99.821 E17.11086
G1 X150.738 Y100.027 E17.11914
G1 X151.212 Y100.795 E17.14916
G1 X151.594 Y101.552 E17.17736
G1 X151.69 Y101.764 E17.1851
G1 X152.025 Y102.603 E17.21515
G1 X152.242 Y103.301 E17.23946
G1 X152.312 Y103.559 E17.24835
G1 X152.51 Y104.44 E17.27839
G1 X152.63 Y105.35 E17.30892
G1 X152.652 Y105.604 E17.3174
G1 X152.689 Y106.338 E17.34184
G1 X152.7 Y107.182 E17.36991
G1 X152.699 Y108.524 E17.41455
G1 X152.689 Y109.206 E17.43723
G1 X152.656 Y109.888 E17.45994
G1 X152.633 Y110.169 E17.46932
G1 X152.52 Y111.065 E17.49936
G1 X152.346 Y111.875 E17.52691
G1 X152.29 Y112.093 E17.5344
G1 X152.027 Y112.957 E17.56444
G1 X151.736 Y113.687 E17.59058
G1 X151.623 Y113.942 E17.59985
G1 X151.221 Y114.751 E17.6299
G1 X150.813 Y115.426 E17.65613
G1 X150.689 Y115.614 E17.66362
G1 X150.159 Y116.345 E17.69365
G1 X149.537 Y117.057 E17.7251
G1 X149.328 Y117.275 E17.73514
G1 X148.675 Y117.899 E17.76519
G1 X147.993 Y118.444 E17.79422
G1 X147.821 Y118.57 E17.80131
G1 X146.794 Y119.232 E17.84195
G1 X146.248 Y119.539 E17.86279
G1 X143.978 Y120.854 E17.95004
G1 X141.819 Y122.188 E18.03445
G1 X139.705 Y123.576 E18.11856
G1 X137.602 Y125.046 E18.2039
G1 X135.574 Y126.547 E18.28782
G1 X133.589 Y128.108 E18.37181
G1 X131.521 Y129.829 E18.4613
G1 X130.802 Y130.375 E18.49132
G1 X130.038 Y130.856 E18.52135
G1 X129.234 Y131.267 E18.55138
G1 X128.396 Y131.606 E18.58145
G1 X127.462 Y131.886 E18.61388
G1 X126.577 Y132.066 E18.64392
G1 X125.277 Y132.187 E18.68734
G1 X124.959 Y132.196 E18.69792
G1 X124.67 Y132.2 E18.70754
G1 X95.562 Y132.199 E19.67567
G1 X94.859 Y132.189 E19.69906
G1 X93.957 Y132.136 E19.72911
G1 X93.064 Y132.004 E19.75913
G1 X92.186 Y131.793 E19.78917
G1 X91.33 Y131.505 E19.81921
G1 X90.503 Y131.143 E19.84923
G1 X89.711 Y130.709 E19.87927
G1 X88.96 Y130.207 E19.90932
G1 X88.49 Y129.839 E19.92917
G1 X87.453 Y128.977 E19.97402
G1 X87.29 Y128.838 E19.98115
G1 X85.333 Y127.256 E20.06484
G1 X83.298 Y125.706 E20.14992
G1 X81.242 Y124.229 E20.23412
G1 X79.144 Y122.811 E20.31835
G1 X76.991 Y121.442 E20.40321
G1 X74.774 Y120.12 E20.48906
G1 X73.231 Y119.248 E20.54801
G1 X72.318 Y118.666 E20.58402
G1 X72.118 Y118.523 E20.5922
G1 X71.408 Y117.966 E20.62221
G1 X70.939 Y117.538 E20.64333
G1 X70.756 Y117.36 E20.65182
G1 X70.137 Y116.702 E20.68187
G1 X69.489 Y115.865 E20.71707
G1 X69.321 Y115.623 E20.72687
G1 X68.839 Y114.859 E20.75692
G1 X68.459 Y114.125 E20.78441
G1 X68.366 Y113.926 E20.79171
G1 X68.021 Y113.091 E20.82176
G1 X67.766 Y112.288 E20.84979
G1 X67.69 Y112.009 E20.8594
G1 X67.491 Y111.128 E20.88944
G1 X67.365 Y110.155 E20.92208
G1 X67.345 Y109.909 E20.93028
G1 X67.312 Y109.236 E20.9527
G1 X67.3 Y108.352 E20.9821
G1 X67.301 Y107.037 E21.02584
G1 X67.312 Y106.312 E21.04995
G1 X67.351 Y105.564 E21.07487
G1 X67.371 Y105.339 E21.08238
G1 X67.491 Y104.444 E21.11241
G1 X67.631 Y103.788 E21.13472
G1 X67.69 Y103.55 E21.14288
G1 X67.946 Y102.684 E21.17291
G1 X68.256 Y101.891 E21.20123
G1 X68.36 Y101.655 E21.20981
G1 X68.761 Y100.845 E21.23987
G1 X69.201 Y100.12 E21.26808
G1 X69.338 Y99.914 E21.27631
G1 X69.871 Y99.184 E21.30637
G1 X70.338 Y98.642 E21.33017
G1 X70.495 Y98.472 E21.33786
G1 X71.136 Y97.836 E21.3679
G1 X71.712 Y97.352 E21.39292
G1 X71.908 Y97.199 E21.40119
G1 F2700 E16.40119
;MESH:P24_Mouth_Latch_Default.STL
G0 F6000 X88.434 Y104.982
G0 X80.436 Y106.932
G0 X102.901 Y113.336
G0 X106.286 Y113.39
G0 X116.376 Y118.143
G0 X114.928 Y118.331
G0 X115.95 Y119.618
G0 X116.312 Y119.86
G0 X117.296 Y120.394
;TYPE:WALL-INNER
G1 F2700 E21.40119
G1 F600 X117.704 Y120.394 E21.41476
G1 X118.107 Y120.324 E21.42836
G1 X118.501 Y120.183 E21.44228
G1 X118.845 Y119.989 E21.45542
G1 X119.162 Y119.735 E21.46893
G1 X119.431 Y119.427 E21.48253
G1 X119.644 Y119.081 E21.49604
G1 X119.797 Y118.704 E21.50958
G1 X119.882 Y118.304 E21.52318
G1 X119.898 Y117.886 E21.53709
G1 X119.849 Y117.495 E21.5502
G1 X119.729 Y117.105 E21.56377
G1 X119.545 Y116.738 E21.57742
G1 X119.293 Y116.404 E21.59134
G1 X119.008 Y116.13 E21.60449
G1 X118.659 Y115.898 E21.61843
G1 X118.301 Y115.736 E21.6315
G1 X117.906 Y115.632 E21.64508
G1 X117.5 Y115.598 E21.65863
G1 X117.094 Y115.632 E21.67218
G1 X116.698 Y115.736 E21.6858
G1 X116.318 Y115.91 E21.6997
G1 X115.989 Y116.132 E21.7129
G1 X115.689 Y116.424 E21.72683
G1 X115.454 Y116.741 E21.73995
G1 X115.272 Y117.104 E21.75346
G1 X115.151 Y117.495 E21.76707
