;FLAVOR:Marlin
;TIME:3711
;Filament used: 1.41444m
;Layer height: 0.15
;MINX:82.996
;MINY:82.997
;MINZ:0.2
;MAXX:137
;MAXY:136.997
;MAXZ:15.95
;Generated with Cura_SteamEngine 4.9.0
M140 S60
M105
M190 S60
M104 S210
M105
M109 S210
M82 ;absolute extrusion mode
M201 X500.00 Y500.00 Z100.00 E5000.00 ;Setup machine max acceleration
M203 X500.00 Y500.00 Z10.00 E50.00 ;Setup machine max feedrate
M204 P500.00 R1000.00 T500.00 ;Setup Print/Retract/Travel acceleration
M205 X8.00 Y8.00 Z0.40 E5.00 ;Setup Jerk
M220 S100 ;Reset Feedrate
M221 S100 ;Reset Flowrate

G28 ;Home
G29 ;Auto Bed Leveling
M420 S1 Z2 ;Enable ABL using saved Mesh and Fade Height

G92 E0 ;Reset Extruder
G1 Z2.0 F3000 ;Move Z Axis up
G1 X10.1 Y20 Z0.28 F5000.0 ;Move to start position
G1 X10.1 Y200.0 Z0.28 F1500.0 E15 ;Draw the first line
G1 X10.4 Y200.0 Z0.28 F5000.0 ;Move to side a little
G1 X10.4 Y20 Z0.28 F1500.0 E30 ;Draw the second line
G92 E0 ;Reset Extruder
G1 Z2.0 F3000 ;Move Z Axis up
G92 E0
G92 E0
G1 F2700 E-5
;LAYER_COUNT:106
;LAYER:0
M107
G0 F6000 X87.161 Y87.368 Z0.2
;TYPE:SKIRT
G1 F2700 E0
G1 F600 X87.385 Y87.145 E0.01051
G1 X87.68 Y86.86 E0.02416
G1 X88.382 Y86.238 E0.05535
G1 X89.116 Y85.69 E0.08582
G1 X89.406 Y85.495 E0.09744
G1 X89.609 Y85.363 E0.10549
G1 X89.891 Y85.185 E0.11659
G1 X90.271 Y84.954 E0.13138
G1 X91.093 Y84.502 E0.16258
G1 X92.145 Y84.046 E0.20071
G1 X92.494 Y83.916 E0.2131
G1 X92.839 Y83.794 E0.22527
G1 X93.224 Y83.665 E0.23878
G1 X94.125 Y83.405 E0.26997
G1 X95.294 Y83.188 E0.30951
G1 X95.646 Y83.142 E0.32132
G1 X96.014 Y83.1 E0.33364
G1 X96.449 Y83.058 E0.34817
G1 X97.352 Y83.008 E0.37825
G1 X98.221 Y82.997 E0.40716
G1 X121.793 Y82.997 E1.19117
G1 X122.649 Y83.008 E1.21964
G1 X123.53 Y83.056 E1.24898
G1 X123.92 Y83.093 E1.26201
G1 X124.29 Y83.135 E1.2744
G1 X124.685 Y83.186 E1.28765
G1 X125.609 Y83.345 E1.31883
G1 X126.707 Y83.644 E1.35668
G1 X127.039 Y83.753 E1.3683
G1 X127.39 Y83.874 E1.38065
G1 X127.797 Y84.023 E1.39507
G1 X128.663 Y84.383 E1.42626
G1 X129.718 Y84.947 E1.46605
G1 X130.033 Y85.138 E1.4783
G1 X130.318 Y85.317 E1.48949
G1 X130.657 Y85.537 E1.50294
G1 X131.421 Y86.08 E1.53411
G1 X131.861 Y86.441 E1.55304
G1 X132.418 Y86.951 E1.57816
G1 X132.789 Y87.317 E1.59549
G1 X133.091 Y87.626 E1.60986
G1 X133.717 Y88.325 E1.64107
G1 X134.451 Y89.326 E1.68236
G1 X134.66 Y89.648 E1.69512
G1 X134.847 Y89.946 E1.70683
G1 X135.061 Y90.3 E1.72058
G1 X135.511 Y91.123 E1.75178
G1 X135.957 Y92.158 E1.78927
G1 X136.073 Y92.47 E1.80034
G1 X136.204 Y92.84 E1.81339
G1 X136.342 Y93.256 E1.82797
G1 X136.599 Y94.158 E1.85916
G1 X136.747 Y94.884 E1.88381
G1 X136.826 Y95.414 E1.90163
G1 X136.858 Y95.669 E1.91018
G1 X136.891 Y95.959 E1.91989
G1 X136.936 Y96.415 E1.93513
G1 X136.988 Y97.344 E1.96607
G1 X136.999 Y98.24 E1.99588
G1 X136.987 Y107.009 E2.28754
G1 X136.992 Y108.059 E2.32246
G1 X137 Y108.925 E2.35126
G1 X136.998 Y121.961 E2.78484
G1 X136.988 Y122.661 E2.80813
G1 X136.934 Y123.599 E2.83938
G1 X136.896 Y123.979 E2.85208
G1 X136.858 Y124.311 E2.86319
G1 X136.805 Y124.716 E2.87678
G1 X136.644 Y125.64 E2.90797
G1 X136.341 Y126.746 E2.94611
G1 X136.243 Y127.042 E2.95649
G1 X136.129 Y127.368 E2.96797
G1 X135.973 Y127.794 E2.98306
G1 X135.613 Y128.66 E3.01425
G1 X135.044 Y129.725 E3.05441
G1 X134.858 Y130.031 E3.06632
G1 X134.701 Y130.281 E3.07614
G1 X134.47 Y130.639 E3.09031
G1 X133.928 Y131.405 E3.12152
G1 X133.358 Y132.083 E3.15099
G1 X133.058 Y132.403 E3.16557
G1 X132.668 Y132.799 E3.18406
G1 X132.369 Y133.091 E3.19796
G1 X131.67 Y133.717 E3.22917
G1 X131.033 Y134.203 E3.25582
G1 X130.596 Y134.501 E3.27341
G1 X130.367 Y134.649 E3.28248
G1 X130.095 Y134.819 E3.29315
G1 X129.707 Y135.054 E3.30824
G1 X128.884 Y135.505 E3.33945
G1 X127.787 Y135.976 E3.37916
G1 X127.448 Y136.1 E3.39116
G1 X127.155 Y136.202 E3.40148
G1 X126.763 Y136.333 E3.41523
G1 X125.862 Y136.592 E3.44641
G1 X124.663 Y136.812 E3.48695
G1 X124.293 Y136.859 E3.49936
G1 X123.96 Y136.896 E3.5105
G1 X123.544 Y136.936 E3.5244
G1 X122.663 Y136.986 E3.55375
G1 X121.85 Y136.997 E3.58079
G1 X98.049 Y136.996 E4.37242
G1 X97.351 Y136.986 E4.39564
G1 X96.747 Y136.961 E4.41574
G1 X96.367 Y136.93 E4.42842
G1 X96.101 Y136.904 E4.43731
G1 X95.798 Y136.87 E4.44745
G1 X95.345 Y136.813 E4.46264
G1 X94.42 Y136.656 E4.49385
G1 X93.223 Y136.329 E4.53512
G1 X92.85 Y136.204 E4.5482
G1 X92.551 Y136.099 E4.55874
G1 X92.189 Y135.966 E4.57157
G1 X91.324 Y135.606 E4.60273
G1 X90.271 Y135.042 E4.64246
G1 X89.955 Y134.85 E4.65476
G1 X89.665 Y134.668 E4.66615
G1 X89.324 Y134.446 E4.67968
G1 X88.561 Y133.901 E4.71087
G1 X88.092 Y133.514 E4.73109
G1 X87.581 Y133.044 E4.75418
G1 X87.377 Y132.844 E4.76368
G1 X87.175 Y132.641 E4.77321
G1 X86.87 Y132.326 E4.78779
G1 X86.247 Y131.625 E4.81899
G1 X85.559 Y130.683 E4.85778
G1 X85.349 Y130.361 E4.87057
G1 X85.17 Y130.077 E4.88173
G1 X84.964 Y129.739 E4.8949
G1 X84.511 Y128.918 E4.92609
G1 X84.209 Y128.258 E4.95023
G1 X84.003 Y127.737 E4.96886
G1 X83.905 Y127.469 E4.97835
G1 X83.791 Y127.14 E4.98993
G1 X83.653 Y126.722 E5.00457
G1 X83.397 Y125.819 E5.03579
G1 X83.243 Y125.053 E5.06178
G1 X83.175 Y124.591 E5.07731
G1 X83.139 Y124.306 E5.08687
G1 X83.103 Y123.984 E5.09764
G1 X83.061 Y123.549 E5.11218
G1 X83.011 Y122.646 E5.14226
G1 X83 Y121.776 E5.1712
G1 X83 Y111.48 E5.51364
G1 X83.01 Y109.473 E5.5804
G1 X82.996 Y108.218 E5.62214
G1 X83 Y107.849 E5.63441
G1 X83.001 Y98.046 E5.96046
G1 X83.011 Y97.348 E5.98368
G1 X83.06 Y96.461 E6.01323
G1 X83.098 Y96.063 E6.02653
G1 X83.136 Y95.722 E6.03794
G1 X83.184 Y95.344 E6.05061
G1 X83.341 Y94.42 E6.08178
G1 X83.505 Y93.757 E6.1045
G1 X83.684 Y93.173 E6.12482
G1 X83.781 Y92.884 E6.13495
G1 X83.882 Y92.596 E6.14511
G1 X84.028 Y92.198 E6.15921
G1 X84.388 Y91.332 E6.1904
G1 X84.774 Y90.581 E6.21848
G1 X85 Y90.196 E6.23333
G1 X85.165 Y89.927 E6.24383
G1 X85.303 Y89.709 E6.25241
G1 X85.533 Y89.353 E6.26651
G1 X86.075 Y88.587 E6.29772
G1 X86.56 Y88.003 E6.32296
G1 X86.946 Y87.588 E6.34182
G1 X87.161 Y87.368 E6.35205
G0 F6000 X87.447 Y87.647
G1 F600 X87.663 Y87.433 E6.36216
G1 X87.958 Y87.148 E6.3758
G1 X88.647 Y86.537 E6.40643
G1 X89.341 Y86.02 E6.43521
G1 X89.624 Y85.83 E6.44655
G1 X89.827 Y85.698 E6.45461
G1 X90.099 Y85.527 E6.46529
G1 X90.479 Y85.296 E6.48008
G1 X91.286 Y84.853 E6.5107
G1 X92.285 Y84.421 E6.5469
G1 X92.634 Y84.291 E6.55929
G1 X92.966 Y84.173 E6.57101
G1 X93.351 Y84.044 E6.58451
G1 X94.236 Y83.79 E6.61514
G1 X95.345 Y83.584 E6.65265
G1 X95.697 Y83.538 E6.66446
G1 X96.052 Y83.498 E6.67634
G1 X96.487 Y83.456 E6.69088
G1 X97.358 Y83.408 E6.71989
G1 X98.221 Y83.397 E6.7486
G1 X121.793 Y83.397 E7.5326
G1 X122.643 Y83.408 E7.56088
G1 X123.492 Y83.454 E7.58916
G1 X123.882 Y83.491 E7.60219
G1 X124.238 Y83.531 E7.6141
G1 X124.633 Y83.582 E7.62735
G1 X125.54 Y83.74 E7.65797
G1 X126.582 Y84.024 E7.69389
G1 X126.914 Y84.133 E7.70551
G1 X127.252 Y84.25 E7.71741
G1 X127.659 Y84.399 E7.73183
G1 X128.509 Y84.753 E7.76245
G1 X129.511 Y85.289 E7.80025
G1 X129.826 Y85.48 E7.8125
G1 X130.1 Y85.652 E7.82326
G1 X130.439 Y85.872 E7.8367
G1 X131.189 Y86.407 E7.86734
G1 X131.602 Y86.745 E7.88509
G1 X132.138 Y87.236 E7.90927
G1 X132.503 Y87.597 E7.92634
G1 X132.805 Y87.906 E7.94071
G1 X133.419 Y88.592 E7.97133
G1 X134.115 Y89.544 E8.01056
G1 X134.324 Y89.866 E8.02333
G1 X134.504 Y90.153 E8.03459
G1 X134.718 Y90.507 E8.04835
G1 X135.16 Y91.315 E8.07898
G1 X135.583 Y92.297 E8.11455
G1 X135.699 Y92.609 E8.12562
G1 X135.824 Y92.966 E8.1382
G1 X135.962 Y93.382 E8.15278
G1 X136.214 Y94.267 E8.18338
G1 X136.352 Y94.95 E8.20656
G1 X136.43 Y95.464 E8.22385
G1 X136.462 Y95.719 E8.2324
G1 X136.493 Y95.998 E8.24173
G1 X136.538 Y96.454 E8.25697
G1 X136.588 Y97.35 E8.28682
G1 X136.599 Y98.24 E8.31642
G1 X136.587 Y107.009 E8.60808
G1 X136.592 Y108.06 E8.64304
G1 X136.6 Y108.925 E8.67181
G1 X136.598 Y121.955 E9.10519
G1 X136.588 Y122.655 E9.12848
G1 X136.536 Y123.559 E9.15859
G1 X136.498 Y123.939 E9.17129
G1 X136.461 Y124.259 E9.18201
G1 X136.408 Y124.664 E9.19559
G1 X136.249 Y125.571 E9.22622
G1 X135.961 Y126.621 E9.26243
G1 X135.863 Y126.917 E9.2728
G1 X135.754 Y127.23 E9.28383
G1 X135.598 Y127.656 E9.29892
G1 X135.244 Y128.506 E9.32954
G1 X134.702 Y129.517 E9.36769
G1 X134.516 Y129.823 E9.3796
G1 X134.365 Y130.064 E9.38906
G1 X134.134 Y130.422 E9.40323
G1 X133.601 Y131.173 E9.43386
G1 X133.062 Y131.814 E9.46172
G1 X132.772 Y132.124 E9.47584
G1 X132.568 Y132.333 E9.48555
G1 X132.388 Y132.513 E9.49402
G1 X132.089 Y132.805 E9.50792
G1 X131.403 Y133.419 E9.53854
G1 X130.802 Y133.877 E9.56367
G1 X130.379 Y134.165 E9.58069
G1 X130.15 Y134.313 E9.58976
G1 X129.887 Y134.477 E9.60007
G1 X129.499 Y134.712 E9.61516
G1 X128.692 Y135.154 E9.64576
G1 X127.649 Y135.6 E9.68349
G1 X127.31 Y135.724 E9.6955
G1 X127.029 Y135.822 E9.70539
G1 X126.637 Y135.953 E9.71914
G1 X125.752 Y136.207 E9.74976
G1 X124.613 Y136.416 E9.78828
G1 X124.243 Y136.463 E9.80069
G1 X123.922 Y136.498 E9.81143
G1 X123.506 Y136.538 E9.82533
G1 X122.656 Y136.586 E9.85364
G1 X121.85 Y136.597 E9.88045
G1 X98.055 Y136.596 E10.67188
G1 X97.357 Y136.586 E10.69509
G1 X96.775 Y136.562 E10.71447
G1 X96.406 Y136.532 E10.72678
G1 X96.14 Y136.506 E10.73567
G1 X95.848 Y136.473 E10.74544
G1 X95.395 Y136.416 E10.76063
G1 X94.487 Y136.262 E10.79126
G1 X93.35 Y135.95 E10.83048
G1 X92.977 Y135.825 E10.84356
G1 X92.689 Y135.724 E10.85371
G1 X92.327 Y135.591 E10.86654
G1 X91.478 Y135.236 E10.89715
G1 X90.479 Y134.7 E10.93485
G1 X90.163 Y134.508 E10.94715
G1 X89.884 Y134.332 E10.95812
G1 X89.543 Y134.11 E10.97166
G1 X88.794 Y133.575 E11.00227
G1 X88.354 Y133.211 E11.02126
G1 X87.861 Y132.758 E11.04353
G1 X87.657 Y132.558 E11.05303
G1 X87.463 Y132.362 E11.06221
G1 X87.158 Y132.047 E11.07679
G1 X86.547 Y131.359 E11.10739
G1 X85.894 Y130.464 E11.14424
G1 X85.684 Y130.142 E11.15703
G1 X85.512 Y129.869 E11.16776
G1 X85.306 Y129.531 E11.18093
G1 X84.861 Y128.724 E11.21158
G1 X84.578 Y128.104 E11.23424
G1 X84.379 Y127.599 E11.2523
G1 X84.281 Y127.331 E11.26179
G1 X84.17 Y127.014 E11.27296
G1 X84.032 Y126.596 E11.2876
G1 X83.782 Y125.71 E11.31822
G1 X83.638 Y124.988 E11.34271
G1 X83.572 Y124.54 E11.35777
G1 X83.536 Y124.255 E11.36732
G1 X83.501 Y123.946 E11.37767
G1 X83.459 Y123.511 E11.3922
G1 X83.411 Y122.64 E11.42122
G1 X83.4 Y121.776 E11.44995
G1 X83.4 Y111.482 E11.79233
G1 X83.41 Y109.473 E11.85915
G1 X83.396 Y108.214 E11.90103
G1 X83.4 Y107.847 E11.91324
G1 X83.401 Y98.052 E12.23902
G1 X83.411 Y97.354 E12.26224
G1 X83.458 Y96.499 E12.29072
G1 X83.496 Y96.101 E12.30402
G1 X83.532 Y95.773 E12.31499
G1 X83.58 Y95.395 E12.32767
G1 X83.736 Y94.487 E12.35831
G1 X83.89 Y93.865 E12.37962
G1 X84.063 Y93.3 E12.39927
G1 X84.16 Y93.011 E12.40941
G1 X84.257 Y92.733 E12.41921
G1 X84.403 Y92.335 E12.43331
G1 X84.758 Y91.486 E12.46391
G1 X85.123 Y90.778 E12.49041
G1 X85.341 Y90.405 E12.50478
G1 X85.506 Y90.136 E12.51527
G1 X85.639 Y89.926 E12.52354
G1 X85.869 Y89.57 E12.53764
G1 X86.401 Y88.819 E12.56825
G1 X86.859 Y88.269 E12.59205
G1 X87.232 Y87.867 E12.61029
G1 X87.447 Y87.647 E12.62052
G0 F6000 X87.733 Y87.927
G1 F600 X87.941 Y87.72 E12.63028
G1 X88.236 Y87.435 E12.64393
G1 X88.913 Y86.837 E12.67397
G1 X89.567 Y86.35 E12.70109
G1 X89.842 Y86.166 E12.7121
G1 X90.045 Y86.034 E12.72015
G1 X90.307 Y85.869 E12.73045
G1 X90.687 Y85.638 E12.74524
G1 X91.478 Y85.204 E12.77525
G1 X92.425 Y84.796 E12.80954
G1 X92.774 Y84.666 E12.82193
G1 X93.093 Y84.552 E12.8332
G1 X93.478 Y84.423 E12.8467
G1 X94.347 Y84.175 E12.87676
G1 X95.397 Y83.981 E12.91227
G1 X95.749 Y83.935 E12.92408
G1 X96.091 Y83.896 E12.93553
G1 X96.526 Y83.854 E12.95006
G1 X97.363 Y83.808 E12.97795
G1 X98.221 Y83.797 E13.00648
G1 X121.793 Y83.797 E13.79049
G1 X122.637 Y83.808 E13.81857
G1 X123.454 Y83.853 E13.84578
G1 X123.844 Y83.89 E13.85881
G1 X124.187 Y83.928 E13.87029
G1 X124.582 Y83.979 E13.88354
G1 X125.472 Y84.134 E13.91358
G1 X126.458 Y84.404 E13.94758
G1 X126.79 Y84.513 E13.95921
G1 X127.115 Y84.626 E13.97065
G1 X127.522 Y84.775 E13.98507
G1 X128.355 Y85.122 E14.01508
G1 X129.304 Y85.631 E14.0509
G1 X129.619 Y85.822 E14.06315
G1 X129.883 Y85.988 E14.07352
G1 X130.222 Y86.208 E14.08696
G1 X131.294 Y87.008 E14.13145
G1 X131.342 Y87.049 E14.13355
G1 X131.858 Y87.522 E14.15683
G1 X132.217 Y87.877 E14.17363
G1 X132.519 Y88.186 E14.188
G1 X133.121 Y88.859 E14.21803
G1 X133.78 Y89.762 E14.25521
G1 X133.989 Y90.084 E14.26798
G1 X134.162 Y90.36 E14.27881
G1 X134.376 Y90.714 E14.29257
G1 X134.809 Y91.507 E14.32262
G1 X135.208 Y92.436 E14.35625
G1 X135.324 Y92.748 E14.36732
G1 X135.444 Y93.091 E14.37941
G1 X135.582 Y93.507 E14.39399
G1 X135.828 Y94.376 E14.42402
G1 X135.958 Y95.017 E14.44578
G1 X136.033 Y95.514 E14.4625
G1 X136.065 Y95.769 E14.47104
G1 X136.095 Y96.037 E14.48001
G1 X136.14 Y96.493 E14.49525
G1 X136.188 Y97.355 E14.52397
G1 X136.199 Y98.239 E14.55337
G1 X136.187 Y107.008 E14.84503
G1 X136.192 Y108.008 E14.87829
G1 X136.2 Y108.925 E14.90879
G1 X136.198 Y121.95 E15.342
G1 X136.188 Y122.65 E15.36529
G1 X136.138 Y123.519 E15.39424
G1 X136.1 Y123.899 E15.40694
G1 X136.065 Y124.208 E15.41729
G1 X136.012 Y124.613 E15.43087
G1 X135.855 Y125.502 E15.4609
G1 X135.581 Y126.495 E15.49516
G1 X135.483 Y126.791 E15.50553
G1 X135.378 Y127.092 E15.51613
G1 X135.222 Y127.518 E15.53122
G1 X134.874 Y128.352 E15.56128
G1 X134.36 Y129.309 E15.59741
G1 X134.174 Y129.615 E15.60932
G1 X134.029 Y129.847 E15.61842
G1 X133.798 Y130.205 E15.63259
G1 X133.275 Y130.942 E15.66265
G1 X132.767 Y131.545 E15.68887
G1 X132.485 Y131.845 E15.70256
G1 X132.281 Y132.054 E15.71228
G1 X132.109 Y132.226 E15.72037
G1 X131.81 Y132.518 E15.73427
G1 X131.136 Y133.12 E15.76433
G1 X130.571 Y133.55 E15.78794
G1 X130.162 Y133.829 E15.80441
G1 X129.933 Y133.977 E15.81348
G1 X129.68 Y134.135 E15.8234
G1 X129.292 Y134.37 E15.83849
G1 X128.5 Y134.803 E15.86851
G1 X127.512 Y135.224 E15.90423
G1 X127.173 Y135.348 E15.91623
G1 X126.902 Y135.443 E15.92578
G1 X126.51 Y135.574 E15.93953
G1 X125.642 Y135.822 E15.96956
G1 X124.562 Y136.019 E16.00607
G1 X124.192 Y136.066 E16.01848
G1 X123.883 Y136.1 E16.02881
G1 X123.467 Y136.14 E16.04271
G1 X122.65 Y136.186 E16.06993
G1 X121.85 Y136.197 E16.09654
G1 X98.061 Y136.196 E16.88777
G1 X97.363 Y136.186 E16.91098
G1 X96.802 Y136.162 E16.92966
G1 X96.445 Y136.134 E16.94157
G1 X96.179 Y136.108 E16.95046
G1 X95.898 Y136.076 E16.95987
G1 X95.445 Y136.019 E16.97505
G1 X94.554 Y135.867 E17.00512
G1 X93.477 Y135.57 E17.04227
G1 X93.104 Y135.445 E17.05536
G1 X92.827 Y135.348 E17.06512
G1 X92.465 Y135.215 E17.07795
G1 X91.632 Y134.867 E17.10797
G1 X90.687 Y134.358 E17.14367
G1 X90.371 Y134.166 E17.15597
G1 X90.102 Y133.997 E17.16654
G1 X89.761 Y133.775 E17.18007
G1 X89.027 Y133.249 E17.21011
G1 X88.615 Y132.909 E17.22787
G1 X88.141 Y132.473 E17.24929
G1 X87.937 Y132.273 E17.25879
G1 X87.75 Y132.084 E17.26764
G1 X87.445 Y131.769 E17.28222
G1 X86.846 Y131.093 E17.31226
G1 X86.229 Y130.246 E17.34711
G1 X86.019 Y129.924 E17.3599
G1 X85.853 Y129.66 E17.37027
G1 X85.647 Y129.322 E17.38344
G1 X85.212 Y128.531 E17.41346
G1 X84.947 Y127.949 E17.43473
G1 X84.754 Y127.462 E17.45216
G1 X84.656 Y127.194 E17.46165
G1 X84.55 Y126.889 E17.47239
G1 X84.412 Y126.471 E17.48703
G1 X84.167 Y125.601 E17.51709
G1 X84.032 Y124.923 E17.54008
G1 X83.968 Y124.49 E17.55464
G1 X83.932 Y124.205 E17.56419
G1 X83.899 Y123.907 E17.57417
G1 X83.857 Y123.472 E17.5887
G1 X83.811 Y122.634 E17.61662
G1 X83.8 Y121.776 E17.64516
G1 X83.8 Y111.483 E17.9875
G1 X83.81 Y109.471 E18.05442
G1 X83.796 Y108.209 E18.0964
G1 X83.8 Y107.844 E18.10854
G1 X83.801 Y98.058 E18.43402
G1 X83.811 Y97.36 E18.45724
G1 X83.856 Y96.537 E18.48466
G1 X83.894 Y96.139 E18.49795
G1 X83.929 Y95.823 E18.50853
G1 X83.977 Y95.445 E18.5212
G1 X84.131 Y94.555 E18.55124
G1 X84.276 Y93.973 E18.57119
G1 X84.442 Y93.427 E18.59017
G1 X84.539 Y93.138 E18.60031
G1 X84.633 Y92.871 E18.60973
G1 X84.779 Y92.473 E18.62383
G1 X85.127 Y91.64 E18.65385
G1 X85.471 Y90.975 E18.67875
G1 X85.682 Y90.614 E18.69266
G1 X85.847 Y90.345 E18.70316
G1 X86.205 Y89.787 E18.72521
G1 X86.728 Y89.051 E18.75524
G1 X87.158 Y88.535 E18.77758
G1 X87.518 Y88.147 E18.79518
G1 X87.733 Y87.927 E18.80541
G1 F2700 E13.80541
;MESH:P03_Bogie_Bearing_Default_ReneB.stl
