;FLAVOR:Marlin
;TIME:14730
;Filament used: 6.78075m
;Layer height: 0.15
;MINX:88.204
;MINY:61.329
;MINZ:0.2
;MAXX:131.795
;MAXY:158.481
;MAXZ:57.35
;Generated with Cura_SteamEngine 4.8.0
M140 S60
M105
M190 S60
M104 S210
M105
M109 S210
M82 ;absolute extrusion mode
M201 X500.00 Y500.00 Z100.00 E5000.00 ;Setup machine max acceleration
M203 X500.00 Y500.00 Z10.00 E50.00 ;Setup machine max feedrate
M204 P500.00 R1000.00 T500.00 ;Setup Print/Retract/Travel acceleration
M205 X8.00 Y8.00 Z0.40 E5.00 ;Setup Jerk
M220 S100 ;Reset Feedrate
M221 S100 ;Reset Flowrate

G28 ;Home
G29 ;Auto Bed Leveling
M420 S1 Z2 ;Enable ABL using saved Mesh and Fade Height

G92 E0 ;Reset Extruder
G1 Z2.0 F3000 ;Move Z Axis up
G1 X10.1 Y20 Z0.28 F5000.0 ;Move to start position
G1 X10.1 Y200.0 Z0.28 F1500.0 E15 ;Draw the first line
G1 X10.4 Y200.0 Z0.28 F5000.0 ;Move to side a little
G1 X10.4 Y20 Z0.28 F1500.0 E30 ;Draw the second line
G92 E0 ;Reset Extruder
G1 Z2.0 F3000 ;Move Z Axis up
G92 E0
G92 E0
G1 F2700 E-5
;LAYER_COUNT:382
;LAYER:0
M107
G0 F6000 X90.74 Y65.707 Z0.2
;TYPE:SKIRT
G1 F2700 E0
G1 F600 X91.346 Y64.991 E0.0312
G1 X92.011 Y64.33 E0.06238
G1 X92.73 Y63.727 E0.0936
G1 X93.497 Y63.188 E0.12478
G1 X94.246 Y62.75 E0.15363
G1 X94.465 Y62.633 E0.16189
G1 X95.31 Y62.227 E0.19307
G1 X96.187 Y61.894 E0.22427
G1 X97.089 Y61.637 E0.25547
G1 X98.009 Y61.458 E0.28664
G1 X98.942 Y61.358 E0.31785
G1 X99.515 Y61.336 E0.33692
G1 X100.143 Y61.329 E0.35781
G1 X119.731 Y61.329 E1.00931
G1 X120.602 Y61.341 E1.03828
G1 X121.539 Y61.396 E1.0695
G1 X122.467 Y61.53 E1.10069
G1 X123.38 Y61.743 E1.13187
G1 X124.272 Y62.033 E1.16307
G1 X125.136 Y62.398 E1.19426
G1 X125.966 Y62.835 E1.22546
G1 X126.755 Y63.341 E1.25664
G1 X127.499 Y63.913 E1.28785
G1 X128.191 Y64.546 E1.31904
G1 X128.978 Y65.418 E1.35811
G1 X129.212 Y65.707 E1.37048
G1 X129.771 Y66.46 E1.40167
G1 X130.263 Y67.259 E1.43288
G1 X130.686 Y68.096 E1.46407
G1 X131.035 Y68.966 E1.49525
G1 X131.31 Y69.863 E1.52645
G1 X131.506 Y70.78 E1.55764
G1 X131.62 Y71.662 E1.58722
G1 X131.638 Y71.866 E1.59403
G1 X131.674 Y72.431 E1.61286
G1 X131.683 Y72.677 E1.62105
G1 X131.689 Y72.945 E1.62997
G1 X131.697 Y73.6 E1.65175
G1 X131.693 Y74.066 E1.66725
G1 X131.613 Y76.711 E1.75527
G1 X131.6 Y78.276 E1.80732
G1 X131.601 Y141.854 E3.92193
G1 X131.638 Y144.499 E4.00991
G1 X131.686 Y145.834 E4.05435
G1 X131.692 Y146.371 E4.07221
G1 X131.679 Y147.245 E4.10128
G1 X131.673 Y147.442 E4.10784
G1 X131.604 Y148.377 E4.13902
G1 X131.456 Y149.303 E4.17021
G1 X131.23 Y150.214 E4.20143
G1 X130.927 Y151.101 E4.2326
G1 X130.51 Y152.039 E4.26674
G1 X130.355 Y152.348 E4.27824
G1 X129.899 Y153.168 E4.30945
G1 X129.375 Y153.946 E4.34065
G1 X128.787 Y154.676 E4.37182
G1 X128.139 Y155.353 E4.40299
G1 X127.435 Y155.973 E4.43419
G1 X126.681 Y156.531 E4.46539
G1 X126.182 Y156.848 E4.48506
G1 X126.092 Y156.902 E4.48855
G1 X125.268 Y157.35 E4.51974
G1 X124.409 Y157.726 E4.55093
G1 X123.521 Y158.028 E4.58213
G1 X122.611 Y158.252 E4.6133
G1 X121.684 Y158.399 E4.64451
G1 X120.599 Y158.469 E4.68068
G1 X119.702 Y158.481 E4.71051
G1 X100.11 Y158.48 E5.36214
G1 X99.432 Y158.47 E5.3847
G1 X98.495 Y158.416 E5.41591
G1 X97.567 Y158.283 E5.44709
G1 X96.654 Y158.071 E5.47827
G1 X95.761 Y157.782 E5.50949
G1 X94.861 Y157.401 E5.54199
G1 X94.754 Y157.35 E5.54594
G1 X93.925 Y156.91 E5.57715
G1 X93.137 Y156.402 E5.60833
G1 X92.395 Y155.829 E5.63952
G1 X91.705 Y155.194 E5.6707
G1 X91.071 Y154.503 E5.7019
G1 X90.498 Y153.76 E5.7331
G1 X89.819 Y152.667 E5.7759
G1 X89.654 Y152.363 E5.7874
G1 X89.242 Y151.521 E5.81858
G1 X88.904 Y150.646 E5.84978
G1 X88.641 Y149.746 E5.88097
G1 X88.456 Y148.826 E5.91218
G1 X88.35 Y147.895 E5.94334
G1 X88.324 Y147.305 E5.96299
G1 X88.309 Y146.431 E5.99206
G1 X88.316 Y145.801 E6.01301
G1 X88.322 Y145.656 E6.01784
G1 X88.399 Y141.817 E6.14555
G1 X88.399 Y78.497 E8.25158
G1 X88.362 Y75.894 E8.33817
G1 X88.266 Y73.544 E8.4164
G1 X88.258 Y73.404 E8.42106
G1 X88.247 Y72.466 E8.45226
G1 X88.316 Y71.531 E8.48344
G1 X88.464 Y70.605 E8.51463
G1 X88.69 Y69.695 E8.54582
G1 X88.993 Y68.807 E8.57703
G1 X89.534 Y67.631 E8.62008
G1 X89.721 Y67.28 E8.63331
G1 X90.197 Y66.472 E8.6645
G1 X90.74 Y65.707 E8.6957
G0 F6000 X91.076 Y65.926
G1 F600 X91.674 Y65.225 E8.72635
G1 X92.331 Y64.58 E8.75697
G1 X93.04 Y63.994 E8.78756
G1 X93.798 Y63.471 E8.81819
G1 X94.434 Y63.103 E8.84263
G1 X94.653 Y62.986 E8.85089
G1 X95.483 Y62.587 E8.88152
G1 X96.345 Y62.263 E8.91215
G1 X97.231 Y62.014 E8.94276
G1 X98.136 Y61.843 E8.97339
G1 X99.052 Y61.752 E9.00401
G1 X99.52 Y61.736 E9.01958
G1 X100.143 Y61.729 E9.04031
G1 X119.731 Y61.729 E9.69181
G1 X120.596 Y61.741 E9.72058
G1 X121.515 Y61.796 E9.7512
G1 X122.426 Y61.93 E9.78182
G1 X123.322 Y62.142 E9.81245
G1 X124.196 Y62.432 E9.84308
G1 X125.041 Y62.796 E9.87368
G1 X125.852 Y63.232 E9.9043
G1 X126.622 Y63.737 E9.93493
G1 X127.345 Y64.307 E9.96555
G1 X128.016 Y64.937 E9.99616
G1 X128.667 Y65.67 E10.02877
G1 X128.901 Y65.959 E10.04114
G1 X129.449 Y66.699 E10.07177
G1 X129.93 Y67.483 E10.10236
G1 X130.342 Y68.307 E10.133
G1 X130.68 Y69.163 E10.16361
G1 X130.943 Y70.045 E10.19422
G1 X131.129 Y70.947 E10.22485
G1 X131.222 Y71.697 E10.24999
G1 X131.24 Y71.901 E10.2568
G1 X131.274 Y72.445 E10.27493
G1 X131.283 Y72.691 E10.28312
G1 X131.289 Y72.95 E10.29173
G1 X131.297 Y73.605 E10.31352
G1 X131.293 Y74.054 E10.32845
G1 X131.213 Y76.696 E10.41637
G1 X131.2 Y78.273 E10.46882
G1 X131.201 Y141.86 E12.58373
G1 X131.239 Y144.518 E12.67215
G1 X131.286 Y145.848 E12.71641
G1 X131.292 Y146.365 E12.73361
G1 X131.279 Y147.233 E12.76248
G1 X131.273 Y147.43 E12.76904
G1 X131.205 Y148.348 E12.79965
G1 X131.058 Y149.257 E12.83028
G1 X130.832 Y150.149 E12.86088
G1 X130.53 Y151.019 E12.89151
G1 X130.153 Y151.86 E12.92217
G1 X129.998 Y152.169 E12.93367
G1 X129.55 Y152.973 E12.96428
G1 X129.033 Y153.735 E12.99491
G1 X128.453 Y154.45 E13.02553
G1 X127.813 Y155.111 E13.05613
G1 X127.117 Y155.715 E13.08678
G1 X126.372 Y156.256 E13.1174
G1 X125.977 Y156.505 E13.13293
G1 X125.887 Y156.559 E13.13642
G1 X125.077 Y156.998 E13.16707
G1 X124.233 Y157.365 E13.19768
G1 X123.36 Y157.658 E13.2283
G1 X122.465 Y157.873 E13.25892
G1 X121.555 Y158.01 E13.28953
G1 X120.592 Y158.069 E13.32162
G1 X119.702 Y158.081 E13.35122
G1 X100.116 Y158.08 E14.00265
G1 X99.438 Y158.07 E14.02521
G1 X98.519 Y158.016 E14.05583
G1 X97.608 Y157.883 E14.08645
G1 X96.712 Y157.672 E14.11706
G1 X95.837 Y157.383 E14.14771
G1 X95.033 Y157.04 E14.17678
G1 X94.926 Y156.989 E14.18073
G1 X94.113 Y156.557 E14.21135
G1 X93.341 Y156.056 E14.24196
G1 X92.614 Y155.49 E14.2726
G1 X91.94 Y154.863 E14.30322
G1 X91.323 Y154.18 E14.33383
G1 X90.767 Y153.446 E14.36446
G1 X90.171 Y152.476 E14.40232
G1 X90.006 Y152.172 E14.41383
G1 X89.602 Y151.345 E14.44444
G1 X89.272 Y150.486 E14.47505
G1 X89.017 Y149.601 E14.50568
G1 X88.841 Y148.697 E14.53631
G1 X88.743 Y147.782 E14.56692
G1 X88.724 Y147.298 E14.58303
G1 X88.709 Y146.424 E14.6121
G1 X88.716 Y145.817 E14.63229
G1 X88.722 Y145.68 E14.63686
G1 X88.799 Y141.825 E14.7651
G1 X88.799 Y78.491 E16.8716
G1 X88.762 Y75.873 E16.95868
G1 X88.665 Y73.503 E17.03757
G1 X88.658 Y73.382 E17.0416
G1 X88.647 Y72.462 E17.0722
G1 X88.717 Y71.544 E17.10283
G1 X88.866 Y70.635 E17.13346
G1 X89.093 Y69.743 E17.16408
G1 X89.397 Y68.874 E17.1947
G1 X89.887 Y67.819 E17.23339
G1 X90.074 Y67.468 E17.24661
G1 X90.542 Y66.675 E17.27724
G1 X91.076 Y65.926 E17.30784
G0 F6000 X91.413 Y66.145
G1 F600 X92.002 Y65.46 E17.33788
G1 X92.65 Y64.831 E17.36792
G1 X93.35 Y64.261 E17.39794
G1 X94.099 Y63.756 E17.42799
G1 X94.623 Y63.455 E17.44809
G1 X94.842 Y63.338 E17.45635
G1 X95.656 Y62.949 E17.48635
G1 X96.502 Y62.632 E17.5164
G1 X97.373 Y62.392 E17.54645
G1 X98.261 Y62.23 E17.57647
G1 X99.524 Y62.136 E17.6186
G1 X100.143 Y62.129 E17.63919
G1 X119.731 Y62.129 E18.29069
G1 X120.59 Y62.141 E18.31926
G1 X121.491 Y62.195 E18.34928
G1 X122.384 Y62.329 E18.37931
G1 X123.262 Y62.541 E18.40936
G1 X124.118 Y62.83 E18.43941
G1 X124.944 Y63.194 E18.46943
G1 X125.736 Y63.629 E18.49948
G1 X126.485 Y64.133 E18.52951
G1 X127.188 Y64.701 E18.55957
G1 X127.837 Y65.328 E18.58958
G1 X128.356 Y65.921 E18.61579
G1 X128.59 Y66.21 E18.62816
G1 X129.127 Y66.937 E18.65822
G1 X129.597 Y67.708 E18.68825
G1 X129.998 Y68.517 E18.71829
G1 X130.325 Y69.359 E18.74833
G1 X130.576 Y70.226 E18.77835
G1 X130.75 Y71.113 E18.80841
G1 X130.824 Y71.732 E18.82915
G1 X130.842 Y71.936 E18.83596
G1 X130.874 Y72.46 E18.85342
G1 X130.889 Y72.954 E18.86986
G1 X130.897 Y73.609 E18.89165
G1 X130.893 Y74.042 E18.90605
G1 X130.813 Y76.68 E18.99383
G1 X130.8 Y78.27 E19.04671
G1 X130.801 Y141.866 E21.16193
G1 X130.838 Y144.492 E21.24927
G1 X130.887 Y145.863 E21.2949
G1 X130.892 Y146.36 E21.31143
G1 X130.879 Y147.221 E21.34007
G1 X130.873 Y147.418 E21.34663
G1 X130.806 Y148.318 E21.37665
G1 X130.659 Y149.209 E21.40668
G1 X130.434 Y150.084 E21.43673
G1 X130.132 Y150.935 E21.46677
G1 X129.795 Y151.68 E21.49396
G1 X129.64 Y151.989 E21.50546
G1 X129.2 Y152.778 E21.53551
G1 X128.692 Y153.524 E21.56553
G1 X128.119 Y154.223 E21.59559
G1 X127.487 Y154.868 E21.62562
G1 X126.801 Y155.455 E21.65565
G1 X125.771 Y156.162 E21.6972
G1 X125.681 Y156.216 E21.70069
G1 X124.887 Y156.646 E21.73073
G1 X124.058 Y157.004 E21.76076
G1 X123.2 Y157.288 E21.79082
G1 X122.321 Y157.494 E21.82085
G1 X121.427 Y157.621 E21.85088
G1 X120.586 Y157.669 E21.8789
G1 X119.702 Y157.681 E21.9083
G1 X100.122 Y157.68 E22.55954
G1 X99.444 Y157.67 E22.58209
G1 X98.542 Y157.617 E22.61214
G1 X97.649 Y157.484 E22.64217
G1 X96.771 Y157.272 E22.67221
G1 X95.915 Y156.984 E22.70225
G1 X95.205 Y156.679 E22.72795
G1 X95.098 Y156.628 E22.7319
G1 X94.301 Y156.203 E22.76194
G1 X93.545 Y155.71 E22.79196
G1 X92.835 Y155.152 E22.82199
G1 X92.177 Y154.533 E22.85204
G1 X91.576 Y153.859 E22.88207
G1 X91.038 Y153.134 E22.9121
G1 X90.522 Y152.286 E22.94512
G1 X90.357 Y151.982 E22.95662
G1 X89.962 Y151.17 E22.98665
G1 X89.64 Y150.326 E23.0167
G1 X89.394 Y149.457 E23.04674
G1 X89.226 Y148.57 E23.07676
G1 X89.124 Y147.291 E23.11944
G1 X89.109 Y146.417 E23.14851
G1 X89.115 Y145.833 E23.16794
G1 X89.122 Y145.654 E23.1739
G1 X89.199 Y141.833 E23.30101
G1 X89.199 Y78.485 E25.40797
G1 X89.162 Y75.851 E25.49559
G1 X89.068 Y73.561 E25.57182
G1 X89.057 Y73.36 E25.57851
G1 X89.048 Y72.457 E25.60855
G1 X89.118 Y71.557 E25.63857
G1 X89.268 Y70.666 E25.66862
G1 X89.496 Y69.793 E25.69863
G1 X89.801 Y68.942 E25.7287
G1 X90.24 Y68.007 E25.76306
G1 X90.427 Y67.656 E25.77628
G1 X90.886 Y66.879 E25.8063
G1 X91.413 Y66.145 E25.83635
G1 F2700 E20.83635
G0 F6000 X99.058 Y71.884
G0 X99.606 Y72.53
;TYPE:SUPPORT-INTERFACE
G1 F2700 E25.83635
G1 F600 X99.608 Y72.529 E25.83643
G1 X120.384 Y72.529 E26.52744
G1 X120.48 Y72.694 E26.53379
G1 X120.499 Y73.415 E26.55778
G1 X120.488 Y73.408 E26.55821
G1 X99.515 Y73.408 E27.25578
G1 X99.57 Y73.273 E27.26063
G1 X99.445 Y72.817 E27.27635
G1 X99.588 Y72.557 E27.28622
G1 X99.606 Y72.53 E27.2873
G1 F2700 E22.2873
G0 F6000 X98.661 Y73.22
G0 X98.626 Y74.203
G0 X98.735 Y144.519
G0 X98.781 Y145.18
G0 X98.862 Y145.553
G0 X99.514 Y146.598
G1 F2700 E27.2873
G1 F600 X120.483 Y146.598 E27.98473
G1 X120.487 Y147.076 E28.00063
G1 X120.381 Y147.279 E28.00825
G1 X120.378 Y147.281 E28.00837
G1 X99.62 Y147.281 E28.69878
G1 X99.512 Y147.075 E28.70652
G1 X99.514 Y146.598 E28.72238
G0 F6000 X100.689 Y147.08
G1 F600 X100.972 Y146.797 E28.73569
G0 F6000 X102.674 Y146.797
G1 F600 X102.956 Y147.08 E28.74898
G0 F6000 X104.083 Y147.08
G1 F600 X104.366 Y146.797 E28.76229
G0 F6000 X106.068 Y146.797
G1 F600 X106.35 Y147.08 E28.77558
G0 F6000 X107.478 Y147.08
G1 F600 X107.76 Y146.797 E28.78887
G0 F6000 X109.462 Y146.797
G1 F600 X109.745 Y147.08 E28.80218
G0 F6000 X110.872 Y147.08
G1 F600 X111.155 Y146.797 E28.81549
G0 F6000 X112.856 Y146.797
G1 F600 X113.139 Y147.08 E28.8288
G0 F6000 X114.266 Y147.08
G1 F600 X114.549 Y146.797 E28.84212
G0 F6000 X116.25 Y146.797
G1 F600 X116.533 Y147.08 E28.85543
G0 F6000 X117.66 Y147.08
G1 F600 X117.943 Y146.797 E28.86874
G0 F6000 X119.644 Y146.797
G1 F600 X119.927 Y147.08 E28.88205
G1 F2700 E23.88205
G0 F6000 X119.927 Y148.146
G0 X120.617 Y148.144
G0 X121.033 Y147.896
G0 X121.351 Y147.282
G0 X121.49 Y146.012
G0 X121.377 Y74.185
G0 X121.338 Y72.451
G0 X121.013 Y71.892
G0 X120.653 Y71.689
G0 X117.33 Y71.664
G0 X117.33 Y73.207
G1 F2700 E28.88205
G1 F600 X116.852 Y72.729 E28.90453
G0 F6000 X116.862 Y73.207
G1 F600 X117.341 Y72.728 E28.92706
G1 F2700 E23.92706
G0 F6000 X117.341 Y71.664
G0 X113.947 Y71.664
G0 X113.947 Y72.728
G1 F2700 E28.92706
G1 F600 X113.468 Y73.207 E28.94959
G0 F6000 X113.936 Y73.207
G1 F600 X113.458 Y72.729 E28.97208
G1 F2700 E23.97208
G0 F6000 X113.458 Y71.664
G0 X110.553 Y71.664
G0 X110.553 Y72.728
G1 F2700 E28.97208
G1 F600 X110.074 Y73.207 E28.99461
G0 F6000 X110.542 Y73.207
G1 F600 X110.064 Y72.729 E29.01709
G1 F2700 E24.01709
G0 F6000 X110.064 Y71.664
G0 X107.159 Y71.664
G0 X107.159 Y72.728
G1 F2700 E29.01709
G1 F600 X106.68 Y73.207 E29.03962
G0 F6000 X107.148 Y73.207
G1 F600 X106.67 Y72.729 E29.06211
G1 F2700 E24.06211
G0 F6000 X106.67 Y71.664
G0 X103.765 Y71.664
G0 X103.765 Y72.728
G1 F2700 E29.06211
G1 F600 X103.286 Y73.207 E29.08464
G0 F6000 X103.754 Y73.207
G1 F600 X103.276 Y72.729 E29.10712
G1 F2700 E24.10712
G0 F6000 X103.276 Y71.664
G0 X100.37 Y71.664
G0 X100.37 Y72.728
G1 F2700 E29.10712
G1 F600 X99.892 Y73.207 E29.12963
G0 F6000 X100.36 Y73.207
G1 F600 X99.882 Y72.729 E29.15211
G1 F2700 E24.15211
;MESH:P28_Wheel_Bracket_Split_Left Wiring.STL
G0 F6000 X100.209 Y75.539
G0 X100.019 Y144.76
;TYPE:WALL-INNER
G1 F2700 E29.15211
G1 F600 X99.999 Y144.473 E29.16168
G1 X99.999 Y75.539 E31.45444
G1 X100.024 Y75.22 E31.46508
G1 X119.977 Y75.22 E32.12872
G1 X120 Y75.518 E32.13866
G1 X120.001 Y144.416 E34.43022
G1 X120.001 Y144.471 E34.43204
G1 X119.982 Y144.76 E34.44168
G1 X119.927 Y144.76 E34.44351
G1 X100.019 Y144.76 E35.10565
G0 F6000 X99.66 Y145.16
;TYPE:WALL-OUTER
G1 F600 X99.639 Y145.066 E35.10885
G1 X99.599 Y144.486 E35.12819
G1 X99.599 Y75.521 E37.42197
G1 X99.652 Y74.842 E37.44463
G1 X99.657 Y74.82 E37.44538
G1 X120.333 Y74.82 E38.13306
G1 X120.358 Y74.959 E38.13776
G1 X120.4 Y75.5 E38.15581
G1 X120.401 Y144.483 E40.45019
G1 X120.362 Y145.062 E40.46949
G1 X120.34 Y145.16 E40.47284
G1 X99.66 Y145.16 E41.16065
G0 F6000 X99.901 Y144.887
G0 X100.109 Y144.37
G0 X100.389 Y144.37
;TYPE:SKIN
G1 F600 X100.389 Y75.61 E43.44762
G1 X119.61 Y75.61 E44.08691
G1 X119.611 Y144.37 E46.37388
G1 X100.389 Y144.37 E47.01321
G0 F6000 X100.65 Y144.208
G1 F600 X100.548 Y144.106 E47.01801
G0 F6000 X100.548 Y143.54
G1 F600 X101.216 Y144.208 E47.04943
G0 F6000 X101.782 Y144.208
G1 F600 X100.548 Y142.974 E47.10747
G0 F6000 X100.548 Y142.409
G1 F600 X102.348 Y144.208 E47.19211
G0 F6000 X102.913 Y144.208
G1 F600 X100.548 Y141.843 E47.30336
G0 F6000 X100.548 Y141.277
G1 F600 X103.479 Y144.208 E47.44122
G0 F6000 X104.045 Y144.208
G1 F600 X100.548 Y140.712 E47.60569
G0 F6000 X100.548 Y140.146
G1 F600 X104.61 Y144.208 E47.79675
G0 F6000 X105.176 Y144.208
G1 F600 X100.548 Y139.58 E48.01444
G0 F6000 X100.548 Y139.015
G1 F600 X105.742 Y144.208 E48.25872
G0 F6000 X106.307 Y144.208
G1 F600 X100.548 Y138.449 E48.52961
G0 F6000 X100.548 Y137.883
G1 F600 X106.873 Y144.208 E48.82712
G0 F6000 X107.439 Y144.208
G1 F600 X100.548 Y137.318 E49.15122
G0 F6000 X100.548 Y136.752
G1 F600 X108.004 Y144.208 E49.50193
G0 F6000 X108.57 Y144.208
G1 F600 X100.548 Y136.186 E49.87926
G0 F6000 X100.548 Y135.62
G1 F600 X109.136 Y144.208 E50.28322
G0 F6000 X109.701 Y144.208
G1 F600 X100.548 Y135.055 E50.71374
G0 F6000 X100.548 Y134.489
G1 F600 X110.267 Y144.208 E51.1709
G0 F6000 X110.833 Y144.208
G1 F600 X100.548 Y133.923 E51.65467
G0 F6000 X100.548 Y133.358
G1 F600 X111.399 Y144.208 E52.16505
G0 F6000 X111.964 Y144.208
G1 F600 X100.548 Y132.792 E52.70202
G0 F6000 X100.548 Y132.226
G1 F600 X112.53 Y144.208 E53.26562
G0 F6000 X113.096 Y144.208
G1 F600 X100.548 Y131.661 E53.85581
G0 F6000 X100.548 Y131.095
G1 F600 X113.661 Y144.208 E54.47261
G0 F6000 X114.227 Y144.208
G1 F600 X100.548 Y130.529 E55.11603
G0 F6000 X100.548 Y129.964
G1 F600 X114.793 Y144.208 E55.78604
G0 F6000 X115.358 Y144.208
