;FLAVOR:Marlin
;TIME:7421
;Filament used: 3.30842m
;Layer height: 0.15
;MINX:72.548
;MINY:82.2
;MINZ:0.2
;MAXX:149.3
;MAXY:134.8
;MAXZ:24.35
;Generated with Cura_SteamEngine 4.9.0
M140 S60
M105
M190 S60
M104 S210
M105
M109 S210
M82 ;absolute extrusion mode
M201 X500.00 Y500.00 Z100.00 E5000.00 ;Setup machine max acceleration
M203 X500.00 Y500.00 Z10.00 E50.00 ;Setup machine max feedrate
M204 P500.00 R1000.00 T500.00 ;Setup Print/Retract/Travel acceleration
M205 X8.00 Y8.00 Z0.40 E5.00 ;Setup Jerk
M220 S100 ;Reset Feedrate
M221 S100 ;Reset Flowrate

G28 ;Home
G29 ;Auto Bed Leveling
M420 S1 Z2 ;Enable ABL using saved Mesh and Fade Height

G92 E0 ;Reset Extruder
G1 Z2.0 F3000 ;Move Z Axis up
G1 X10.1 Y20 Z0.28 F5000.0 ;Move to start position
G1 X10.1 Y200.0 Z0.28 F1500.0 E15 ;Draw the first line
G1 X10.4 Y200.0 Z0.28 F5000.0 ;Move to side a little
G1 X10.4 Y20 Z0.28 F1500.0 E30 ;Draw the second line
G92 E0 ;Reset Extruder
G1 Z2.0 F3000 ;Move Z Axis up
G92 E0
G92 E0
G1 F2700 E-5
;LAYER_COUNT:162
;LAYER:0
M107
G0 F6000 X75.536 Y92.455 Z0.2
;TYPE:SKIRT
G1 F2700 E0
G1 F600 X76.172 Y91.988 E0.02624
G1 X76.852 Y91.587 E0.0525
G1 X77.57 Y91.257 E0.07878
G1 X78.317 Y91.002 E0.10504
G1 X79.086 Y90.823 E0.1313
G1 X79.87 Y90.723 E0.15758
G1 X80.465 Y90.7 E0.17739
G1 X84.3 Y90.7 E0.30494
G1 X84.3 Y90.117 E0.32433
G1 X84.34 Y89.328 E0.35061
G1 X84.459 Y88.548 E0.37685
G1 X84.657 Y87.783 E0.40313
G1 X84.931 Y87.043 E0.42938
G1 X85.279 Y86.334 E0.45565
G1 X85.697 Y85.663 E0.48194
G1 X86.18 Y85.039 E0.50819
G1 X86.585 Y84.602 E0.528
G1 X86.702 Y84.485 E0.53351
G1 X87.288 Y83.955 E0.55979
G1 X87.924 Y83.488 E0.58603
G1 X88.604 Y83.087 E0.61229
G1 X89.322 Y82.757 E0.63857
G1 X90.069 Y82.502 E0.66482
G1 X90.838 Y82.323 E0.69108
G1 X91.622 Y82.223 E0.71737
G1 X92.217 Y82.2 E0.73717
G1 X136.386 Y82.2 E2.20624
G1 X136.819 Y82.212 E2.22065
G1 X137.556 Y82.253 E2.2452
G1 X138.687 Y82.399 E2.28313
G1 X139.371 Y82.539 E2.30635
G1 X140.442 Y82.839 E2.34334
G1 X141.264 Y83.134 E2.37239
G1 X141.993 Y83.438 E2.39866
G1 X142.474 Y83.689 E2.41671
G1 X142.88 Y83.919 E2.43223
G1 X143.155 Y84.083 E2.44287
G1 X143.491 Y84.292 E2.45604
G1 X144.139 Y84.742 E2.48228
G1 X144.739 Y85.256 E2.50855
G1 X145.452 Y86.03 E2.54355
G1 X145.546 Y86.147 E2.54855
G1 X146.008 Y86.787 E2.5748
G1 X146.404 Y87.47 E2.60106
G1 X146.729 Y88.19 E2.62733
G1 X146.979 Y88.939 E2.6536
G1 X147.152 Y89.709 E2.67984
G1 X147.246 Y90.493 E2.70611
G1 X147.265 Y91.023 E2.72375
G1 X147.266 Y91.92 E2.75358
G1 X147.248 Y108.599 E3.30833
G1 X147.277 Y108.708 E3.31208
G1 X147.4 Y109.488 E3.33834
G1 X147.418 Y109.833 E3.34983
G1 X147.709 Y110.177 E3.36482
G1 X148.155 Y110.83 E3.39112
G1 X148.532 Y111.523 E3.41736
G1 X148.837 Y112.252 E3.44364
G1 X149.067 Y113.007 E3.46989
G1 X149.22 Y113.782 E3.49617
G1 X149.3 Y114.909 E3.53374
G1 X149.293 Y119.859 E3.69838
G1 X149.252 Y120.648 E3.72466
G1 X149.131 Y121.428 E3.75091
G1 X148.932 Y122.192 E3.77717
G1 X148.657 Y122.932 E3.80343
G1 X148.309 Y123.641 E3.8297
G1 X147.89 Y124.311 E3.85598
G1 X147.455 Y124.872 E3.87959
G1 X147.452 Y126.34 E3.92842
G1 X147.411 Y127.128 E3.95466
G1 X147.29 Y127.909 E3.98095
G1 X147.091 Y128.673 E4.00721
G1 X146.679 Y129.712 E4.04438
G1 X146.639 Y129.795 E4.04745
G1 X146.26 Y130.488 E4.07372
G1 X145.814 Y131.14 E4.09999
G1 X145.304 Y131.743 E4.12626
G1 X144.895 Y132.148 E4.1454
G1 X144.656 Y132.368 E4.15621
G1 X144.048 Y132.873 E4.1825
G1 X143.393 Y133.313 E4.20874
G1 X142.697 Y133.685 E4.23499
G1 X141.966 Y133.985 E4.26127
G1 X140.965 Y134.265 E4.29584
G1 X140.851 Y134.289 E4.29972
G1 X139.615 Y134.587 E4.342
G1 X138.839 Y134.734 E4.36827
G1 X138.053 Y134.8 E4.39451
G1 X137.263 Y134.787 E4.42078
G1 X137.058 Y134.763 E4.42765
G1 X136.579 Y134.766 E4.44358
G1 X135.793 Y134.691 E4.46984
G1 X135.736 Y134.68 E4.47177
G1 X116.624 Y134.68 E5.10744
G1 X115.835 Y134.64 E5.13372
G1 X115.055 Y134.521 E5.15996
G1 X114.29 Y134.323 E5.18624
G1 X113.55 Y134.049 E5.21249
G1 X112.841 Y133.701 E5.23876
G1 X112.17 Y133.283 E5.26505
G1 X111.546 Y132.8 E5.2913
G1 X110.973 Y132.257 E5.31755
G1 X110.458 Y131.658 E5.34383
G1 X110.007 Y131.01 E5.37009
G1 X109.623 Y130.319 E5.39638
G1 X109.311 Y129.594 E5.42263
G1 X109.074 Y128.841 E5.44889
G1 X108.915 Y128.067 E5.47517
G1 X108.831 Y127.218 E5.50354
G1 X108.819 Y126.941 E5.51276
G1 X108.825 Y126.151 E5.53904
G1 X108.911 Y125.366 E5.56531
G1 X109.075 Y124.594 E5.59156
G1 X109.317 Y123.842 E5.61783
G1 X109.634 Y123.118 E5.64412
G1 X110.022 Y122.431 E5.67036
G1 X110.411 Y121.88 E5.69279
G1 X84.228 Y121.88 E6.56364
G1 X84.104 Y121.903 E6.56784
G1 X83.317 Y121.968 E6.5941
G1 X82.851 Y121.959 E6.60961
G1 X82.525 Y121.989 E6.62049
G1 X81.735 Y121.98 E6.64677
G1 X80.95 Y121.892 E6.67304
G1 X80.449 Y121.793 E6.69003
G1 X78.98 Y121.452 E6.74019
G1 X78.436 Y121.317 E6.75883
G1 X77.691 Y121.056 E6.78509
G1 X76.975 Y120.721 E6.81138
G1 X76.298 Y120.316 E6.83762
G1 X75.387 Y119.602 E6.87611
G1 X75.131 Y119.369 E6.88763
G1 X74.574 Y118.809 E6.9139
G1 X74.078 Y118.195 E6.94015
G1 X73.645 Y117.534 E6.96643
G1 X73.226 Y116.708 E6.99724
G1 X73.193 Y116.632 E6.99999
G1 X72.916 Y115.892 E7.02627
G1 X72.715 Y115.129 E7.05252
G1 X72.592 Y114.349 E7.07878
G1 X72.548 Y113.525 E7.10622
G1 X72.548 Y98.617 E7.60207
G1 X72.588 Y97.828 E7.62834
G1 X72.707 Y97.048 E7.65459
G1 X72.905 Y96.283 E7.68087
G1 X73.179 Y95.543 E7.70711
G1 X73.527 Y94.834 E7.73338
G1 X73.945 Y94.163 E7.75968
G1 X74.428 Y93.539 E7.78592
G1 X74.833 Y93.102 E7.80574
G1 X74.95 Y92.985 E7.81124
G1 X75.536 Y92.455 E7.83752
G0 F6000 X75.804 Y92.753
G1 F600 X76.426 Y92.3 E7.86311
G1 X77.091 Y91.914 E7.88869
G1 X77.793 Y91.599 E7.91428
G1 X78.524 Y91.359 E7.93987
G1 X79.275 Y91.196 E7.96543
G1 X80.04 Y91.112 E7.99103
G1 X80.465 Y91.1 E8.00517
G1 X84.7 Y91.1 E8.14602
G1 X84.7 Y90.117 E8.17872
G1 X84.74 Y89.349 E8.2043
G1 X84.859 Y88.589 E8.22988
G1 X85.057 Y87.846 E8.25546
G1 X85.331 Y87.127 E8.28105
G1 X85.678 Y86.441 E8.30662
G1 X86.094 Y85.794 E8.3322
G1 X86.575 Y85.194 E8.35778
G1 X86.867 Y84.884 E8.37194
G1 X86.984 Y84.767 E8.37745
G1 X87.556 Y84.253 E8.40303
G1 X88.178 Y83.8 E8.42862
G1 X88.843 Y83.414 E8.45419
G1 X89.545 Y83.099 E8.47978
G1 X90.276 Y82.859 E8.50537
G1 X91.027 Y82.696 E8.53093
G1 X91.792 Y82.612 E8.55653
G1 X92.217 Y82.6 E8.57067
G1 X136.386 Y82.6 E10.03974
G1 X136.797 Y82.611 E10.05341
G1 X137.534 Y82.652 E10.07796
G1 X138.607 Y82.791 E10.11395
G1 X139.291 Y82.931 E10.13717
G1 X140.307 Y83.216 E10.17227
G1 X141.129 Y83.511 E10.20132
G1 X141.838 Y83.808 E10.22688
G1 X142.276 Y84.037 E10.24332
G1 X142.682 Y84.267 E10.25884
G1 X142.944 Y84.422 E10.26897
G1 X143.28 Y84.631 E10.28213
G1 X143.911 Y85.071 E10.30771
G1 X144.493 Y85.574 E10.3333
G1 X145.14 Y86.28 E10.36515
G1 X145.234 Y86.397 E10.37014
G1 X145.684 Y87.021 E10.39573
G1 X146.066 Y87.688 E10.42129
G1 X146.378 Y88.392 E10.44691
G1 X146.615 Y89.123 E10.47246
G1 X146.774 Y89.876 E10.49806
G1 X146.865 Y91.024 E10.53636
G1 X146.866 Y91.92 E10.56617
G1 X146.848 Y108.655 E11.12277
G1 X146.898 Y108.849 E11.12944
G1 X147.01 Y109.609 E11.15499
G1 X147.028 Y109.986 E11.16754
G1 X147.451 Y110.5 E11.18968
G1 X147.875 Y111.141 E11.21524
G1 X148.231 Y111.823 E11.24083
G1 X148.514 Y112.538 E11.26641
G1 X148.721 Y113.279 E11.292
G1 X148.85 Y114.037 E11.31757
G1 X148.9 Y114.908 E11.34659
G1 X148.893 Y119.858 E11.51123
G1 X148.852 Y120.627 E11.53684
G1 X148.731 Y121.386 E11.5624
G1 X148.533 Y122.129 E11.58798
G1 X148.258 Y122.848 E11.61358
G1 X147.91 Y123.534 E11.63916
G1 X147.493 Y124.18 E11.66474
G1 X147.055 Y124.725 E11.68799
G1 X147.052 Y126.339 E11.74168
G1 X147.011 Y127.107 E11.76726
G1 X146.89 Y127.866 E11.79282
G1 X146.691 Y128.609 E11.8184
G1 X146.318 Y129.539 E11.85173
G1 X146.278 Y129.622 E11.85479
G1 X145.909 Y130.296 E11.88035
G1 X145.471 Y130.929 E11.90595
G1 X144.97 Y131.513 E11.93155
G1 X144.624 Y131.854 E11.9477
G1 X144.385 Y132.074 E11.95851
G1 X143.792 Y132.564 E11.98409
G1 X143.153 Y132.991 E12.00965
G1 X142.472 Y133.349 E12.03524
G1 X141.757 Y133.634 E12.06084
G1 X140.884 Y133.873 E12.09095
G1 X140.804 Y133.89 E12.09367
G1 X139.522 Y134.199 E12.13753
G1 X138.766 Y134.34 E12.16311
G1 X137.999 Y134.402 E12.1887
G1 X137.23 Y134.384 E12.21429
G1 X137.07 Y134.364 E12.21965
G1 X136.557 Y134.365 E12.23671
G1 X135.792 Y134.286 E12.26229
G1 X135.762 Y134.28 E12.26331
G1 X116.624 Y134.28 E12.89984
G1 X115.856 Y134.24 E12.92542
G1 X115.096 Y134.121 E12.951
G1 X114.353 Y133.923 E12.97658
G1 X113.634 Y133.649 E13.00217
G1 X112.948 Y133.302 E13.02774
G1 X112.301 Y132.886 E13.05332
G1 X111.701 Y132.405 E13.0789
G1 X111.154 Y131.864 E13.10449
G1 X110.666 Y131.269 E13.13008
G1 X110.243 Y130.627 E13.15565
G1 X109.888 Y129.944 E13.18126
G1 X109.607 Y129.229 E13.20681
G1 X109.401 Y128.487 E13.23242
G1 X109.273 Y127.729 E13.25799
G1 X109.231 Y127.2 E13.27564
G1 X109.219 Y126.923 E13.28486
G1 X109.226 Y126.154 E13.31044
G1 X109.312 Y125.39 E13.33601
G1 X109.477 Y124.639 E13.36158
G1 X109.72 Y123.909 E13.38717
G1 X110.037 Y123.208 E13.41276
G1 X110.425 Y122.544 E13.43834
G1 X110.879 Y121.923 E13.46393
G1 X111.282 Y121.48 E13.48385
G1 X84.193 Y121.48 E14.38483
G1 X84.031 Y121.51 E14.39031
G1 X83.264 Y121.569 E14.4159
G1 X82.84 Y121.559 E14.43
G1 X82.469 Y121.591 E14.44239
G1 X81.7 Y121.577 E14.46797
G1 X80.936 Y121.484 E14.49357
G1 X80.54 Y121.403 E14.50701
G1 X79.071 Y121.062 E14.55717
G1 X78.53 Y120.928 E14.57571
G1 X77.805 Y120.671 E14.60129
G1 X77.11 Y120.34 E14.62689
G1 X76.454 Y119.938 E14.65248
G1 X75.656 Y119.307 E14.68632
G1 X75.4 Y119.074 E14.69783
G1 X74.859 Y118.527 E14.72342
G1 X74.377 Y117.927 E14.74902
G1 X73.961 Y117.281 E14.77457
G1 X73.593 Y116.548 E14.80185
G1 X73.56 Y116.472 E14.80461
G1 X73.291 Y115.752 E14.83017
G1 X73.098 Y115.007 E14.85577
G1 X72.983 Y114.247 E14.88134
G1 X72.948 Y113.525 E14.90538
G1 X72.948 Y98.617 E15.40122
G1 X72.988 Y97.849 E15.4268
G1 X73.107 Y97.089 E15.45238
G1 X73.305 Y96.346 E15.47796
G1 X73.579 Y95.627 E15.50355
G1 X73.926 Y94.941 E15.52912
G1 X74.342 Y94.294 E15.5547
G1 X74.823 Y93.694 E15.58028
G1 X75.115 Y93.384 E15.59445
G1 X75.232 Y93.267 E15.59995
G1 X75.804 Y92.753 E15.62553
G0 F6000 X76.072 Y93.05
G1 F600 X76.678 Y92.613 E15.65038
G1 X77.328 Y92.242 E15.67527
G1 X78.014 Y91.943 E15.70016
G1 X78.728 Y91.719 E15.72505
G1 X79.461 Y91.572 E15.74991
G1 X80.465 Y91.5 E15.78339
G1 X85.1 Y91.5 E15.93755
G1 X85.1 Y90.117 E15.98355
G1 X85.14 Y89.37 E16.00843
G1 X85.259 Y88.632 E16.03329
G1 X85.457 Y87.91 E16.05819
G1 X85.73 Y87.214 E16.08306
G1 X86.077 Y86.551 E16.10795
G1 X86.492 Y85.928 E16.13285
G1 X87.15 Y85.167 E16.16631
G1 X87.267 Y85.05 E16.17181
G1 X87.824 Y84.55 E16.19671
G1 X88.43 Y84.113 E16.22156
G1 X89.08 Y83.742 E16.24645
G1 X89.766 Y83.443 E16.27134
G1 X90.48 Y83.219 E16.29623
G1 X91.213 Y83.072 E16.32109
G1 X92.217 Y83 E16.35457
G1 X136.386 Y83 E17.82364
G1 X136.775 Y83.011 E17.83658
G1 X137.512 Y83.052 E17.86113
G1 X138.527 Y83.183 E17.89517
G1 X139.211 Y83.323 E17.91839
G1 X140.172 Y83.592 E17.95158
G1 X140.994 Y83.887 E17.98063
G1 X141.683 Y84.177 E18.0055
G1 X142.079 Y84.385 E18.02037
G1 X142.485 Y84.615 E18.03589
G1 X142.732 Y84.762 E18.04545
G1 X143.068 Y84.971 E18.05861
G1 X143.681 Y85.4 E18.0835
G1 X144.245 Y85.891 E18.10837
G1 X144.828 Y86.531 E18.13716
G1 X144.922 Y86.648 E18.14216
G1 X145.359 Y87.255 E18.16703
G1 X145.728 Y87.906 E18.19192
G1 X146.026 Y88.592 E18.2168
G1 X146.249 Y89.306 E18.24168
G1 X146.394 Y90.04 E18.26656
G1 X146.465 Y91.024 E18.29937
G1 X146.466 Y91.919 E18.32914
G1 X146.448 Y108.711 E18.88765
G1 X146.517 Y108.988 E18.89714
G1 X146.619 Y109.729 E18.92202
G1 X146.637 Y110.15 E18.93604
G1 X146.722 Y110.236 E18.94006
G1 X147.19 Y110.82 E18.96495
G1 X147.592 Y111.451 E18.98983
G1 X147.925 Y112.121 E19.01472
G1 X148.185 Y112.822 E19.03959
G1 X148.368 Y113.547 E19.06445
G1 X148.473 Y114.288 E19.08935
G1 X148.5 Y114.908 E19.10999
G1 X148.493 Y119.858 E19.27463
G1 X148.452 Y120.605 E19.29951
G1 X148.331 Y121.343 E19.32438
G1 X148.133 Y122.064 E19.34925
G1 X147.858 Y122.76 E19.37414
G1 X147.511 Y123.423 E19.39903
G1 X147.095 Y124.045 E19.42392
G1 X146.655 Y124.572 E19.44675
G1 X146.652 Y126.338 E19.50549
G1 X146.611 Y127.085 E19.53037
G1 X146.49 Y127.823 E19.55525
G1 X146.291 Y128.544 E19.58012
G1 X145.958 Y129.365 E19.60959
G1 X145.918 Y129.448 E19.61266
G1 X145.558 Y130.104 E19.63754
G1 X145.129 Y130.717 E19.66243
G1 X144.638 Y131.281 E19.6873
G1 X144.353 Y131.559 E19.70054
G1 X144.114 Y131.779 E19.71135
G1 X143.537 Y132.256 E19.73625
G1 X142.913 Y132.668 E19.76112
G1 X142.248 Y133.011 E19.786
G1 X141.551 Y133.282 E19.81088
G1 X140.802 Y133.482 E19.83666
G1 X140.695 Y133.504 E19.84029
G1 X139.428 Y133.81 E19.88365
G1 X138.692 Y133.946 E19.90854
G1 X137.946 Y134.003 E19.93342
G1 X137.199 Y133.98 E19.95828
G1 X137.086 Y133.964 E19.96208
G1 X136.536 Y133.963 E19.98037
G1 X135.788 Y133.88 E20.0054
G1 X116.624 Y133.88 E20.6428
G1 X115.877 Y133.84 E20.66768
G1 X115.139 Y133.721 E20.69254
G1 X114.417 Y133.523 E20.71744
G1 X113.721 Y133.25 E20.74231
G1 X113.058 Y132.903 E20.7672
G1 X112.435 Y132.488 E20.7921
G1 X111.861 Y132.009 E20.81696
G1 X111.34 Y131.472 E20.84185
G1 X110.881 Y130.882 E20.86671
G1 X110.486 Y130.246 E20.89161
G1 X110.162 Y129.572 E20.91648
G1 X109.912 Y128.867 E20.94136
G1 X109.738 Y128.139 E20.96626
G1 X109.631 Y127.183 E20.99825
G1 X109.619 Y126.906 E21.00747
G1 X109.626 Y126.158 E21.03235
G1 X109.714 Y125.415 E21.05724
G1 X109.88 Y124.686 E21.08211
G1 X110.123 Y123.978 E21.107
G1 X110.44 Y123.301 E21.13187
G1 X110.828 Y122.661 E21.15676
G1 X111.281 Y122.066 E21.18163
G1 X111.796 Y121.523 E21.20652
G1 X112.316 Y121.08 E21.22924
G1 X84.155 Y121.08 E22.16588
G1 X83.959 Y121.116 E22.17251
G1 X83.213 Y121.171 E22.19739
G1 X82.828 Y121.158 E22.2102
G1 X82.414 Y121.192 E22.22402
G1 X81.666 Y121.174 E22.2489
G1 X80.63 Y121.014 E22.28377
G1 X79.161 Y120.673 E22.33393
G1 X78.624 Y120.538 E22.35235
G1 X77.92 Y120.285 E22.37723
G1 X77.247 Y119.958 E22.40211
G1 X76.613 Y119.562 E22.42698
G1 X75.925 Y119.011 E22.45629
G1 X75.669 Y118.778 E22.46781
G1 X75.144 Y118.245 E22.49269
G1 X74.678 Y117.66 E22.51756
G1 X74.277 Y117.028 E22.54246
G1 X73.96 Y116.389 E22.56618
G1 X73.927 Y116.313 E22.56894
G1 X73.666 Y115.612 E22.59382
G1 X73.482 Y114.887 E22.6187
G1 X73.376 Y114.146 E22.64359
G1 X73.348 Y113.525 E22.66427
G1 X73.348 Y98.617 E23.16011
G1 X73.388 Y97.87 E23.18499
G1 X73.507 Y97.132 E23.20985
G1 X73.705 Y96.41 E23.23476
G1 X73.978 Y95.714 E23.25962
G1 X74.325 Y95.051 E23.28451
G1 X74.74 Y94.428 E23.30941
G1 X75.398 Y93.667 E23.34287
G1 X75.515 Y93.55 E23.34837
G1 X76.072 Y93.05 E23.37327
G0 F6000 X76.339 Y93.349
G1 F600 X76.93 Y92.926 E23.39744
G1 X77.564 Y92.572 E23.42159
G1 X78.233 Y92.289 E23.44575
G1 X78.929 Y92.081 E23.46991
G1 X79.644 Y91.951 E23.49408
G1 X80.465 Y91.9 E23.52144
G1 X85.5 Y91.9 E23.68891
G1 X85.5 Y90.117 E23.74821
G1 X85.54 Y89.392 E23.77236
G1 X85.659 Y88.675 E23.79653
G1 X85.857 Y87.976 E23.8207
G1 X86.13 Y87.303 E23.84485
G1 X86.475 Y86.664 E23.86901
G1 X86.889 Y86.067 E23.89317
G1 X87.433 Y85.45 E23.92053
G1 X87.55 Y85.333 E23.92603
G1 X88.091 Y84.849 E23.95018
G1 X88.682 Y84.426 E23.97435
G1 X89.316 Y84.072 E23.9985
G1 X89.985 Y83.789 E24.02266
G1 X90.681 Y83.581 E24.04682
G1 X91.396 Y83.451 E24.07099
G1 X92.217 Y83.4 E24.09835
G1 X136.386 Y83.4 E25.56742
G1 X136.753 Y83.41 E25.57963
G1 X137.49 Y83.451 E25.60418
G1 X138.446 Y83.575 E25.63624
G1 X139.13 Y83.715 E25.65946
G1 X140.036 Y83.969 E25.69076
G1 X140.858 Y84.264 E25.71981
G1 X141.528 Y84.547 E25.744
G1 X141.882 Y84.733 E25.7573
G1 X142.288 Y84.963 E25.77282
G1 X142.521 Y85.102 E25.78184
G1 X142.857 Y85.311 E25.795
G1 X143.452 Y85.728 E25.81917
G1 X143.997 Y86.208 E25.84332
G1 X144.516 Y86.781 E25.86904
G1 X144.61 Y86.898 E25.87403
G1 X145.033 Y87.489 E25.8982
G1 X145.389 Y88.122 E25.92236
G1 X145.673 Y88.791 E25.94653
G1 X145.881 Y89.486 E25.97066
G1 X146.012 Y90.201 E25.99483
G1 X146.065 Y91.025 E26.0223
G1 X146.066 Y91.919 E26.05203
G1 X146.048 Y108.759 E26.61213
G1 X146.136 Y109.125 E26.62465
G1 X146.227 Y109.846 E26.64882
G1 X146.243 Y110.323 E26.6647
G1 X146.479 Y110.566 E26.67596
