;FLAVOR:Marlin
;TIME:2459
;Filament used: 1.16126m
;Layer height: 0.15
;MINX:75.765
;MINY:77.028
;MINZ:0.2
;MAXX:144.235
;MAXY:142.974
;MAXZ:4.4
;Generated with Cura_SteamEngine 4.9.0
M140 S60
M105
M190 S60
M104 S210
M105
M109 S210
M82 ;absolute extrusion mode
M201 X500.00 Y500.00 Z100.00 E5000.00 ;Setup machine max acceleration
M203 X500.00 Y500.00 Z10.00 E50.00 ;Setup machine max feedrate
M204 P500.00 R1000.00 T500.00 ;Setup Print/Retract/Travel acceleration
M205 X8.00 Y8.00 Z0.40 E5.00 ;Setup Jerk
M220 S100 ;Reset Feedrate
M221 S100 ;Reset Flowrate

G28 ;Home
G29 ;Auto Bed Leveling
M420 S1 Z2 ;Enable ABL using saved Mesh and Fade Height

G92 E0 ;Reset Extruder
G1 Z2.0 F3000 ;Move Z Axis up
G1 X10.1 Y20 Z0.28 F5000.0 ;Move to start position
G1 X10.1 Y200.0 Z0.28 F1500.0 E15 ;Draw the first line
G1 X10.4 Y200.0 Z0.28 F5000.0 ;Move to side a little
G1 X10.4 Y20 Z0.28 F1500.0 E30 ;Draw the second line
G92 E0 ;Reset Extruder
G1 Z2.0 F3000 ;Move Z Axis up
G92 E0
G92 E0
G1 F2700 E-5
;LAYER_COUNT:29
;LAYER:0
M107
G0 F6000 X79.66 Y89.119 Z0.2
;TYPE:SKIRT
G1 F2700 E0
G1 F600 X80.4 Y88.544 E0.03117
G1 X81.187 Y88.033 E0.06238
G1 X82.014 Y87.592 E0.09355
G1 X82.504 Y87.371 E0.11143
G1 X83.295 Y87.039 E0.13996
G1 X84.562 Y86.528 E0.1854
G1 X86.878 Y85.516 E0.26946
G1 X89.155 Y84.444 E0.35317
G1 X91.401 Y83.307 E0.4369
G1 X93.608 Y82.112 E0.52037
G1 X94.436 Y81.636 E0.55214
G1 X95.672 Y80.934 E0.59942
G1 X96.165 Y80.671 E0.618
G1 X96.61 Y80.451 E0.63451
G1 X96.972 Y80.282 E0.6478
G1 X98.168 Y79.738 E0.6915
G1 X98.772 Y79.473 E0.71344
G1 X99.319 Y79.25 E0.73309
G1 X99.529 Y79.171 E0.74055
G1 X99.81 Y79.07 E0.75048
G1 X100.187 Y78.94 E0.76374
G1 X101.299 Y78.568 E0.80274
G1 X102.044 Y78.33 E0.82876
G1 X102.693 Y78.145 E0.8512
G1 X103.093 Y78.045 E0.86492
G1 X103.534 Y77.943 E0.87997
G1 X104.721 Y77.682 E0.92039
G1 X105.439 Y77.534 E0.94478
G1 X106.058 Y77.425 E0.96568
G1 X106.255 Y77.396 E0.9723
G1 X106.818 Y77.324 E0.99118
G1 X108.048 Y77.184 E1.03236
G1 X108.891 Y77.101 E1.06053
G1 X109.507 Y77.058 E1.08107
G1 X109.968 Y77.042 E1.09641
G1 X110.315 Y77.036 E1.10795
G1 X111.676 Y77.028 E1.15322
G1 X112.343 Y77.033 E1.17541
G1 X112.971 Y77.056 E1.19631
G1 X113.172 Y77.069 E1.20301
G1 X113.43 Y77.089 E1.21161
G1 X113.856 Y77.127 E1.22584
G1 X115.089 Y77.249 E1.26705
G1 X115.798 Y77.329 E1.29078
G1 X116.408 Y77.416 E1.31127
G1 X116.661 Y77.459 E1.31981
G1 X117.025 Y77.527 E1.33213
G1 X118.539 Y77.838 E1.38353
G1 X119.227 Y77.991 E1.40697
G1 X119.778 Y78.129 E1.42587
G1 X119.98 Y78.185 E1.43284
G1 X120.286 Y78.275 E1.44345
G1 X120.599 Y78.372 E1.45435
G1 X121.871 Y78.778 E1.49876
G1 X122.537 Y79.001 E1.52212
G1 X123.097 Y79.206 E1.54195
G1 X123.541 Y79.386 E1.55789
G1 X123.965 Y79.568 E1.57323
G1 X125.087 Y80.063 E1.61402
G1 X125.721 Y80.352 E1.63719
G1 X126.321 Y80.648 E1.65945
G1 X126.694 Y80.848 E1.67352
G1 X127.017 Y81.029 E1.68584
G1 X128.103 Y81.65 E1.72745
G1 X128.762 Y82.039 E1.7529
G1 X129.256 Y82.349 E1.7723
G1 X129.39 Y82.438 E1.77765
G1 X129.628 Y82.601 E1.78724
G1 X130.044 Y82.894 E1.80417
G1 X131.036 Y83.61 E1.84486
G1 X131.585 Y84.017 E1.86759
G1 X132.076 Y84.404 E1.88838
G1 X132.41 Y84.686 E1.90292
G1 X132.796 Y85.025 E1.92001
G1 X133.658 Y85.797 E1.95849
G1 X134.191 Y86.285 E1.98253
G1 X134.671 Y86.752 E2.0048
G1 X134.994 Y87.09 E2.02035
G1 X135.23 Y87.347 E2.03196
G1 X136.106 Y88.316 E2.0754
G1 X136.544 Y88.812 E2.09741
G1 X136.953 Y89.303 E2.11867
G1 X137.263 Y89.702 E2.13547
G1 X137.482 Y89.997 E2.14769
G1 X138.248 Y91.047 E2.19092
G1 X138.665 Y91.636 E2.21492
G1 X138.991 Y92.123 E2.23442
G1 X139.073 Y92.253 E2.23953
G1 X139.228 Y92.507 E2.24943
G1 X139.447 Y92.877 E2.26373
G1 X140.062 Y93.937 E2.30449
G1 X140.437 Y94.605 E2.32996
G1 X140.746 Y95.197 E2.35218
G1 X140.914 Y95.549 E2.36515
G1 X141.113 Y95.983 E2.38103
G1 X141.586 Y97.044 E2.41966
G1 X141.88 Y97.726 E2.44437
G1 X142.099 Y98.274 E2.46399
G1 X142.182 Y98.499 E2.47197
G1 X142.277 Y98.766 E2.4814
G1 X142.388 Y99.097 E2.49301
G1 X142.788 Y100.324 E2.53593
G1 X143.005 Y101.021 E2.56021
G1 X143.174 Y101.623 E2.58101
G1 X143.216 Y101.791 E2.58677
G1 X143.284 Y102.083 E2.59674
G1 X143.375 Y102.493 E2.61071
G1 X143.628 Y103.683 E2.65117
G1 X143.768 Y104.382 E2.67488
G1 X143.876 Y105.022 E2.69647
G1 X143.936 Y105.469 E2.71147
G1 X143.976 Y105.814 E2.72302
G1 X144.123 Y107.218 E2.76998
G1 X144.18 Y107.854 E2.79121
G1 X144.218 Y108.461 E2.81144
G1 X144.23 Y108.913 E2.82648
G1 X144.235 Y109.386 E2.84221
G1 X144.234 Y110.608 E2.88286
G1 X144.224 Y111.306 E2.90608
G1 X144.196 Y111.942 E2.92725
G1 X144.162 Y112.391 E2.94223
G1 X144.124 Y112.794 E2.95569
G1 X144.005 Y113.915 E2.99318
G1 X143.903 Y114.766 E3.02169
G1 X143.814 Y115.367 E3.0419
G1 X143.779 Y115.565 E3.04859
G1 X143.727 Y115.838 E3.05783
G1 X143.636 Y116.285 E3.073
G1 X143.386 Y117.447 E3.11253
G1 X143.224 Y118.157 E3.13676
G1 X143.091 Y118.682 E3.15477
G1 X143.036 Y118.878 E3.16154
G1 X142.936 Y119.213 E3.17317
G1 X142.808 Y119.619 E3.18733
G1 X142.422 Y120.796 E3.22852
G1 X142.193 Y121.466 E3.25207
G1 X141.983 Y122.03 E3.27209
G1 X141.905 Y122.223 E3.27902
G1 X141.784 Y122.51 E3.28937
G1 X141.604 Y122.92 E3.30427
G1 X141.112 Y124.015 E3.3442
G1 X140.812 Y124.66 E3.36785
G1 X140.541 Y125.203 E3.38804
G1 X140.439 Y125.394 E3.39524
G1 X140.31 Y125.628 E3.40413
G1 X140.095 Y126.007 E3.41862
G1 X139.488 Y127.051 E3.45879
G1 X139.108 Y127.684 E3.48334
G1 X138.797 Y128.172 E3.50259
G1 X138.679 Y128.347 E3.50961
G1 X138.507 Y128.594 E3.51962
G1 X138.273 Y128.921 E3.53299
G1 X137.5 Y129.977 E3.57652
G1 X137.087 Y130.524 E3.59932
G1 X136.703 Y131.004 E3.61976
G1 X136.43 Y131.323 E3.63373
G1 X136.114 Y131.678 E3.64954
G1 X135.261 Y132.616 E3.6917
G1 X134.78 Y133.131 E3.71514
G1 X134.357 Y133.56 E3.73518
G1 X134.045 Y133.854 E3.74944
G1 X133.72 Y134.149 E3.76404
G1 X132.79 Y134.979 E3.8055
G1 X132.211 Y135.48 E3.83096
G1 X131.766 Y135.845 E3.85011
G1 X131.631 Y135.95 E3.85579
G1 X131.375 Y136.143 E3.86646
G1 X131.076 Y136.362 E3.87878
G1 X130.067 Y137.088 E3.92013
G1 X129.47 Y137.506 E3.94437
G1 X128.886 Y137.888 E3.96758
G1 X128.546 Y138.093 E3.98078
G1 X128.142 Y138.328 E3.99633
G1 X127.099 Y138.923 E4.03627
G1 X126.425 Y139.294 E4.06186
G1 X125.883 Y139.573 E4.08213
G1 X125.53 Y139.74 E4.09512
G1 X125.133 Y139.919 E4.1096
G1 X124.021 Y140.405 E4.14997
G1 X123.297 Y140.711 E4.17611
G1 X122.695 Y140.945 E4.19759
G1 X122.3 Y141.083 E4.21151
G1 X121.933 Y141.203 E4.22435
G1 X120.651 Y141.611 E4.2691
G1 X120.036 Y141.797 E4.29047
G1 X119.52 Y141.94 E4.30828
G1 X119.312 Y141.992 E4.31541
G1 X118.986 Y142.068 E4.32654
G1 X118.598 Y142.151 E4.33974
G1 X117.34 Y142.409 E4.38245
G1 X116.63 Y142.545 E4.40649
G1 X116.018 Y142.644 E4.42711
G1 X115.816 Y142.671 E4.43389
G1 X115.543 Y142.704 E4.44304
G1 X115.16 Y142.745 E4.45585
G1 X113.897 Y142.868 E4.49806
G1 X113.184 Y142.928 E4.52185
G1 X112.561 Y142.963 E4.54261
G1 X112.092 Y142.973 E4.55821
G1 X111.754 Y142.974 E4.56945
G1 X110.536 Y142.966 E4.60996
G1 X109.724 Y142.949 E4.63698
G1 X109.119 Y142.92 E4.65712
G1 X108.911 Y142.904 E4.66406
G1 X108.626 Y142.878 E4.67358
G1 X108.241 Y142.838 E4.68645
G1 X106.947 Y142.691 E4.72977
G1 X106.3 Y142.609 E4.75146
G1 X105.72 Y142.519 E4.77098
G1 X105.505 Y142.48 E4.77825
G1 X105.215 Y142.424 E4.78807
G1 X104.79 Y142.334 E4.80252
G1 X103.554 Y142.059 E4.84464
G1 X102.834 Y141.888 E4.86925
G1 X102.286 Y141.743 E4.8881
G1 X102.122 Y141.695 E4.89379
G1 X101.831 Y141.605 E4.90392
G1 X101.437 Y141.478 E4.91769
G1 X100.182 Y141.058 E4.9617
G1 X99.598 Y140.854 E4.98228
G1 X98.992 Y140.621 E5.00387
G1 X98.574 Y140.445 E5.01896
G1 X98.144 Y140.253 E5.03462
G1 X97.029 Y139.743 E5.0754
G1 X96.38 Y139.435 E5.0993
G1 X95.849 Y139.165 E5.11911
G1 X95.436 Y138.937 E5.1348
G1 X94.898 Y138.626 E5.15547
G1 X94.8 Y138.577 E5.15911
G1 X93.182 Y137.651 E5.22112
G1 X90.952 Y136.458 E5.30523
G1 X88.721 Y135.343 E5.38819
G1 X86.463 Y134.294 E5.471
G1 X84.065 Y133.262 E5.55783
G1 X82.791 Y132.749 E5.60351
G1 X82.397 Y132.582 E5.61774
G1 X82.27 Y132.525 E5.62237
G1 X81.431 Y132.104 E5.65359
G1 X80.632 Y131.614 E5.68477
G1 X79.877 Y131.058 E5.71595
G1 X79.172 Y130.439 E5.74716
G1 X78.522 Y129.763 E5.77835
G1 X77.933 Y129.033 E5.80955
G1 X77.407 Y128.257 E5.84073
G1 X76.95 Y127.438 E5.87192
G1 X76.564 Y126.583 E5.90312
G1 X76.253 Y125.698 E5.93432
G1 X76.017 Y124.79 E5.96552
G1 X75.86 Y123.866 E5.9967
G1 X75.78 Y122.848 E6.03066
G1 X75.772 Y122.531 E6.04121
G1 X75.765 Y121.903 E6.0621
G1 X75.766 Y116.524 E6.241
G1 X75.776 Y115.84 E6.26375
G1 X75.785 Y115.531 E6.27404
G1 X75.842 Y114.234 E6.31722
G1 X75.874 Y113.669 E6.33604
G1 X75.943 Y111.139 E6.42022
G1 X75.941 Y108.666 E6.50247
G1 X75.794 Y104.656 E6.63593
G1 X75.78 Y104.334 E6.64665
G1 X75.77 Y103.988 E6.65817
G1 X75.765 Y103.67 E6.66874
G1 X75.766 Y98.039 E6.85603
G1 X75.776 Y97.349 E6.87898
G1 X75.83 Y96.412 E6.9102
G1 X75.963 Y95.484 E6.94138
G1 X76.175 Y94.57 E6.97259
G1 X76.463 Y93.678 E7.00376
G1 X76.827 Y92.813 E7.03498
G1 X77.263 Y91.983 E7.06616
G1 X77.768 Y91.193 E7.09735
G1 X78.339 Y90.449 E7.12854
G1 X78.971 Y89.756 E7.15973
G1 X79.66 Y89.119 E7.19094
G0 F6000 X80.048 Y89.316
G1 F600 X80.784 Y88.763 E7.22156
G1 X81.566 Y88.276 E7.2522
G1 X82.659 Y87.74 E7.29269
G1 X83.444 Y87.41 E7.32101
G1 X84.735 Y86.889 E7.36732
G1 X87.044 Y85.881 E7.45112
G1 X89.327 Y84.805 E7.53506
G1 X91.55 Y83.68 E7.61793
G1 X93.85 Y82.435 E7.70491
G1 X94.634 Y81.984 E7.73499
G1 X95.87 Y81.282 E7.78227
G1 X96.345 Y81.028 E7.80019
G1 X96.534 Y80.933 E7.80722
G1 X96.781 Y80.813 E7.81636
G1 X97.138 Y80.646 E7.82947
G1 X98.329 Y80.104 E7.87299
G1 X98.933 Y79.839 E7.89492
G1 X99.46 Y79.625 E7.91384
G1 X99.67 Y79.546 E7.92131
G1 X99.941 Y79.448 E7.93089
G1 X100.314 Y79.32 E7.94401
G1 X101.569 Y78.901 E7.98801
G1 X102.165 Y78.711 E8.00882
G1 X102.791 Y78.532 E8.03047
G1 X103.183 Y78.435 E8.04391
G1 X103.62 Y78.334 E8.05882
G1 X104.802 Y78.074 E8.09908
G1 X105.52 Y77.926 E8.12346
G1 X106.116 Y77.821 E8.14359
G1 X106.559 Y77.759 E8.15847
G1 X106.972 Y77.708 E8.17231
G1 X108.093 Y77.581 E8.20983
G1 X108.93 Y77.499 E8.2378
G1 X109.524 Y77.458 E8.2576
G1 X109.976 Y77.442 E8.27265
G1 X110.318 Y77.436 E8.28402
G1 X111.673 Y77.428 E8.32909
G1 X112.34 Y77.433 E8.35128
G1 X112.945 Y77.455 E8.37141
G1 X113.395 Y77.487 E8.38642
G1 X113.817 Y77.525 E8.40051
G1 X115.045 Y77.647 E8.44156
G1 X115.754 Y77.727 E8.46529
G1 X116.341 Y77.81 E8.485
G1 X116.594 Y77.853 E8.49354
G1 X116.945 Y77.919 E8.50542
G1 X118.452 Y78.229 E8.55659
G1 X119.14 Y78.382 E8.58003
G1 X119.671 Y78.514 E8.59823
G1 X119.873 Y78.57 E8.6052
G1 X120.168 Y78.657 E8.61543
G1 X120.477 Y78.753 E8.6262
G1 X121.744 Y79.157 E8.67043
G1 X122.41 Y79.38 E8.69379
G1 X122.95 Y79.578 E8.71292
G1 X123.384 Y79.754 E8.72849
G1 X123.804 Y79.935 E8.7437
G1 X124.921 Y80.427 E8.7843
G1 X125.555 Y80.716 E8.80747
G1 X126.133 Y81.001 E8.82891
G1 X126.499 Y81.198 E8.84273
G1 X126.819 Y81.376 E8.85491
G1 X127.768 Y81.918 E8.89126
G1 X128.558 Y82.384 E8.92177
G1 X129.035 Y82.682 E8.94047
G1 X129.169 Y82.771 E8.94582
G1 X129.398 Y82.928 E8.95506
G1 X129.81 Y83.218 E8.97182
G1 X130.798 Y83.932 E9.01236
G1 X131.347 Y84.339 E9.03509
G1 X131.82 Y84.711 E9.05511
G1 X132.146 Y84.987 E9.06931
G1 X132.529 Y85.323 E9.08626
G1 X133.388 Y86.092 E9.1246
G1 X133.921 Y86.58 E9.14864
G1 X134.383 Y87.03 E9.17009
G1 X134.7 Y87.361 E9.18533
G1 X134.934 Y87.615 E9.19682
G1 X135.719 Y88.482 E9.23572
G1 X136.244 Y89.077 E9.26211
G1 X136.638 Y89.55 E9.28259
G1 X136.942 Y89.942 E9.29909
G1 X137.159 Y90.233 E9.31116
G1 X137.921 Y91.278 E9.35418
G1 X138.338 Y91.867 E9.37818
G1 X138.652 Y92.337 E9.39698
G1 X138.884 Y92.711 E9.41162
G1 X139.101 Y93.078 E9.4258
G1 X139.713 Y94.133 E9.46636
G1 X140.088 Y94.801 E9.49184
G1 X140.386 Y95.371 E9.51324
G1 X140.551 Y95.716 E9.52596
G1 X140.748 Y96.147 E9.54172
G1 X141.219 Y97.203 E9.58018
G1 X141.513 Y97.885 E9.60488
G1 X141.724 Y98.412 E9.62376
G1 X141.807 Y98.637 E9.63173
G1 X141.967 Y99.098 E9.64796
G1 X142.406 Y100.443 E9.69502
G1 X142.623 Y101.14 E9.7193
G1 X142.786 Y101.72 E9.73934
G1 X142.828 Y101.888 E9.7451
G1 X142.894 Y102.17 E9.75473
G1 X142.983 Y102.576 E9.76856
G1 X143.236 Y103.761 E9.80886
G1 X143.376 Y104.46 E9.83257
G1 X143.48 Y105.077 E9.85338
G1 X143.539 Y105.516 E9.86811
G1 X143.578 Y105.856 E9.8795
G1 X143.725 Y107.254 E9.92625
G1 X143.782 Y107.89 E9.94749
G1 X143.818 Y108.474 E9.96695
G1 X143.83 Y108.918 E9.98172
G1 X143.835 Y109.386 E9.99729
G1 X143.834 Y110.602 E10.03773
G1 X143.824 Y111.3 E10.06095
G1 X143.797 Y111.913 E10.08136
G1 X143.763 Y112.354 E10.09607
G1 X143.726 Y112.752 E10.10936
G1 X143.59 Y114.021 E10.15181
G1 X143.506 Y114.719 E10.1752
G1 X143.42 Y115.297 E10.19463
G1 X143.335 Y115.759 E10.21026
G1 X143.245 Y116.201 E10.22526
G1 X142.996 Y117.358 E10.26462
G1 X142.834 Y118.068 E10.28884
G1 X142.706 Y118.574 E10.3062
G1 X142.651 Y118.77 E10.31297
G1 X142.555 Y119.093 E10.32418
G1 X142.427 Y119.495 E10.33821
G1 X142.043 Y120.666 E10.3792
G1 X141.814 Y121.336 E10.40275
G1 X141.612 Y121.88 E10.42205
G1 X141.534 Y122.073 E10.42898
G1 X141.417 Y122.35 E10.43898
G1 X141.239 Y122.756 E10.45372
G1 X140.749 Y123.846 E10.49347
G1 X140.449 Y124.491 E10.51713
G1 X140.188 Y125.014 E10.53657
G1 X139.962 Y125.431 E10.55235
G1 X139.749 Y125.806 E10.56669
G1 X139.145 Y126.845 E10.60666
G1 X138.765 Y127.478 E10.63122
G1 X138.466 Y127.948 E10.64975
G1 X138.348 Y128.123 E10.65677
G1 X138.182 Y128.362 E10.66644
G1 X137.95 Y128.685 E10.67967
G1 X137.181 Y129.736 E10.72299
G1 X136.768 Y130.283 E10.74578
G1 X136.398 Y130.746 E10.76549
G1 X136.13 Y131.058 E10.77917
G1 X135.818 Y131.409 E10.79479
G1 X134.969 Y132.343 E10.83678
G1 X134.488 Y132.858 E10.86021
G1 X134.08 Y133.271 E10.87952
G1 X133.775 Y133.559 E10.89347
G1 X133.453 Y133.851 E10.90793
G1 X132.528 Y134.677 E10.94918
G1 X131.949 Y135.178 E10.97464
G1 X131.521 Y135.529 E10.99306
G1 X131.386 Y135.634 E10.99874
G1 X131.139 Y135.821 E11.00905
G1 X130.842 Y136.038 E11.02128
G1 X129.838 Y136.76 E11.06241
G1 X129.241 Y137.178 E11.08665
G1 X128.678 Y137.546 E11.10902
G1 X128.344 Y137.748 E11.12201
G1 X127.944 Y137.981 E11.1374
G1 X126.907 Y138.572 E11.1771
G1 X126.233 Y138.943 E11.20269
G1 X125.71 Y139.212 E11.22225
G1 X125.364 Y139.376 E11.23499
G1 X124.973 Y139.553 E11.24926
G1 X123.866 Y140.037 E11.28945
G1 X123.142 Y140.343 E11.31559
G1 X122.561 Y140.568 E11.33631
G1 X122.175 Y140.703 E11.34991
G1 X121.811 Y140.822 E11.36265
G1 X120.536 Y141.228 E11.40715
G1 X119.921 Y141.414 E11.42852
G1 X119.423 Y141.552 E11.44571
G1 X119.215 Y141.604 E11.45284
G1 X118.901 Y141.677 E11.46357
G1 X118.518 Y141.76 E11.4766
G1 X117.265 Y142.016 E11.51914
G1 X116.555 Y142.152 E11.54318
G1 X115.965 Y142.248 E11.56306
G1 X115.763 Y142.275 E11.56984
G1 X115.223 Y142.336 E11.58791
G1 X114.014 Y142.456 E11.62832
G1 X113.151 Y142.53 E11.65713
G1 X112.55 Y142.563 E11.67715
G1 X112.09 Y142.573 E11.69245
G1 X111.756 Y142.574 E11.70356
G1 X110.378 Y142.564 E11.7494
G1 X109.733 Y142.55 E11.77086
G1 X109.15 Y142.521 E11.79027
G1 X108.942 Y142.505 E11.79721
G1 X108.667 Y142.48 E11.80639
G1 X108.286 Y142.44 E11.81913
G1 X106.997 Y142.294 E11.86228
G1 X106.35 Y142.212 E11.88397
G1 X105.791 Y142.126 E11.90278
G1 X105.576 Y142.087 E11.91005
G1 X105.296 Y142.032 E11.91954
G1 X104.877 Y141.944 E11.93378
G1 X103.806 Y141.707 E11.97027
G1 X102.927 Y141.499 E12.00031
G1 X102.398 Y141.359 E12.01851
G1 X102.234 Y141.311 E12.02419
G1 X101.954 Y141.225 E12.03393
G1 X101.564 Y141.098 E12.04758
G1 X100.314 Y140.68 E12.09141
G1 X99.73 Y140.476 E12.11199
G1 X99.146 Y140.252 E12.13279
G1 X98.736 Y140.079 E12.14759
G1 X98.31 Y139.889 E12.16311
G1 X97.2 Y139.381 E12.20371
G1 X96.551 Y139.073 E12.2276
G1 X96.04 Y138.814 E12.24666
G1 X95.876 Y138.725 E12.25286
G1 X95.636 Y138.59 E12.26202
G1 X95.122 Y138.294 E12.28175
G1 X94.999 Y138.229 E12.28638
G1 X93.404 Y137.316 E12.3475
G1 X91.126 Y136.098 E12.43342
G1 X88.903 Y134.987 E12.51608
G1 X86.598 Y133.916 E12.60061
G1 X84.247 Y132.904 E12.68574
G1 X82.941 Y132.378 E12.73257
G1 X82.561 Y132.217 E12.7463
G1 X82.434 Y132.16 E12.75093
G1 X81.611 Y131.747 E12.78156
G1 X80.827 Y131.264 E12.81218
