;FLAVOR:Marlin
;TIME:7239
;Filament used: 3.19902m
;Layer height: 0.15
;MINX:69.348
;MINY:79
;MINZ:0.2
;MAXX:152.499
;MAXY:137.99
;MAXZ:24.35
;Generated with Cura_SteamEngine 4.8.0
M140 S60
M105
M190 S60
M104 S210
M105
M109 S210
M82 ;absolute extrusion mode
M201 X500.00 Y500.00 Z100.00 E5000.00 ;Setup machine max acceleration
M203 X500.00 Y500.00 Z10.00 E50.00 ;Setup machine max feedrate
M204 P500.00 R1000.00 T500.00 ;Setup Print/Retract/Travel acceleration
M205 X8.00 Y8.00 Z0.40 E5.00 ;Setup Jerk
M220 S100 ;Reset Feedrate
M221 S100 ;Reset Flowrate

G28 ;Home
G29 ;Auto Bed Leveling
M420 S1 Z2 ;Enable ABL using saved Mesh and Fade Height

G92 E0 ;Reset Extruder
G1 Z2.0 F3000 ;Move Z Axis up
G1 X10.1 Y20 Z0.28 F5000.0 ;Move to start position
G1 X10.1 Y200.0 Z0.28 F1500.0 E15 ;Draw the first line
G1 X10.4 Y200.0 Z0.28 F5000.0 ;Move to side a little
G1 X10.4 Y20 Z0.28 F1500.0 E30 ;Draw the second line
G92 E0 ;Reset Extruder
G1 Z2.0 F3000 ;Move Z Axis up
G92 E0
G92 E0
G1 F2700 E-5
;LAYER_COUNT:162
;LAYER:0
M107
G0 F6000 X73.385 Y90.096 Z0.2
;TYPE:SKIRT
G1 F2700 E0
G1 F600 X74.504 Y89.268 E0.0463
G1 X75.387 Y88.699 E0.08124
G1 X76.157 Y88.217 E0.11145
G1 X78.251 Y86.821 E0.19516
G1 X80.323 Y85.353 E0.27961
G1 X82.318 Y83.855 E0.36259
G1 X84.396 Y82.201 E0.45093
G1 X85.256 Y81.497 E0.48789
G1 X86.006 Y80.934 E0.51908
G1 X86.802 Y80.438 E0.55028
G1 X87.637 Y80.011 E0.58147
G1 X88.506 Y79.657 E0.61268
G1 X89.401 Y79.378 E0.64386
G1 X90.317 Y79.176 E0.67506
G1 X91.247 Y79.053 E0.70626
G1 X91.851 Y79.016 E0.72639
G1 X92.236 Y79.006 E0.7392
G1 X92.779 Y79 E0.75726
G1 X135.674 Y79 E2.18395
G1 X136.613 Y79.012 E2.21519
G1 X136.915 Y79.02 E2.22523
G1 X137.132 Y79.029 E2.23246
G1 X137.426 Y79.046 E2.24225
G1 X137.865 Y79.076 E2.25689
G1 X139.083 Y79.227 E2.29771
G1 X139.391 Y79.283 E2.30812
G1 X139.779 Y79.361 E2.32128
G1 X140.007 Y79.411 E2.32905
G1 X141.192 Y79.742 E2.36997
G1 X141.939 Y79.996 E2.39621
G1 X142.312 Y80.13 E2.40939
G1 X142.53 Y80.213 E2.41715
G1 X143.391 Y80.584 E2.44833
G1 X143.99 Y80.895 E2.47078
G1 X144.583 Y81.227 E2.49339
G1 X145.381 Y81.72 E2.52459
G1 X146.409 Y82.509 E2.56769
G1 X146.655 Y82.722 E2.57851
G1 X147.338 Y83.366 E2.60973
G1 X147.962 Y84.065 E2.6409
G1 X148.526 Y84.815 E2.67211
G1 X149.023 Y85.61 E2.70329
G1 X149.45 Y86.445 E2.73448
G1 X149.805 Y87.313 E2.76568
G1 X150.085 Y88.208 E2.79687
G1 X150.287 Y89.124 E2.82806
G1 X150.411 Y90.054 E2.85927
G1 X150.45 Y90.696 E2.88066
G1 X150.459 Y90.985 E2.89028
G1 X150.464 Y91.289 E2.90039
G1 X150.466 Y91.923 E2.92148
G1 X150.463 Y94.689 E3.01348
G1 X150.497 Y97.263 E3.0991
G1 X150.603 Y99.819 E3.18418
G1 X150.774 Y102.279 E3.2662
G1 X151.024 Y104.829 E3.35142
G1 X151.34 Y107.308 E3.43454
G1 X151.723 Y109.77 E3.51741
G1 X152.06 Y111.546 E3.57753
G1 X152.312 Y112.929 E3.62429
G1 X152.44 Y113.858 E3.65548
G1 X152.48 Y114.437 E3.67478
G1 X152.492 Y114.849 E3.68849
G1 X152.499 Y115.522 E3.71088
G1 X152.494 Y119.156 E3.83174
G1 X152.48 Y120.035 E3.86098
G1 X152.425 Y120.971 E3.89217
G1 X152.289 Y121.899 E3.92336
G1 X151.997 Y123.079 E3.9638
G1 X151.636 Y124.252 E4.00462
G1 X150.899 Y126.776 E4.09207
G1 X150.307 Y129.03 E4.16958
G1 X150.243 Y129.26 E4.17752
G1 X149.954 Y130.152 E4.20871
G1 X149.717 Y130.736 E4.22967
G1 X149.688 Y130.802 E4.23207
G1 X149.274 Y131.644 E4.26327
G1 X148.79 Y132.447 E4.29446
G1 X148.24 Y133.207 E4.32566
G1 X147.627 Y133.916 E4.35683
G1 X147.239 Y134.309 E4.3752
G1 X146.983 Y134.555 E4.38701
G1 X146.279 Y135.175 E4.41821
G1 X145.526 Y135.733 E4.44938
G1 X144.727 Y136.225 E4.48059
G1 X143.89 Y136.647 E4.51177
G1 X143.019 Y136.997 E4.54299
G1 X142.096 Y137.278 E4.57508
G1 X141.654 Y137.389 E4.59024
G1 X140.921 Y137.564 E4.6153
G1 X140.24 Y137.719 E4.63853
G1 X139.459 Y137.867 E4.66497
G1 X138.526 Y137.97 E4.69619
G1 X137.448 Y137.99 E4.73205
G1 X135.835 Y137.94 E4.78573
G1 X135.365 Y137.927 E4.80137
G1 X134.891 Y137.908 E4.81714
G1 X132.632 Y137.88 E4.89228
G1 X117.159 Y137.879 E5.40692
G1 X116.454 Y137.868 E5.43037
G1 X115.518 Y137.813 E5.46155
G1 X114.59 Y137.679 E5.49274
G1 X113.676 Y137.466 E5.52395
G1 X112.784 Y137.176 E5.55515
G1 X111.92 Y136.812 E5.58633
G1 X111.131 Y136.398 E5.61597
G1 X110.054 Y135.777 E5.65732
G1 X109.959 Y135.729 E5.66086
G1 X108.22 Y134.742 E5.72736
G1 X105.998 Y133.563 E5.81103
G1 X103.734 Y132.443 E5.89504
G1 X101.459 Y131.396 E5.97833
G1 X99.123 Y130.4 E6.0628
G1 X96.766 Y129.472 E6.14705
G1 X94.442 Y128.634 E6.22922
G1 X92.022 Y127.837 E6.31396
G1 X89.624 Y127.122 E6.39719
G1 X87.217 Y126.477 E6.48007
G1 X84.745 Y125.89 E6.56457
G1 X82.23 Y125.366 E6.65002
G1 X80.604 Y125.07 E6.70499
G1 X80.315 Y125.013 E6.71479
G1 X78.925 Y124.721 E6.76203
G1 X78.659 Y124.662 E6.77109
G1 X78.21 Y124.556 E6.78643
G1 X77.307 Y124.302 E6.81763
G1 X76.429 Y123.971 E6.84884
G1 X75.793 Y123.676 E6.87216
G1 X75.634 Y123.596 E6.87808
G1 X74.815 Y123.139 E6.90927
G1 X74.038 Y122.614 E6.94046
G1 X73.083 Y121.822 E6.98173
G1 X72.895 Y121.647 E6.99027
G1 X72.237 Y120.979 E7.02146
G1 X71.637 Y120.257 E7.05268
G1 X71.102 Y119.488 E7.08384
G1 X70.633 Y118.675 E7.11506
G1 X70.232 Y117.816 E7.14659
G1 X70.2 Y117.739 E7.14936
G1 X69.878 Y116.859 E7.18053
G1 X69.631 Y115.954 E7.21173
G1 X69.463 Y115.031 E7.24293
G1 X69.364 Y113.895 E7.28086
G1 X69.357 Y113.691 E7.28765
G1 X69.351 Y113.414 E7.29686
G1 X69.348 Y113.085 E7.30781
G1 X69.349 Y99.143 E7.77152
G1 X69.359 Y98.461 E7.7942
G1 X69.413 Y97.524 E7.82542
G1 X69.546 Y96.596 E7.8566
G1 X69.758 Y95.682 E7.88781
G1 X70.047 Y94.79 E7.91899
G1 X70.411 Y93.926 E7.95018
G1 X70.847 Y93.096 E7.98136
G1 X71.352 Y92.305 E8.01257
G1 X71.923 Y91.561 E8.04377
G1 X72.58 Y90.844 E8.07611
G1 X72.694 Y90.73 E8.08147
G1 X73.385 Y90.096 E8.11267
G0 F6000 X73.655 Y90.391
G1 F600 X74.721 Y89.604 E8.15674
G1 X75.599 Y89.038 E8.19148
G1 X76.385 Y88.545 E8.22234
G1 X78.475 Y87.152 E8.30588
G1 X80.555 Y85.679 E8.39065
G1 X82.579 Y84.16 E8.47482
G1 X84.575 Y82.57 E8.55969
G1 X85.509 Y81.806 E8.59983
G1 X86.246 Y81.255 E8.63043
G1 X87.029 Y80.769 E8.66109
G1 X87.85 Y80.354 E8.69168
G1 X88.704 Y80.011 E8.72229
G1 X89.585 Y79.743 E8.75292
G1 X90.486 Y79.553 E8.78355
G1 X91.4 Y79.442 E8.81417
G1 X91.864 Y79.416 E8.82963
G1 X92.24 Y79.406 E8.84214
G1 X92.779 Y79.4 E8.86007
G1 X135.674 Y79.4 E10.28676
G1 X136.608 Y79.412 E10.31783
G1 X136.898 Y79.42 E10.32748
G1 X137.115 Y79.429 E10.3347
G1 X137.399 Y79.445 E10.34416
G1 X137.838 Y79.475 E10.3588
G1 X139.011 Y79.621 E10.39811
G1 X139.319 Y79.677 E10.40852
G1 X139.694 Y79.752 E10.42124
G1 X139.922 Y79.802 E10.42901
G1 X141.063 Y80.12 E10.4684
G1 X141.81 Y80.374 E10.49464
G1 X142.17 Y80.504 E10.50737
G1 X142.388 Y80.587 E10.51513
G1 X143.233 Y80.951 E10.54573
G1 X143.794 Y81.244 E10.56679
G1 X144.387 Y81.576 E10.58939
G1 X145.17 Y82.06 E10.62001
G1 X146.148 Y82.811 E10.66102
G1 X146.394 Y83.024 E10.67184
G1 X147.063 Y83.657 E10.70247
G1 X147.675 Y84.345 E10.7331
G1 X148.224 Y85.083 E10.76369
G1 X148.708 Y85.867 E10.79434
G1 X149.122 Y86.689 E10.82495
G1 X149.463 Y87.544 E10.85556
G1 X149.728 Y88.426 E10.8862
G1 X149.916 Y89.327 E10.91681
G1 X150.025 Y90.241 E10.94742
G1 X150.05 Y90.708 E10.96298
G1 X150.059 Y90.997 E10.9726
G1 X150.064 Y91.291 E10.98238
G1 X150.066 Y91.922 E11.00336
G1 X150.063 Y94.694 E11.09556
G1 X150.097 Y97.285 E11.18174
G1 X150.202 Y99.828 E11.2664
G1 X150.378 Y102.346 E11.35035
G1 X150.623 Y104.848 E11.43396
G1 X150.941 Y107.348 E11.51779
G1 X151.331 Y109.85 E11.60201
G1 X151.666 Y111.618 E11.66186
G1 X151.918 Y113.001 E11.70861
G1 X152.044 Y113.913 E11.73923
G1 X152.081 Y114.454 E11.75727
G1 X152.092 Y114.853 E11.77055
G1 X152.099 Y115.522 E11.7928
G1 X152.094 Y119.156 E11.91367
G1 X152.08 Y120.028 E11.94267
G1 X152.025 Y120.947 E11.97329
G1 X151.89 Y121.858 E12.00392
G1 X151.614 Y122.961 E12.04174
G1 X151.271 Y124.076 E12.08054
G1 X150.516 Y126.658 E12.17001
G1 X149.922 Y128.923 E12.2479
G1 X149.858 Y129.153 E12.25584
G1 X149.573 Y130.028 E12.28644
G1 X149.351 Y130.575 E12.30608
G1 X149.322 Y130.641 E12.30848
G1 X148.915 Y131.467 E12.3391
G1 X148.438 Y132.255 E12.36974
G1 X147.895 Y132.998 E12.40035
G1 X147.289 Y133.691 E12.43097
G1 X146.962 Y134.02 E12.4464
G1 X146.706 Y134.266 E12.4582
G1 X146.015 Y134.875 E12.48884
G1 X145.274 Y135.421 E12.51945
G1 X144.488 Y135.901 E12.55008
G1 X143.663 Y136.311 E12.58073
G1 X142.807 Y136.647 E12.61131
G1 X141.997 Y136.89 E12.63944
G1 X141.561 Y137 E12.65439
G1 X140.832 Y137.174 E12.67932
G1 X140.151 Y137.329 E12.70255
G1 X139.398 Y137.472 E12.72804
G1 X138.483 Y137.572 E12.75866
G1 X137.46 Y137.59 E12.79269
G1 X135.381 Y137.528 E12.86187
G1 X134.875 Y137.508 E12.87871
G1 X132.637 Y137.48 E12.95315
G1 X117.166 Y137.479 E13.46772
G1 X116.461 Y137.468 E13.49117
G1 X115.542 Y137.413 E13.52179
G1 X114.631 Y137.28 E13.55241
G1 X113.735 Y137.067 E13.58304
G1 X112.861 Y136.778 E13.61366
G1 X112.015 Y136.414 E13.64429
G1 X111.331 Y136.052 E13.67003
G1 X110.267 Y135.438 E13.71089
G1 X110.157 Y135.381 E13.71501
G1 X108.399 Y134.383 E13.78225
G1 X106.198 Y133.215 E13.86512
G1 X103.915 Y132.086 E13.94983
G1 X101.618 Y131.028 E14.03395
G1 X99.29 Y130.036 E14.11811
G1 X96.9 Y129.095 E14.20354
G1 X94.566 Y128.253 E14.28607
G1 X92.156 Y127.46 E14.37046
G1 X89.727 Y126.736 E14.45476
G1 X87.283 Y126.081 E14.53891
G1 X84.84 Y125.501 E14.62243
G1 X82.306 Y124.973 E14.70852
G1 X80.676 Y124.676 E14.76362
G1 X80.397 Y124.622 E14.77308
G1 X79.007 Y124.33 E14.82032
G1 X78.75 Y124.272 E14.82908
G1 X78.301 Y124.166 E14.84442
G1 X77.416 Y123.916 E14.87501
G1 X76.555 Y123.59 E14.90563
G1 X75.973 Y123.319 E14.92698
G1 X75.814 Y123.239 E14.9329
G1 X75.01 Y122.79 E14.96353
G1 X74.248 Y122.273 E14.99416
G1 X73.356 Y121.529 E15.03279
G1 X73.168 Y121.354 E15.04134
G1 X72.522 Y120.698 E15.07196
G1 X71.935 Y119.988 E15.1026
G1 X71.412 Y119.231 E15.1332
G1 X70.957 Y118.43 E15.16384
G1 X70.602 Y117.663 E15.19195
G1 X70.57 Y117.586 E15.19472
G1 X70.254 Y116.721 E15.22535
G1 X70.014 Y115.832 E15.25598
G1 X69.852 Y114.926 E15.28659
G1 X69.764 Y113.882 E15.32144
G1 X69.751 Y113.411 E15.33711
G1 X69.748 Y113.082 E15.34805
G1 X69.749 Y99.149 E15.81147
G1 X69.759 Y98.467 E15.83415
G1 X69.813 Y97.547 E15.86481
G1 X69.946 Y96.637 E15.89539
G1 X70.157 Y95.74 E15.92604
G1 X70.446 Y94.866 E15.95666
G1 X70.809 Y94.02 E15.98728
G1 X71.244 Y93.209 E16.01789
G1 X71.748 Y92.439 E16.0485
G1 X72.317 Y91.715 E16.07912
G1 X72.863 Y91.127 E16.10581
G1 X72.977 Y91.013 E16.11117
G1 X73.655 Y90.391 E16.14178
G0 F6000 X73.926 Y90.686
G1 F600 X74.938 Y89.94 E16.18359
G1 X75.811 Y89.377 E16.21814
G1 X76.614 Y88.874 E16.24966
G1 X78.706 Y87.479 E16.33329
G1 X80.798 Y85.998 E16.41854
G1 X82.807 Y84.49 E16.50209
G1 X84.874 Y82.843 E16.58999
G1 X85.763 Y82.116 E16.62819
G1 X86.486 Y81.576 E16.6582
G1 X87.255 Y81.101 E16.68827
G1 X88.062 Y80.697 E16.71828
G1 X88.902 Y80.365 E16.74833
G1 X89.768 Y80.11 E16.77835
G1 X90.654 Y79.931 E16.80842
G1 X91.878 Y79.816 E16.8493
G1 X92.245 Y79.806 E16.86152
G1 X92.779 Y79.8 E16.87928
G1 X135.674 Y79.8 E18.30597
G1 X136.602 Y79.812 E18.33684
G1 X136.882 Y79.82 E18.34616
G1 X137.099 Y79.829 E18.35338
G1 X137.371 Y79.844 E18.36244
G1 X137.81 Y79.874 E18.37708
G1 X138.94 Y80.015 E18.41495
G1 X139.248 Y80.071 E18.42536
G1 X139.608 Y80.143 E18.43757
G1 X139.836 Y80.193 E18.44534
G1 X140.935 Y80.499 E18.48328
G1 X141.682 Y80.753 E18.50952
G1 X142.027 Y80.878 E18.52173
G1 X142.245 Y80.961 E18.52949
G1 X143.074 Y81.319 E18.55952
G1 X143.599 Y81.593 E18.57922
G1 X144.192 Y81.925 E18.60182
G1 X144.96 Y82.401 E18.63187
G1 X145.886 Y83.114 E18.67074
G1 X146.132 Y83.327 E18.68157
G1 X146.788 Y83.948 E18.71161
G1 X147.386 Y84.624 E18.74163
G1 X147.922 Y85.351 E18.77167
G1 X148.392 Y86.122 E18.8017
G1 X148.792 Y86.932 E18.83175
G1 X149.119 Y87.774 E18.86179
G1 X149.369 Y88.641 E18.8918
G1 X149.543 Y89.528 E18.92187
G1 X149.65 Y90.721 E18.96171
G1 X149.659 Y91.01 E18.97132
G1 X149.664 Y91.292 E18.9807
G1 X149.666 Y91.922 E19.00166
G1 X149.663 Y94.699 E19.09402
G1 X149.697 Y97.306 E19.18074
G1 X149.802 Y99.836 E19.26496
G1 X149.979 Y102.379 E19.34974
G1 X150.227 Y104.905 E19.43416
G1 X150.543 Y107.389 E19.51745
G1 X150.937 Y109.921 E19.60268
G1 X151.273 Y111.69 E19.66256
G1 X151.525 Y113.073 E19.70932
G1 X151.647 Y113.967 E19.73933
G1 X151.681 Y114.47 E19.7561
G1 X151.692 Y114.858 E19.76901
G1 X151.699 Y115.521 E19.79106
G1 X151.693 Y119.314 E19.91722
G1 X151.681 Y120.021 E19.94074
G1 X151.625 Y120.923 E19.97079
G1 X151.49 Y121.816 E20.00083
G1 X151.232 Y122.844 E20.03608
G1 X150.87 Y124.022 E20.07707
G1 X150.128 Y126.558 E20.16496
G1 X149.537 Y128.815 E20.24256
G1 X149.473 Y129.045 E20.2505
G1 X149.192 Y129.904 E20.28056
G1 X148.984 Y130.414 E20.29888
G1 X148.955 Y130.48 E20.30127
G1 X148.556 Y131.29 E20.33131
G1 X148.086 Y132.062 E20.36137
G1 X147.55 Y132.788 E20.39138
G1 X146.684 Y133.732 E20.43399
G1 X146.428 Y133.978 E20.4458
G1 X145.75 Y134.574 E20.47582
G1 X145.022 Y135.108 E20.50585
G1 X144.249 Y135.575 E20.53589
G1 X143.438 Y135.973 E20.56594
G1 X142.595 Y136.297 E20.59597
G1 X141.897 Y136.503 E20.62018
G1 X141.468 Y136.611 E20.63489
G1 X140.744 Y136.784 E20.65965
G1 X140.063 Y136.939 E20.68288
G1 X139.337 Y137.076 E20.70745
G1 X138.439 Y137.174 E20.7375
G1 X137.473 Y137.19 E20.76963
G1 X135.878 Y137.141 E20.82271
G1 X135.396 Y137.128 E20.83875
G1 X134.895 Y137.108 E20.85542
G1 X132.642 Y137.08 E20.93036
G1 X117.172 Y137.079 E21.4449
G1 X116.467 Y137.068 E21.46835
G1 X115.565 Y137.014 E21.4984
G1 X114.672 Y136.88 E21.52844
G1 X113.794 Y136.668 E21.55848
G1 X112.939 Y136.379 E21.5885
G1 X112.112 Y136.016 E21.61854
G1 X111.531 Y135.705 E21.64045
G1 X110.427 Y135.069 E21.68283
G1 X110.354 Y135.033 E21.68554
G1 X108.605 Y134.04 E21.75243
G1 X106.384 Y132.861 E21.83607
G1 X104.08 Y131.722 E21.92155
G1 X101.776 Y130.661 E22.00592
G1 X99.432 Y129.662 E22.09066
G1 X97.057 Y128.727 E22.17556
G1 X94.678 Y127.869 E22.25967
G1 X92.28 Y127.08 E22.34364
G1 X89.849 Y126.355 E22.42801
G1 X87.374 Y125.692 E22.51323
G1 X84.942 Y125.114 E22.59637
G1 X82.38 Y124.581 E22.68341
G1 X80.747 Y124.283 E22.73862
G1 X80.479 Y124.23 E22.74771
G1 X79.089 Y123.938 E22.79495
G1 X78.842 Y123.883 E22.80336
G1 X78.393 Y123.777 E22.81871
G1 X77.525 Y123.531 E22.84872
G1 X76.681 Y123.209 E22.87876
G1 X76.153 Y122.962 E22.89815
G1 X75.994 Y122.882 E22.90407
G1 X75.206 Y122.44 E22.93412
G1 X74.46 Y121.931 E22.96416
G1 X73.628 Y121.236 E23.00021
G1 X73.44 Y121.061 E23.00876
G1 X72.807 Y120.417 E23.03879
G1 X72.233 Y119.72 E23.06882
G1 X71.724 Y118.974 E23.09886
G1 X71.282 Y118.186 E23.12891
G1 X70.971 Y117.509 E23.15369
G1 X70.939 Y117.432 E23.15646
G1 X70.63 Y116.584 E23.18648
G1 X70.397 Y115.711 E23.21653
G1 X70.242 Y114.822 E23.24655
G1 X70.164 Y113.868 E23.27838
G1 X70.151 Y113.407 E23.29372
G1 X70.148 Y113.078 E23.30467
G1 X70.149 Y99.154 E23.76778
G1 X70.159 Y98.472 E23.79047
G1 X70.212 Y97.571 E23.82048
G1 X70.345 Y96.678 E23.85051
G1 X70.556 Y95.8 E23.88055
G1 X70.844 Y94.944 E23.91059
G1 X71.207 Y94.117 E23.94063
G1 X71.641 Y93.325 E23.97066
G1 X72.144 Y92.575 E24.0007
G1 X72.711 Y91.872 E24.03074
G1 X73.146 Y91.41 E24.05184
G1 X73.26 Y91.296 E24.05721
G1 X73.926 Y90.686 E24.08724
G1 F2700 E19.08724
G0 F6000 X91.943 Y89.339
G0 X118.648 Y89.336
G0 X119.278 Y89.628
G0 X122.427 Y93.801
G0 X122.892 Y93.8
G1 F2700 E24.08724
G1 F600 X135.664 Y93.8 E24.51204
G1 X135.647 Y109.954 E25.04933
G1 X135.686 Y110.504 E25.06767
G1 X135.805 Y111.042 E25.08599
G1 X135.844 Y111.144 E25.08963
G1 X135.846 Y113.847 E25.17953
G1 X135.886 Y114.397 E25.19787
G1 X136.006 Y114.935 E25.2162
G1 X136.202 Y115.45 E25.23453
G1 X136.462 Y115.919 E25.25237
G1 X136.679 Y116.252 E25.26559
G1 X136.988 Y116.658 E25.28256
G1 X136.775 Y116.871 E25.29257
G1 X136.446 Y117.313 E25.3109
G1 X136.184 Y117.798 E25.32923
G1 X135.995 Y118.316 E25.34757
G1 X135.883 Y118.855 E25.36588
G1 X135.85 Y119.36 E25.38272
G1 X135.854 Y123.08 E25.50644
G1 X124.695 Y123.08 E25.87759
G1 X125.004 Y121.902 E25.9181
G1 X125.114 Y121.264 E25.93963
G1 X125.286 Y119.26 E26.00653
G1 X125.3 Y118.935 E26.01735
G1 X125.3 Y115.166 E26.14271
G1 X125.26 Y114.616 E26.16105
G1 X125.141 Y114.078 E26.17938
