;FLAVOR:Marlin
;TIME:4381
;Filament used: 2.39459m
;Layer height: 0.15
;MINX:64.335
;MINY:78.353
;MINZ:0.24
;MAXX:155.664
;MAXY:141.632
;MAXZ:15.965
;Generated with Cura_SteamEngine 4.10.0
M140 S60
M105
M190 S60
M104 S210
M105
M109 S210
M82 ;absolute extrusion mode
M201 X500.00 Y500.00 Z100.00 E5000.00 ;Setup machine max acceleration
M203 X500.00 Y500.00 Z10.00 E50.00 ;Setup machine max feedrate
M204 P500.00 R1000.00 T500.00 ;Setup Print/Retract/Travel acceleration
M205 X8.00 Y8.00 Z0.40 E5.00 ;Setup Jerk
M220 S100 ;Reset Feedrate
M221 S100 ;Reset Flowrate

G28 ;Home
G29 ;Auto Bed Leveling
M420 S1 Z2 ;Enable ABL using saved Mesh and Fade Height

G92 E0 ;Reset Extruder
G1 Z2.0 F3000 ;Move Z Axis up
G1 X10.1 Y20 Z0.28 F5000.0 ;Move to start position
G1 X10.1 Y200.0 Z0.28 F1500.0 E15 ;Draw the first line
G1 X10.4 Y200.0 Z0.28 F5000.0 ;Move to side a little
G1 X10.4 Y20 Z0.28 F1500.0 E30 ;Draw the second line
G92 E0 ;Reset Extruder
G1 Z2.0 F3000 ;Move Z Axis up
G92 E0
G92 E0
G1 F2700 E-5
;LAYER_COUNT:100
;LAYER:-6
M107
G0 F9000 X70.598 Y82.85 Z0.24
;TYPE:SUPPORT-INTERFACE
G1 F2700 E0
G1 F1125 X70.714 Y82.754 E0.01202
G1 X71.437 Y82.196 E0.08492
G1 X71.585 Y82.091 E0.09941
G1 X72.323 Y81.601 E0.17012
G1 X72.449 Y81.525 E0.18187
G1 X73.243 Y81.079 E0.25456
G1 X73.393 Y81.001 E0.26806
G1 X74.208 Y80.618 E0.33994
G1 X74.351 Y80.558 E0.35232
G1 X75.21 Y80.229 E0.42574
G1 X75.36 Y80.177 E0.43842
G1 X76.21 Y79.922 E0.50926
G1 X76.383 Y79.875 E0.52357
G1 X77.278 Y79.675 E0.59677
G1 X77.408 Y79.652 E0.60731
G1 X78.313 Y79.518 E0.68034
G1 X78.482 Y79.5 E0.6939
G1 X79.371 Y79.434 E0.76506
G1 X79.555 Y79.425 E0.77977
G1 X80.06 Y79.417 E0.82008
G1 X95.003 Y79.418 E2.0129
G1 X96.004 Y79.454 E2.09286
G1 X96.127 Y79.463 E2.1027
G1 X97.044 Y79.565 E2.17635
G1 X97.219 Y79.59 E2.19046
G1 X98.108 Y79.754 E2.26262
G1 X98.231 Y79.782 E2.27269
G1 X99.125 Y80.016 E2.34646
G1 X99.288 Y80.065 E2.36005
G1 X100.13 Y80.351 E2.43103
G1 X100.296 Y80.415 E2.44523
G1 X101.099 Y80.756 E2.51487
G1 X101.288 Y80.844 E2.53151
G1 X102.082 Y81.252 E2.60277
G1 X102.199 Y81.319 E2.61353
G1 X102.978 Y81.793 E2.68632
G1 X103.129 Y81.893 E2.70078
G1 X103.843 Y82.404 E2.77087
G1 X103.991 Y82.517 E2.78573
G1 X104.682 Y83.093 E2.85754
G1 X104.795 Y83.194 E2.86964
G1 X105.445 Y83.82 E2.94167
G1 X105.578 Y83.958 E2.95697
G1 X105.985 Y84.411 E3.00558
G1 X106.463 Y84.881 E3.0591
G1 X107.006 Y85.295 E3.1136
G1 X107.597 Y85.636 E3.16807
G1 X108.227 Y85.9 E3.22259
G1 X108.884 Y86.082 E3.27701
G1 X109.561 Y86.18 E3.33162
G1 X110.243 Y86.192 E3.38607
G1 X110.922 Y86.118 E3.44059
G1 X111.586 Y85.958 E3.49511
G1 X112.224 Y85.716 E3.54958
G1 X112.827 Y85.396 E3.60407
G1 X113.389 Y85 E3.65895
G1 X114.013 Y84.406 E3.72772
G1 X114.185 Y84.214 E3.74829
G1 X114.802 Y83.574 E3.81926
G1 X114.928 Y83.453 E3.8332
G1 X115.597 Y82.853 E3.90493
G1 X115.731 Y82.741 E3.91888
G1 X116.428 Y82.203 E3.98916
G1 X116.563 Y82.105 E4.00248
G1 X117.338 Y81.592 E4.07667
G1 X117.45 Y81.524 E4.08712
G1 X118.254 Y81.072 E4.16075
G1 X118.39 Y81.002 E4.17296
G1 X119.193 Y80.626 E4.24374
G1 X119.38 Y80.546 E4.25997
G1 X120.195 Y80.233 E4.32966
G1 X120.358 Y80.177 E4.34342
G1 X121.217 Y79.919 E4.41502
G1 X121.376 Y79.877 E4.42814
G1 X122.266 Y79.678 E4.50094
G1 X122.421 Y79.65 E4.51351
G1 X123.313 Y79.518 E4.58549
G1 X123.483 Y79.5 E4.59914
G1 X124.372 Y79.434 E4.6703
G1 X124.556 Y79.425 E4.685
G1 X125.06 Y79.417 E4.72524
G1 X140.003 Y79.418 E5.91805
G1 X141.004 Y79.454 E5.99801
G1 X141.127 Y79.463 E6.00785
G1 X142.044 Y79.565 E6.08151
G1 X142.219 Y79.59 E6.09562
G1 X143.108 Y79.754 E6.16778
G1 X143.231 Y79.782 E6.17785
G1 X144.125 Y80.016 E6.25161
G1 X144.288 Y80.065 E6.2652
G1 X145.13 Y80.351 E6.33618
G1 X145.296 Y80.415 E6.35039
G1 X146.099 Y80.756 E6.42002
G1 X146.288 Y80.844 E6.43667
G1 X147.082 Y81.252 E6.50793
G1 X147.199 Y81.319 E6.51869
G1 X147.978 Y81.793 E6.59148
G1 X148.129 Y81.893 E6.60593
G1 X148.843 Y82.404 E6.67602
G1 X148.991 Y82.517 E6.69089
G1 X149.682 Y83.093 E6.76269
G1 X149.795 Y83.194 E6.77479
G1 X150.444 Y83.819 E6.84672
G1 X150.564 Y83.944 E6.86055
G1 X151.167 Y84.615 E6.93256
G1 X151.263 Y84.731 E6.94458
G1 X151.822 Y85.455 E7.01759
G1 X151.916 Y85.586 E7.03046
G1 X152.416 Y86.34 E7.10268
G1 X152.492 Y86.466 E7.11443
G1 X152.938 Y87.26 E7.18712
G1 X153.016 Y87.41 E7.20062
G1 X153.399 Y88.225 E7.2725
G1 X153.459 Y88.368 E7.28488
G1 X153.788 Y89.227 E7.35831
G1 X153.84 Y89.377 E7.37098
G1 X154.095 Y90.227 E7.44182
G1 X154.142 Y90.4 E7.45613
G1 X154.34 Y91.286 E7.5286
G1 X154.365 Y91.425 E7.53987
G1 X154.498 Y92.324 E7.61241
G1 X154.516 Y92.486 E7.62542
G1 X154.583 Y93.388 E7.69762
G1 X154.592 Y93.572 E7.71233
G1 X154.6 Y94.073 E7.75233
G1 X154.6 Y97.003 E7.98621
G1 X154.564 Y98.009 E8.06657
G1 X154.554 Y98.144 E8.07737
G1 X154.452 Y99.061 E8.15102
G1 X154.427 Y99.236 E8.16513
G1 X154.265 Y100.114 E8.2364
G1 X154.235 Y100.248 E8.24736
G1 X154.004 Y101.133 E8.32038
G1 X153.952 Y101.305 E8.33472
G1 X153.676 Y102.117 E8.40318
G1 X153.596 Y102.326 E8.42104
G1 X153.261 Y103.116 E8.48954
G1 X153.18 Y103.291 E8.50493
G1 X152.765 Y104.099 E8.57744
G1 X152.698 Y104.216 E8.5882
G1 X152.224 Y104.995 E8.66099
G1 X152.124 Y105.146 E8.67545
G1 X151.613 Y105.86 E8.74554
G1 X151.5 Y106.008 E8.7604
G1 X150.924 Y106.699 E8.83221
G1 X150.823 Y106.812 E8.84431
G1 X150.198 Y107.461 E8.91623
G1 X150.073 Y107.581 E8.93006
G1 X149.403 Y108.183 E9.00196
G1 X149.286 Y108.28 E9.01409
G1 X148.574 Y108.83 E9.08591
G1 X148.415 Y108.943 E9.10148
G1 X147.677 Y109.433 E9.17219
G1 X147.551 Y109.509 E9.18394
G1 X146.757 Y109.955 E9.25664
G1 X146.606 Y110.033 E9.2702
G1 X145.778 Y110.422 E9.34323
G1 X145.639 Y110.481 E9.35528
G1 X145.261 Y110.626 E9.3876
G1 X144.651 Y110.904 E9.44111
G1 X144.07 Y111.263 E9.49563
G1 X143.539 Y111.693 E9.55017
G1 X143.067 Y112.187 E9.60471
G1 X142.661 Y112.735 E9.65915
G1 X142.327 Y113.332 E9.71376
G1 X142.073 Y113.963 E9.76805
G1 X141.924 Y114.51 E9.81331
G1 X141.899 Y114.62 E9.82231
G1 X141.377 Y116.773 E9.99915
G1 X141.116 Y117.7 E10.07603
G1 X141.08 Y117.816 E10.08572
G1 X140.854 Y118.463 E10.14043
G1 X140.129 Y120.4 E10.30552
G1 X140.084 Y120.513 E10.31523
G1 X139.723 Y121.378 E10.39005
G1 X139.658 Y121.523 E10.40274
G1 X139.377 Y122.096 E10.45368
G1 X138.404 Y123.961 E10.6216
G1 X138.331 Y124.096 E10.63385
G1 X137.872 Y124.903 E10.70796
G1 X137.789 Y125.039 E10.72067
G1 X137.426 Y125.593 E10.77354
G1 X136.216 Y127.356 E10.94423
G1 X135.646 Y128.125 E11.02064
G1 X135.549 Y128.248 E11.03314
G1 X135.12 Y128.758 E11.08634
G1 X133.729 Y130.337 E11.25432
G1 X133.015 Y131.091 E11.33721
G1 X132.923 Y131.182 E11.34754
G1 X132.456 Y131.618 E11.39854
G1 X130.826 Y133.069 E11.57274
G1 X130.051 Y133.71 E11.65302
G1 X129.95 Y133.787 E11.66316
G1 X129.495 Y134.119 E11.70812
G1 X129.34 Y134.229 E11.72329
G1 X127.606 Y135.429 E11.89162
G1 X126.808 Y135.939 E11.96721
G1 X126.675 Y136.019 E11.9796
G1 X126.177 Y136.297 E12.02513
G1 X124.253 Y137.313 E12.19881
G1 X124.17 Y137.355 E12.20624
G1 X123.324 Y137.762 E12.28118
G1 X123.17 Y137.83 E12.29461
G1 X122.561 Y138.078 E12.3471
G1 X120.625 Y138.814 E12.51243
G1 X120.5 Y138.859 E12.52304
G1 X119.599 Y139.165 E12.599
G1 X119.472 Y139.203 E12.60958
G1 X118.849 Y139.375 E12.66117
G1 X116.787 Y139.885 E12.83073
G1 X115.776 Y140.096 E12.91317
G1 X115.631 Y140.122 E12.92493
G1 X114.939 Y140.222 E12.98074
G1 X112.813 Y140.478 E13.15167
G1 X111.813 Y140.562 E13.23178
G1 X111.695 Y140.568 E13.24121
G1 X111.019 Y140.583 E13.29518
G1 X108.897 Y140.582 E13.46457
G1 X107.891 Y140.546 E13.54492
G1 X107.763 Y140.537 E13.55517
G1 X107.119 Y140.474 E13.60682
G1 X105.023 Y140.22 E13.77535
G1 X103.989 Y140.057 E13.85891
G1 X103.856 Y140.031 E13.86973
G1 X103.268 Y139.901 E13.9178
G1 X102.977 Y139.831 E13.94169
G1 X101.086 Y139.361 E14.09723
G1 X100.145 Y139.091 E14.17538
G1 X100.029 Y139.054 E14.1851
G1 X99.478 Y138.859 E14.23175
G1 X97.457 Y138.092 E14.40431
G1 X97.351 Y138.05 E14.41341
G1 X96.467 Y137.676 E14.49003
G1 X96.344 Y137.62 E14.50082
G1 X95.723 Y137.31 E14.55622
G1 X93.889 Y136.344 E14.72168
G1 X92.993 Y135.831 E14.8041
G1 X92.84 Y135.736 E14.81848
G1 X92.373 Y135.429 E14.86309
G1 X90.52 Y134.145 E15.04304
G1 X89.741 Y133.561 E15.12076
G1 X89.637 Y133.478 E15.13138
G1 X89.106 Y133.026 E15.18704
G1 X87.571 Y131.66 E15.35107
G1 X87.472 Y131.568 E15.36185
G1 X86.803 Y130.928 E15.43576
G1 X86.709 Y130.832 E15.44648
G1 X86.267 Y130.356 E15.49833
G1 X84.836 Y128.73 E15.67124
G1 X84.203 Y127.955 E15.75111
G1 X84.109 Y127.833 E15.76341
G1 X83.748 Y127.333 E15.81263
G1 X82.497 Y125.506 E15.98939
G1 X81.971 Y124.676 E16.06782
G1 X81.909 Y124.571 E16.07756
G1 X81.574 Y123.961 E16.13311
G1 X80.627 Y122.139 E16.29702
G1 X80.563 Y122.013 E16.3083
G1 X80.176 Y121.196 E16.38047
G1 X80.111 Y121.048 E16.39337
G1 X79.863 Y120.428 E16.44667
G1 X79.1 Y118.39 E16.62038
G1 X78.8 Y117.488 E16.69626
G1 X78.754 Y117.332 E16.70924
G1 X78.594 Y116.736 E16.7585
G1 X78.094 Y114.673 E16.92795
G1 X77.996 Y114.228 E16.96432
G1 X77.979 Y114.228 E16.96568
G1 X77.896 Y113.925 E16.99076
G1 X77.636 Y113.294 E17.04523
G1 X77.298 Y112.7 E17.09979
G1 X76.887 Y112.154 E17.15434
G1 X76.411 Y111.665 E17.20882
G1 X75.878 Y111.24 E17.26323
G1 X75.295 Y110.885 E17.31772
G1 X75.043 Y110.771 E17.3398
G1 X75.043 Y110.764 E17.34035
G1 X73.901 Y110.278 E17.43943
G1 X73.712 Y110.19 E17.45607
G1 X72.918 Y109.782 E17.52733
G1 X72.801 Y109.715 E17.53809
G1 X72.022 Y109.241 E17.61088
G1 X71.871 Y109.141 E17.62534
G1 X71.157 Y108.63 E17.69542
G1 X71.009 Y108.517 E17.71029
G1 X70.318 Y107.941 E17.7821
G1 X70.205 Y107.84 E17.79419
G1 X69.556 Y107.215 E17.86612
G1 X69.436 Y107.09 E17.87995
G1 X68.833 Y106.419 E17.95196
G1 X68.736 Y106.301 E17.96415
G1 X68.178 Y105.579 E18.03699
G1 X68.074 Y105.432 E18.05137
G1 X67.581 Y104.689 E18.12255
G1 X67.508 Y104.568 E18.13383
G1 X67.056 Y103.763 E18.20752
G1 X66.984 Y103.624 E18.22002
G1 X66.587 Y102.778 E18.29461
G1 X66.541 Y102.666 E18.30428
G1 X66.212 Y101.807 E18.37771
G1 X66.155 Y101.642 E18.39164
G1 X65.905 Y100.807 E18.46122
G1 X65.858 Y100.634 E18.47553
G1 X65.657 Y99.733 E18.54922
G1 X65.635 Y99.609 E18.55927
G1 X65.5 Y98.695 E18.63302
G1 X65.483 Y98.535 E18.64586
G1 X65.417 Y97.643 E18.71726
G1 X65.408 Y97.462 E18.73173
G1 X65.4 Y96.961 E18.77172
G1 X65.4 Y94.031 E19.00561
G1 X65.436 Y93.025 E19.08596
G1 X65.446 Y92.89 E19.09677
G1 X65.548 Y91.973 E19.17042
G1 X65.573 Y91.798 E19.18453
G1 X65.735 Y90.92 E19.2558
G1 X65.765 Y90.786 E19.26676
G1 X65.996 Y89.901 E19.33977
G1 X66.048 Y89.729 E19.35412
G1 X66.334 Y88.887 E19.4251
G1 X66.398 Y88.721 E19.4393
G1 X66.739 Y87.918 E19.50894
G1 X66.82 Y87.743 E19.52433
G1 X67.235 Y86.935 E19.59684
G1 X67.302 Y86.818 E19.6076
G1 X67.776 Y86.039 E19.68039
G1 X67.876 Y85.888 E19.69485
G1 X68.387 Y85.174 E19.76494
G1 X68.5 Y85.026 E19.7798
G1 X69.076 Y84.335 E19.85161
G1 X69.177 Y84.222 E19.86371
G1 X69.802 Y83.573 E19.93563
G1 X69.927 Y83.453 E19.94946
G1 X70.598 Y82.85 E20.02148
G0 F9000 X70.4 Y83.027
G1 F1125 X70.4 Y108.009 E22.01565
G0 F9000 X72 Y109.226
G1 F1125 X72 Y81.815 E24.20371
G0 F9000 X73.6 Y80.903
G1 F1125 X73.6 Y110.132 E26.5369
G0 F9000 X75.2 Y110.842
G1 F1125 X75.2 Y80.232 E28.98032
G0 F9000 X76.8 Y79.781
G1 F1125 X76.8 Y112.064 E31.55729
G0 F9000 X78.4 Y115.935
G1 F1125 X78.4 Y79.508 E34.46505
G0 F9000 X80 Y79.417
G1 F1125 X80 Y120.77 E37.76602
G0 F9000 X81.6 Y124.008
G1 F1125 X81.6 Y79.418 E41.32539
G0 F9000 X83.2 Y79.418
G1 F1125 X83.2 Y126.532 E45.08623
G0 F9000 X84.8 Y128.685
G1 F1125 X84.8 Y79.418 E49.01894
G0 F9000 X86.4 Y79.418
G1 F1125 X86.4 Y130.499 E53.09645
G0 F9000 X88 Y132.041
G1 F1125 X88 Y79.418 E57.29704
G0 F9000 X89.6 Y79.418
G1 F1125 X89.6 Y133.446 E61.60979
G0 F9000 X91.2 Y134.616
G1 F1125 X91.2 Y79.418 E66.01593
G0 F9000 X92.8 Y79.418
G1 F1125 X92.8 Y135.709 E70.50932
G0 F9000 X94.4 Y136.613
G1 F1125 X94.4 Y79.418 E75.07488
G0 F9000 X96 Y79.454
G1 F1125 X96 Y137.448 E79.70421
G0 F9000 X97.6 Y138.146
G1 F1125 X97.6 Y79.661 E84.37273
G0 F9000 X99.2 Y80.039
G1 F1125 X99.2 Y138.753 E89.05954
G0 F9000 X100.8 Y139.278
G1 F1125 X100.8 Y80.63 E93.74108
G0 F9000 X102.4 Y81.442
G1 F1125 X102.4 Y139.687 E98.39044
G0 F9000 X104 Y140.058
G1 F1125 X104 Y82.525 E102.98298
G0 F9000 X105.6 Y83.983
G1 F1125 X105.6 Y140.289 E107.47756
G0 F9000 X107.2 Y140.481
G1 F1125 X107.2 Y85.407 E111.87381
G0 F9000 X108.8 Y86.059
G1 F1125 X108.8 Y140.578 E116.22575
G0 F9000 X110.4 Y140.582
G1 F1125 X110.4 Y86.174 E120.56883
G0 F9000 X112 Y85.8
G1 F1125 X112 Y140.547 E124.93898
G0 F9000 X113.6 Y140.384
G1 F1125 X113.6 Y84.799 E129.37601
G0 F9000 X115.2 Y83.209
G1 F1125 X115.2 Y140.185 E133.92408
G0 F9000 X116.8 Y139.882
G1 F1125 X116.8 Y81.948 E138.54862
G0 F9000 X118.4 Y80.997
G1 F1125 X118.4 Y139.487 E143.21755
G0 F9000 X120 Y139.029
G1 F1125 X120 Y80.307 E147.90499
G0 F9000 X121.6 Y79.826
G1 F1125 X121.6 Y138.444 E152.58414
G0 F9000 X123.2 Y137.817
G1 F1125 X123.2 Y79.534 E157.23654
G0 F9000 X124.8 Y79.421
G1 F1125 X124.8 Y137.025 E161.83474
G0 F9000 X126.4 Y136.173
G1 F1125 X126.4 Y79.418 E166.36517
G0 F9000 X128 Y79.418
G1 F1125 X128 Y135.157 E170.81449
G0 F9000 X129.6 Y134.043
G1 F1125 X129.6 Y79.418 E175.1749
G0 F9000 X131.2 Y79.418
G1 F1125 X131.2 Y132.737 E179.43105
G0 F9000 X132.8 Y131.297
G1 F1125 X132.8 Y79.418 E183.57226
G0 F9000 X134.4 Y79.418
G1 F1125 X134.4 Y129.576 E187.57609
G0 F9000 X136 Y127.648
G1 F1125 X136 Y79.418 E191.42601
G0 F9000 X137.6 Y79.418
G1 F1125 X137.6 Y125.328 E195.09075
G0 F9000 X139.2 Y122.436
G1 F1125 X139.2 Y79.418 E198.52463
G0 F9000 X140.8 Y79.447
G1 F1125 X140.8 Y118.608 E201.65063
G1 F2700 E196.65063
G0 F9000 X141.884 Y118.743
G0 X143.291 Y113.789
G0 X142.4 Y113.202
G1 F2700 E201.65063
G1 F1125 X142.4 Y79.624 E204.33097
G0 F9000 X144 Y79.984
G1 F1125 X144 Y111.32 E206.83235
G0 F9000 X145.6 Y110.496
G1 F1125 X145.6 Y80.545 E209.22316
G0 F9000 X147.2 Y81.32
G1 F1125 X147.2 Y109.707 E211.48914
G0 F9000 X148.8 Y108.656
G1 F1125 X148.8 Y82.374 E213.58708
G0 F9000 X150.4 Y83.777
G1 F1125 X150.4 Y107.252 E215.46096
G0 F9000 X152 Y105.32
G1 F1125 X152 Y85.713 E217.02607
G0 F9000 X153.6 Y88.737
G1 F1125 X153.6 Y102.316 E218.11001
G1 F2700 E213.11001
G0 F9000 X154.581 Y102.731
G0 X153.705 Y104.597
G0 X152.996 Y105.756
G0 X136.379 Y128.916
G0 X133.771 Y131.839
G0 X130.719 Y134.538
G0 X127.364 Y136.846
G0 X123.772 Y138.727
G0 X119.93 Y140.177
G0 X115.985 Y141.141
G0 X111.891 Y141.623
G0 X107.843 Y141.609
G0 X103.74 Y141.101
G0 X99.913 Y140.146
G0 X96.034 Y138.648
G0 X92.444 Y136.743
G0 X89.095 Y134.407
G0 X86.059 Y131.69
G0 X83.372 Y128.621
G0 X68.032 Y107.12
G0 X68.8 Y106.378
G1 F2700 E218.11001
G1 F1125 X68.8 Y84.666 E219.84315
G0 F9000 X67.2 Y87.003
G1 F1125 X67.2 Y104.019 E221.20144
G1 F2700 E216.20144
G0 F9000 X66.034 Y104.103
G0 X65.213 Y102.176
G0 X65.104 Y101.814
G0 X64.615 Y99.951
G0 X65.6 Y99.372
G1 F2700 E221.20144
G1 F1125 X65.6 Y91.651 E221.81777
G1 F2700 E216.81777
G0 F300 X65.6 Y91.651 Z0.465
G0 F9000 X64.491 Y91.845
G0 X64.336 Y94.006
G0 X64.354 Y97.704
G0 X64.583 Y99.775
G0 X64.879 Y101.09
G0 X65.55 Y103.055
G0 X65.711 Y103.4
G0 X66.58 Y105.089
G0 X67.508 Y104.567
;TIME_ELAPSED:163.222310
;LAYER:-5
;TYPE:SUPPORT
G1 F2700 E221.81777
G1 F1125 X67.581 Y104.688 E221.82834
G1 X68.073 Y105.431 E221.89503
G1 X68.177 Y105.578 E221.90851
G1 X68.735 Y106.3 E221.97679
G1 X68.832 Y106.418 E221.98822
G1 X69.435 Y107.089 E222.05574
G1 X69.555 Y107.213 E222.06865
G1 X70.205 Y107.838 E222.13613
G1 X70.318 Y107.94 E222.14752
G1 X71.009 Y108.516 E222.21484
G1 X71.156 Y108.629 E222.22872
G1 X71.871 Y109.139 E222.29444
G1 X72.022 Y109.24 E222.30804
G1 X72.8 Y109.714 E222.37621
G1 X72.918 Y109.781 E222.38637
G1 X73.109 Y109.879 E222.40243
G1 X67.137 Y103.907 E223.03447
G1 X67.056 Y103.762 E223.0469
G1 X66.984 Y103.623 E223.05861
G1 X66.587 Y102.777 E223.12855
G1 X66.54 Y102.665 E223.13764
G1 X66.212 Y101.806 E223.20645
G1 X66.154 Y101.641 E223.21954
G1 X66.098 Y101.453 E223.23422
G1 X75.905 Y111.261 E224.27218
G0 F9000 X76.41 Y111.664
G1 F1125 X76.887 Y112.153 E224.3233
G1 X77.159 Y112.514 E224.35712
G1 X104.833 Y140.188 E227.28595
G1 X105.022 Y140.219 E227.30028
