;FLAVOR:Marlin
;TIME:719
;Filament used: 0.314337m
;Layer height: 0.15
;MINX:88.412
;MINY:88.412
;MINZ:0.2
;MAXX:131.589
;MAXY:131.588
;MAXZ:7.55
;Generated with Cura_SteamEngine 4.9.0
M140 S60
M105
M190 S60
M104 S210
M105
M109 S210
M82 ;absolute extrusion mode
M201 X500.00 Y500.00 Z100.00 E5000.00 ;Setup machine max acceleration
M203 X500.00 Y500.00 Z10.00 E50.00 ;Setup machine max feedrate
M204 P500.00 R1000.00 T500.00 ;Setup Print/Retract/Travel acceleration
M205 X8.00 Y8.00 Z0.40 E5.00 ;Setup Jerk
M220 S100 ;Reset Feedrate
M221 S100 ;Reset Flowrate

G28 ;Home
G29 ;Auto Bed Leveling
M420 S1 Z2 ;Enable ABL using saved Mesh and Fade Height

G92 E0 ;Reset Extruder
G1 Z2.0 F3000 ;Move Z Axis up
G1 X10.1 Y20 Z0.28 F5000.0 ;Move to start position
G1 X10.1 Y200.0 Z0.28 F1500.0 E15 ;Draw the first line
G1 X10.4 Y200.0 Z0.28 F5000.0 ;Move to side a little
G1 X10.4 Y20 Z0.28 F1500.0 E30 ;Draw the second line
G92 E0 ;Reset Extruder
G1 Z2.0 F3000 ;Move Z Axis up
G92 E0
G92 E0
G1 F2700 E-5
;LAYER_COUNT:50
;LAYER:0
M107
G0 F6000 X94.588 Y94.886 Z0.2
;TYPE:SKIRT
G1 F2700 E0
G1 F600 X94.755 Y94.72 E0.00783
G1 X95.236 Y94.252 E0.03015
G1 X95.698 Y93.828 E0.05101
G1 X95.887 Y93.664 E0.05933
G1 X96.103 Y93.481 E0.06875
G1 X96.425 Y93.219 E0.08256
G1 X96.967 Y92.792 E0.1055
G1 X97.505 Y92.395 E0.12774
G1 X97.845 Y92.16 E0.14149
G1 X98.24 Y91.899 E0.15724
G1 X98.49 Y91.738 E0.16713
G1 X98.78 Y91.557 E0.1785
G1 X98.993 Y91.429 E0.18676
G1 X99.494 Y91.146 E0.2059
G1 X100.09 Y90.829 E0.22835
G1 X100.417 Y90.662 E0.24056
G1 X100.854 Y90.448 E0.25675
G1 X101.403 Y90.198 E0.27681
G1 X101.829 Y90.02 E0.29217
G1 X101.999 Y89.952 E0.29826
G1 X102.302 Y89.836 E0.30905
G1 X102.963 Y89.594 E0.33246
G1 X103.51 Y89.409 E0.35167
G1 X103.692 Y89.353 E0.358
G1 X103.996 Y89.265 E0.36853
G1 X104.449 Y89.142 E0.38414
G1 X105.098 Y88.978 E0.4064
G1 X105.659 Y88.852 E0.42553
G1 X105.841 Y88.816 E0.4317
G1 X106.147 Y88.76 E0.44204
G1 X106.414 Y88.715 E0.45105
G1 X106.691 Y88.672 E0.46037
G1 X107.337 Y88.58 E0.48208
G1 X107.928 Y88.512 E0.50186
G1 X108.202 Y88.488 E0.51101
G1 X108.495 Y88.466 E0.52078
G1 X108.917 Y88.443 E0.53484
G1 X109.562 Y88.418 E0.55631
G1 X110.194 Y88.412 E0.57733
G1 X110.671 Y88.424 E0.5932
G1 X111.215 Y88.449 E0.61131
G1 X111.616 Y88.474 E0.62468
G1 X111.907 Y88.497 E0.63438
G1 X112.565 Y88.569 E0.6564
G1 X113.258 Y88.666 E0.67967
G1 X113.565 Y88.714 E0.69001
G1 X114.021 Y88.791 E0.70539
G1 X114.731 Y88.935 E0.72949
G1 X115.115 Y89.028 E0.74263
G1 X115.406 Y89.103 E0.75262
G1 X115.676 Y89.176 E0.76193
G1 X116.283 Y89.349 E0.78292
G1 X116.868 Y89.534 E0.80333
G1 X117.323 Y89.694 E0.81937
G1 X117.528 Y89.77 E0.82664
G1 X117.786 Y89.87 E0.83584
G1 X118.369 Y90.103 E0.85672
G1 X118.977 Y90.367 E0.87877
G1 X119.426 Y90.581 E0.89531
G1 X119.823 Y90.782 E0.91011
G1 X120.428 Y91.101 E0.93286
G1 X120.956 Y91.399 E0.95303
G1 X121.186 Y91.537 E0.96195
G1 X121.522 Y91.746 E0.97511
G1 X121.728 Y91.88 E0.98328
G1 X122.329 Y92.281 E1.00731
G1 X122.824 Y92.631 E1.02748
G1 X122.956 Y92.73 E1.03296
G1 X123.199 Y92.918 E1.04318
G1 X123.423 Y93.096 E1.0527
G1 X123.638 Y93.271 E1.06192
G1 X124.146 Y93.696 E1.08395
G1 X124.565 Y94.065 E1.10252
G1 X124.729 Y94.217 E1.10996
G1 X125.045 Y94.52 E1.12452
G1 X125.284 Y94.758 E1.13574
G1 X125.761 Y95.25 E1.15853
G1 X126.164 Y95.689 E1.17835
G1 X126.489 Y96.067 E1.19493
G1 X126.601 Y96.202 E1.20076
G1 X126.772 Y96.415 E1.20985
G1 X127.201 Y96.959 E1.23289
G1 X127.578 Y97.466 E1.2539
G1 X127.836 Y97.839 E1.26899
G1 X128.101 Y98.24 E1.28498
G1 X128.262 Y98.49 E1.29487
G1 X128.443 Y98.78 E1.30624
G1 X128.571 Y98.993 E1.3145
G1 X128.854 Y99.494 E1.33364
G1 X129.171 Y100.09 E1.35609
G1 X129.329 Y100.4 E1.36766
G1 X129.542 Y100.833 E1.38371
G1 X129.813 Y101.425 E1.40537
G1 X129.98 Y101.829 E1.41991
G1 X130.048 Y101.999 E1.426
G1 X130.164 Y102.302 E1.43679
G1 X130.406 Y102.963 E1.4602
G1 X130.591 Y103.51 E1.47941
G1 X130.647 Y103.692 E1.48574
G1 X130.732 Y103.983 E1.49582
G1 X130.792 Y104.199 E1.50328
G1 X130.859 Y104.452 E1.51198
G1 X131.023 Y105.102 E1.53428
G1 X131.148 Y105.659 E1.55327
G1 X131.184 Y105.841 E1.55944
G1 X131.239 Y106.14 E1.56955
G1 X131.284 Y106.406 E1.57852
G1 X131.328 Y106.688 E1.58802
G1 X131.42 Y107.333 E1.60969
G1 X131.489 Y107.933 E1.62977
G1 X131.513 Y108.209 E1.63899
G1 X131.545 Y108.676 E1.65456
G1 X131.557 Y108.917 E1.66258
G1 X131.582 Y109.562 E1.68405
G1 X131.589 Y110.16 E1.70394
G1 X131.586 Y110.352 E1.71033
G1 X131.577 Y110.639 E1.71988
G1 X131.554 Y111.164 E1.73736
G1 X131.526 Y111.62 E1.75255
G1 X131.503 Y111.91 E1.76223
G1 X131.431 Y112.565 E1.78415
G1 X131.334 Y113.258 E1.80742
G1 X131.285 Y113.572 E1.81799
G1 X131.208 Y114.026 E1.83331
G1 X131.07 Y114.71 E1.85651
G1 X130.975 Y115.102 E1.86993
G1 X130.896 Y115.409 E1.88047
G1 X130.826 Y115.669 E1.88943
G1 X130.657 Y116.265 E1.91003
G1 X130.479 Y116.833 E1.92983
G1 X130.408 Y117.04 E1.93711
G1 X130.304 Y117.329 E1.94732
G1 X130.125 Y117.8 E1.96408
G1 X129.89 Y118.386 E1.98508
G1 X129.652 Y118.934 E2.00495
G1 X129.434 Y119.397 E2.02197
G1 X129.35 Y119.567 E2.02828
G1 X129.211 Y119.838 E2.03841
G1 X128.892 Y120.441 E2.0611
G1 X128.601 Y120.956 E2.08078
G1 X128.323 Y121.415 E2.09862
G1 X128.115 Y121.737 E2.11137
G1 X127.717 Y122.333 E2.13521
G1 X127.369 Y122.824 E2.15523
G1 X127.27 Y122.956 E2.16071
G1 X127.082 Y123.199 E2.17093
G1 X126.904 Y123.423 E2.18045
G1 X126.726 Y123.642 E2.18984
G1 X126.299 Y124.152 E2.21196
G1 X125.936 Y124.564 E2.23022
G1 X125.581 Y124.943 E2.24749
G1 X125.467 Y125.06 E2.25293
G1 X125.246 Y125.28 E2.2633
G1 X124.751 Y125.76 E2.28623
G1 X124.327 Y126.149 E2.30537
G1 X124.138 Y126.314 E2.31371
G1 X123.888 Y126.527 E2.32464
G1 X123.585 Y126.773 E2.33762
G1 X123.037 Y127.205 E2.36083
G1 X122.535 Y127.578 E2.38163
G1 X122.15 Y127.844 E2.39719
G1 X121.778 Y128.089 E2.41201
G1 X121.511 Y128.261 E2.42257
G1 X121.22 Y128.443 E2.43399
G1 X121.007 Y128.571 E2.44225
G1 X120.506 Y128.854 E2.46139
G1 X119.91 Y129.171 E2.48384
G1 X119.583 Y129.338 E2.49606
G1 X119.146 Y129.552 E2.51224
G1 X118.597 Y129.802 E2.5323
G1 X118.171 Y129.98 E2.54766
G1 X118.001 Y130.048 E2.55375
G1 X117.698 Y130.164 E2.56454
G1 X117.037 Y130.406 E2.58795
G1 X116.49 Y130.591 E2.60716
G1 X116.308 Y130.647 E2.61349
G1 X116.004 Y130.735 E2.62402
G1 X115.551 Y130.858 E2.63963
G1 X114.902 Y131.022 E2.6619
G1 X114.341 Y131.148 E2.68102
G1 X114.159 Y131.184 E2.68719
G1 X113.853 Y131.24 E2.69754
G1 X113.586 Y131.285 E2.70654
G1 X113.309 Y131.328 E2.71587
G1 X112.663 Y131.42 E2.73757
G1 X112.072 Y131.488 E2.75735
G1 X111.798 Y131.512 E2.7665
G1 X111.505 Y131.534 E2.77628
G1 X111.084 Y131.557 E2.7903
G1 X110.44 Y131.582 E2.81173
G1 X109.808 Y131.588 E2.83276
G1 X109.329 Y131.576 E2.84869
G1 X108.785 Y131.551 E2.86681
G1 X108.384 Y131.526 E2.88017
G1 X108.093 Y131.503 E2.88988
G1 X107.435 Y131.431 E2.91189
G1 X106.742 Y131.334 E2.93517
G1 X106.428 Y131.285 E2.94574
G1 X105.974 Y131.208 E2.96105
G1 X105.297 Y131.071 E2.98403
G1 X104.878 Y130.97 E2.99836
G1 X104.58 Y130.893 E3.0086
G1 X104.317 Y130.822 E3.01766
G1 X103.717 Y130.651 E3.03841
G1 X103.132 Y130.466 E3.05882
G1 X102.666 Y130.302 E3.07525
G1 X102.459 Y130.225 E3.08259
G1 X102.206 Y130.127 E3.09162
G1 X101.619 Y129.892 E3.11265
G1 X101.023 Y129.633 E3.13426
G1 X100.574 Y129.419 E3.1508
G1 X100.177 Y129.218 E3.1656
G1 X99.572 Y128.899 E3.18835
G1 X99.044 Y128.601 E3.20852
G1 X98.814 Y128.463 E3.21744
G1 X98.478 Y128.254 E3.2306
G1 X98.272 Y128.12 E3.23877
G1 X97.671 Y127.719 E3.2628
G1 X97.176 Y127.369 E3.28297
G1 X97.044 Y127.27 E3.28846
G1 X96.796 Y127.078 E3.29889
G1 X96.385 Y126.748 E3.31642
G1 X95.88 Y126.328 E3.33826
G1 X95.393 Y125.886 E3.36014
G1 X95.388 Y125.891 E3.36037
G1 X95.009 Y125.532 E3.37774
G1 X94.72 Y125.244 E3.39131
G1 X94.251 Y124.762 E3.41368
G1 X93.843 Y124.319 E3.43371
G1 X93.68 Y124.132 E3.44196
G1 X93.372 Y123.764 E3.45792
G1 X93.226 Y123.584 E3.46563
G1 X92.794 Y123.036 E3.48884
G1 X92.414 Y122.524 E3.51004
G1 X92.289 Y122.345 E3.5173
G1 X92.138 Y122.123 E3.52623
G1 X91.905 Y121.769 E3.54033
G1 X91.743 Y121.518 E3.55027
G1 X91.556 Y121.219 E3.562
G1 X91.428 Y121.006 E3.57026
G1 X91.142 Y120.5 E3.58959
G1 X90.826 Y119.905 E3.612
G1 X90.662 Y119.583 E3.62402
G1 X90.448 Y119.146 E3.6402
G1 X90.205 Y118.615 E3.65963
G1 X90.105 Y118.38 E3.66812
G1 X89.934 Y117.956 E3.68333
G1 X89.845 Y117.723 E3.69162
G1 X89.613 Y117.094 E3.71392
G1 X89.416 Y116.509 E3.73445
G1 X89.344 Y116.274 E3.74263
G1 X89.256 Y115.974 E3.75302
G1 X89.144 Y115.559 E3.76732
G1 X88.979 Y114.908 E3.78966
G1 X88.844 Y114.305 E3.81021
G1 X88.809 Y114.125 E3.81631
G1 X88.76 Y113.853 E3.8255
G1 X88.715 Y113.586 E3.83451
G1 X88.673 Y113.316 E3.8436
G1 X88.58 Y112.666 E3.86543
G1 X88.508 Y112.031 E3.88669
G1 X88.484 Y111.746 E3.8962
G1 X88.455 Y111.318 E3.91047
G1 X88.443 Y111.075 E3.91856
G1 X88.418 Y110.418 E3.94043
G1 X88.412 Y109.782 E3.96159
G1 X88.424 Y109.329 E3.97666
G1 X88.448 Y108.788 E3.99467
G1 X88.474 Y108.38 E4.00827
G1 X88.497 Y108.09 E4.01794
G1 X88.569 Y107.435 E4.03986
G1 X88.666 Y106.742 E4.06313
G1 X88.723 Y106.38 E4.07532
G1 X88.805 Y105.909 E4.09122
G1 X88.916 Y105.355 E4.11001
G1 X88.954 Y105.188 E4.11571
G1 X89.032 Y104.868 E4.12667
G1 X89.109 Y104.571 E4.13687
G1 X89.178 Y104.317 E4.14563
G1 X89.351 Y103.71 E4.16662
G1 X89.547 Y103.093 E4.18815
G1 X89.692 Y102.683 E4.20261
G1 X89.769 Y102.475 E4.20999
G1 X89.879 Y102.191 E4.22012
G1 X90.115 Y101.604 E4.24116
G1 X90.344 Y101.074 E4.26037
G1 X90.455 Y100.835 E4.26913
G1 X90.582 Y100.571 E4.27888
G1 X90.669 Y100.396 E4.28538
G1 X90.792 Y100.157 E4.29432
G1 X91.103 Y99.568 E4.31647
G1 X91.405 Y99.033 E4.3369
G1 X91.544 Y98.802 E4.34587
G1 X91.716 Y98.525 E4.35671
G1 X91.902 Y98.238 E4.36809
G1 X92.288 Y97.66 E4.39121
G1 X92.644 Y97.158 E4.41167
G1 X92.738 Y97.033 E4.41688
G1 X92.922 Y96.796 E4.42686
G1 X93.101 Y96.571 E4.43642
G1 X93.268 Y96.366 E4.44521
G1 X93.7 Y95.849 E4.46762
G1 X94.104 Y95.391 E4.48793
G1 X94.261 Y95.223 E4.49558
G1 X94.588 Y94.886 E4.5112
G0 F6000 X94.873 Y95.167
G1 F600 X95.034 Y95.007 E4.51875
G1 X95.515 Y94.539 E4.54107
G1 X95.96 Y94.13 E4.56117
G1 X96.149 Y93.966 E4.5695
G1 X96.494 Y93.678 E4.58444
G1 X96.672 Y93.534 E4.59206
G1 X97.214 Y93.107 E4.61501
G1 X97.733 Y92.723 E4.63648
G1 X98.067 Y92.493 E4.64997
G1 X98.457 Y92.235 E4.66552
G1 X98.707 Y92.074 E4.67541
G1 X98.986 Y91.9 E4.68635
G1 X99.199 Y91.772 E4.69461
G1 X99.681 Y91.499 E4.71304
G1 X100.277 Y91.182 E4.73549
G1 X100.593 Y91.021 E4.74729
G1 X101.03 Y90.807 E4.76347
G1 X101.559 Y90.566 E4.7828
G1 X101.977 Y90.391 E4.79788
G1 X102.147 Y90.323 E4.80397
G1 X102.44 Y90.211 E4.8144
G1 X103.101 Y89.969 E4.83781
G1 X103.628 Y89.792 E4.8563
G1 X103.81 Y89.736 E4.86264
G1 X104.102 Y89.65 E4.87276
G1 X104.547 Y89.53 E4.88809
G1 X105.196 Y89.366 E4.91035
G1 X105.736 Y89.244 E4.92877
G1 X105.918 Y89.208 E4.93494
G1 X106.213 Y89.154 E4.94491
G1 X106.48 Y89.109 E4.95392
G1 X106.747 Y89.068 E4.9629
G1 X107.393 Y88.976 E4.9846
G1 X107.963 Y88.91 E5.00369
G1 X108.237 Y88.886 E5.01284
G1 X108.7 Y88.855 E5.02827
G1 X108.932 Y88.843 E5.036
G1 X109.577 Y88.818 E5.05747
G1 X110.186 Y88.812 E5.07772
G1 X110.4 Y88.816 E5.08484
G1 X110.654 Y88.824 E5.0933
G1 X111.192 Y88.848 E5.11121
G1 X111.584 Y88.873 E5.12427
G1 X111.875 Y88.896 E5.13398
G1 X112.509 Y88.965 E5.15519
G1 X113.202 Y89.062 E5.17847
G1 X113.498 Y89.108 E5.18843
G1 X113.954 Y89.185 E5.20381
G1 X114.639 Y89.324 E5.22706
G1 X115.016 Y89.415 E5.23996
G1 X115.307 Y89.49 E5.24995
G1 X115.566 Y89.561 E5.25888
G1 X116.173 Y89.734 E5.27988
G1 X116.737 Y89.912 E5.29955
G1 X117.184 Y90.069 E5.31531
G1 X117.389 Y90.145 E5.32258
G1 X117.638 Y90.241 E5.33145
G1 X118.221 Y90.474 E5.35233
G1 X118.806 Y90.729 E5.37356
G1 X119.248 Y90.939 E5.38984
G1 X119.409 Y91.019 E5.39582
G1 X119.636 Y91.136 E5.40431
G1 X120.241 Y91.455 E5.42706
G1 X120.751 Y91.742 E5.44652
G1 X120.981 Y91.88 E5.45544
G1 X121.308 Y92.083 E5.46824
G1 X122.107 Y92.614 E5.50015
G1 X122.584 Y92.951 E5.51958
G1 X122.951 Y93.231 E5.53493
G1 X123.175 Y93.409 E5.54445
G1 X123.382 Y93.578 E5.55334
G1 X123.89 Y94.003 E5.57536
G1 X124.294 Y94.359 E5.59327
G1 X124.633 Y94.677 E5.60873
G1 X124.767 Y94.807 E5.61494
G1 X124.996 Y95.037 E5.62574
G1 X125.473 Y95.529 E5.64853
G1 X125.862 Y95.952 E5.66764
G1 X126.181 Y96.323 E5.68392
G1 X126.458 Y96.662 E5.69848
G1 X126.887 Y97.206 E5.72152
G1 X127.25 Y97.695 E5.74178
G1 X127.503 Y98.061 E5.75658
G1 X127.765 Y98.457 E5.77237
G1 X127.926 Y98.707 E5.78226
G1 X128.1 Y98.986 E5.79319
G1 X128.228 Y99.199 E5.80146
G1 X128.501 Y99.681 E5.81988
G1 X128.818 Y100.277 E5.84234
G1 X128.97 Y100.576 E5.85349
G1 X129.183 Y101.009 E5.86954
G1 X129.444 Y101.58 E5.89042
G1 X129.609 Y101.977 E5.90472
G1 X129.677 Y102.147 E5.91081
G1 X129.789 Y102.44 E5.92125
G1 X130.031 Y103.101 E5.94466
G1 X130.208 Y103.628 E5.96315
G1 X130.264 Y103.81 E5.96948
G1 X130.346 Y104.09 E5.97919
G1 X130.471 Y104.55 E5.99504
G1 X130.635 Y105.2 E6.01734
G1 X130.756 Y105.736 E6.03561
G1 X130.792 Y105.918 E6.04178
G1 X130.844 Y106.207 E6.05155
G1 X130.932 Y106.744 E6.06965
G1 X131.024 Y107.389 E6.09132
G1 X131.09 Y107.968 E6.1107
G1 X131.114 Y108.244 E6.11992
G1 X131.145 Y108.7 E6.13512
G1 X131.157 Y108.932 E6.14284
G1 X131.182 Y109.577 E6.16431
G1 X131.189 Y110.154 E6.18351
G1 X131.186 Y110.346 E6.18989
G1 X131.178 Y110.623 E6.19911
G1 X131.155 Y111.141 E6.21635
G1 X131.127 Y111.588 E6.23125
G1 X131.104 Y111.878 E6.24093
G1 X131.035 Y112.509 E6.26204
G1 X130.938 Y113.202 E6.28531
G1 X130.891 Y113.505 E6.29551
G1 X130.814 Y113.959 E6.31083
G1 X130.68 Y114.618 E6.33319
G1 X130.588 Y115.003 E6.34636
G1 X130.509 Y115.31 E6.3569
G1 X130.441 Y115.56 E6.36552
G1 X130.272 Y116.156 E6.38613
G1 X130.101 Y116.703 E6.40519
G1 X130.03 Y116.91 E6.41247
G1 X129.93 Y117.188 E6.42229
G1 X129.842 Y117.423 E6.43064
G1 X129.753 Y117.651 E6.43878
G1 X129.518 Y118.237 E6.45978
G1 X129.29 Y118.766 E6.47894
G1 X129.182 Y118.998 E6.48745
G1 X128.991 Y119.39 E6.50195
G1 X128.858 Y119.651 E6.51169
G1 X128.539 Y120.254 E6.53438
G1 X128.258 Y120.751 E6.55337
G1 X127.985 Y121.201 E6.57088
G1 X127.782 Y121.515 E6.58332
G1 X127.384 Y122.111 E6.60715
G1 X127.049 Y122.584 E6.62643
G1 X126.769 Y122.951 E6.64178
G1 X126.591 Y123.175 E6.6513
G1 X126.419 Y123.385 E6.66033
G1 X125.992 Y123.895 E6.68245
G1 X125.642 Y124.293 E6.70008
G1 X125.479 Y124.469 E6.70806
G1 X125.18 Y124.78 E6.72241
G1 X124.967 Y124.993 E6.73243
G1 X124.472 Y125.473 E6.75536
G1 X124.064 Y125.848 E6.77379
G1 X123.875 Y126.013 E6.78214
G1 X123.634 Y126.218 E6.79266
G1 X123.337 Y126.458 E6.80536
G1 X122.789 Y126.89 E6.82857
G1 X122.306 Y127.25 E6.8486
G1 X122.136 Y127.369 E6.85551
G1 X121.692 Y127.667 E6.87329
G1 X121.294 Y127.925 E6.88907
G1 X121.014 Y128.1 E6.90005
G1 X120.801 Y128.228 E6.90831
G1 X120.319 Y128.501 E6.92674
G1 X119.723 Y128.818 E6.94919
G1 X119.407 Y128.979 E6.96099
G1 X118.97 Y129.193 E6.97717
G1 X118.441 Y129.434 E6.9965
G1 X118.023 Y129.609 E7.01158
G1 X117.853 Y129.677 E7.01767
G1 X117.56 Y129.789 E7.0281
G1 X116.899 Y130.031 E7.05151
G1 X116.372 Y130.208 E7.07
G1 X116.19 Y130.264 E7.07634
G1 X115.898 Y130.35 E7.08646
G1 X115.453 Y130.47 E7.10179
G1 X114.804 Y130.634 E7.12405
G1 X114.264 Y130.756 E7.14247
G1 X114.082 Y130.792 E7.14864
G1 X113.787 Y130.846 E7.15861
G1 X113.52 Y130.891 E7.16762
G1 X113.253 Y130.932 E7.1766
G1 X112.607 Y131.024 E7.19831
G1 X112.037 Y131.09 E7.21739
G1 X111.763 Y131.114 E7.22654
G1 X111.3 Y131.145 E7.24197
G1 X111.068 Y131.157 E7.2497
G1 X110.424 Y131.182 E7.27113
G1 X109.816 Y131.188 E7.29136
G1 X109.601 Y131.184 E7.29851
G1 X109.346 Y131.176 E7.307
G1 X108.808 Y131.152 E7.32491
G1 X108.416 Y131.127 E7.33797
G1 X108.125 Y131.104 E7.34768
G1 X107.491 Y131.035 E7.36889
G1 X106.798 Y130.938 E7.39217
G1 X106.495 Y130.891 E7.40236
G1 X106.041 Y130.814 E7.41768
G1 X105.388 Y130.682 E7.43984
G1 X104.978 Y130.583 E7.45387
G1 X104.68 Y130.506 E7.4641
G1 X104.427 Y130.437 E7.47283
G1 X103.827 Y130.266 E7.49358
G1 X103.263 Y130.088 E7.51325
G1 X102.805 Y129.927 E7.52939
G1 X102.354 Y129.756 E7.54544
G1 X101.767 Y129.521 E7.56647
G1 X101.194 Y129.271 E7.58726
