;FLAVOR:Marlin
;TIME:1925
;Filament used: 0.798453m
;Layer height: 0.15
;MINX:77.696
;MINY:78.271
;MINZ:0.2
;MAXX:142.303
;MAXY:141.723
;MAXZ:3.95
;Generated with Cura_SteamEngine 4.9.0
M140 S60
M105
M190 S60
M104 S210
M105
M109 S210
M82 ;absolute extrusion mode
M201 X500.00 Y500.00 Z100.00 E5000.00 ;Setup machine max acceleration
M203 X500.00 Y500.00 Z10.00 E50.00 ;Setup machine max feedrate
M204 P500.00 R1000.00 T500.00 ;Setup Print/Retract/Travel acceleration
M205 X8.00 Y8.00 Z0.40 E5.00 ;Setup Jerk
M220 S100 ;Reset Feedrate
M221 S100 ;Reset Flowrate

G28 ;Home
G29 ;Auto Bed Leveling
M420 S1 Z2 ;Enable ABL using saved Mesh and Fade Height

G92 E0 ;Reset Extruder
G1 Z2.0 F3000 ;Move Z Axis up
G1 X10.1 Y20 Z0.28 F5000.0 ;Move to start position
G1 X10.1 Y200.0 Z0.28 F1500.0 E15 ;Draw the first line
G1 X10.4 Y200.0 Z0.28 F5000.0 ;Move to side a little
G1 X10.4 Y20 Z0.28 F1500.0 E30 ;Draw the second line
G92 E0 ;Reset Extruder
G1 Z2.0 F3000 ;Move Z Axis up
G92 E0
G92 E0
G1 F2700 E-5
;LAYER_COUNT:26
;LAYER:0
M107
G0 F6000 X82.223 Y86.004 Z0.2
;TYPE:SKIRT
G1 F2700 E0
G1 F600 X82.602 Y85.654 E0.01716
G1 X82.762 Y85.513 E0.02425
G1 X83.252 Y85.098 E0.04561
G1 X84.367 Y84.275 E0.0917
G1 X84.553 Y84.155 E0.09906
G1 X84.905 Y83.936 E0.11285
G1 X85.276 Y83.716 E0.1272
G1 X86.509 Y83.087 E0.17324
G1 X86.728 Y82.992 E0.18118
G1 X87.136 Y82.824 E0.19585
G1 X87.521 Y82.675 E0.20958
G1 X88.853 Y82.255 E0.25604
G1 X89.104 Y82.193 E0.26463
G1 X89.512 Y82.1 E0.27855
G1 X89.913 Y82.017 E0.29217
G1 X90.221 Y81.958 E0.3026
G1 X90.44 Y81.92 E0.31
G1 X92.915 Y81.513 E0.39342
G1 X95.385 Y81.034 E0.4771
G1 X97.82 Y80.49 E0.56009
G1 X100.323 Y79.855 E0.64598
G1 X102.223 Y79.336 E0.71148
G1 X102.502 Y79.264 E0.72107
G1 X103.395 Y79.046 E0.75164
G1 X104.027 Y78.903 E0.77319
G1 X104.737 Y78.75 E0.79735
G1 X105.658 Y78.592 E0.82843
G1 X106.452 Y78.492 E0.85505
G1 X107.274 Y78.399 E0.88256
G1 X107.897 Y78.337 E0.90339
G1 X108.412 Y78.298 E0.92056
G1 X108.866 Y78.282 E0.93567
G1 X109.725 Y78.271 E0.96425
G1 X110.281 Y78.271 E0.98274
G1 X111.137 Y78.282 E1.01121
G1 X112.037 Y78.332 E1.04119
G1 X112.92 Y78.419 E1.0707
G1 X113.654 Y78.504 E1.09528
G1 X114.34 Y78.591 E1.11828
G1 X115.282 Y78.753 E1.15007
G1 X116.075 Y78.925 E1.17706
G1 X116.781 Y79.088 E1.20116
G1 X117.514 Y79.267 E1.22625
G1 X117.822 Y79.347 E1.23684
G1 X119.026 Y79.678 E1.27837
G1 X119.239 Y79.728 E1.28564
G1 X119.91 Y79.918 E1.30884
G1 X122.397 Y80.542 E1.39412
G1 X124.814 Y81.075 E1.47644
G1 X127.273 Y81.545 E1.55971
G1 X129.066 Y81.843 E1.62016
G1 X129.525 Y81.915 E1.63562
G1 X129.869 Y81.975 E1.64723
G1 X130.128 Y82.024 E1.656
G1 X130.668 Y82.14 E1.67437
G1 X131.094 Y82.243 E1.68895
G1 X132.371 Y82.635 E1.73337
G1 X132.627 Y82.731 E1.74247
G1 X133.077 Y82.912 E1.7586
G1 X133.429 Y83.062 E1.77133
G1 X134.276 Y83.466 E1.80254
G1 X134.686 Y83.695 E1.81816
G1 X134.933 Y83.84 E1.82768
G1 X135.271 Y84.047 E1.84087
G1 X135.593 Y84.252 E1.85356
G1 X136.665 Y85.028 E1.89758
G1 X136.838 Y85.17 E1.90502
G1 X137.188 Y85.47 E1.92036
G1 X137.507 Y85.755 E1.93458
G1 X138.179 Y86.409 E1.96577
G1 X138.507 Y86.772 E1.98204
G1 X138.683 Y86.976 E1.99101
G1 X138.966 Y87.318 E2.00577
G1 X139.206 Y87.62 E2.0186
G1 X139.95 Y88.678 E2.06162
G1 X140.091 Y88.906 E2.07053
G1 X140.336 Y89.323 E2.08662
G1 X140.525 Y89.661 E2.0995
G1 X141.079 Y90.803 E2.14172
G1 X141.161 Y91 E2.14881
G1 X141.367 Y91.532 E2.16779
G1 X141.525 Y91.975 E2.18343
G1 X141.802 Y92.871 E2.21463
G1 X141.928 Y93.402 E2.23278
G1 X141.987 Y93.682 E2.24229
G1 X142.051 Y94.01 E2.25341
G1 X142.113 Y94.356 E2.2651
G1 X142.27 Y95.718 E2.3107
G1 X142.284 Y95.984 E2.31956
G1 X142.298 Y96.425 E2.33424
G1 X142.303 Y96.825 E2.34754
G1 X142.242 Y98.128 E2.39093
G1 X142.221 Y98.325 E2.39752
G1 X142.16 Y98.798 E2.41338
G1 X142.091 Y99.256 E2.42878
G1 X141.912 Y100.176 E2.45996
G1 X141.76 Y100.743 E2.47948
G1 X141.677 Y101.023 E2.48919
G1 X141.572 Y101.358 E2.50087
G1 X141.45 Y101.726 E2.51376
G1 X141.319 Y102.102 E2.52701
G1 X141.26 Y102.263 E2.53271
G1 X140.401 Y104.539 E2.61362
G1 X139.588 Y106.894 E2.69649
G1 X138.828 Y109.309 E2.78069
G1 X138.147 Y111.718 E2.86396
G1 X138.013 Y112.247 E2.88211
G1 X137.955 Y112.441 E2.88884
G1 X137.632 Y113.68 E2.93143
G1 X137.549 Y113.984 E2.94191
G1 X137.345 Y114.684 E2.96616
G1 X137.124 Y115.403 E2.99118
G1 X136.874 Y116.18 E3.01833
G1 X136.557 Y117.042 E3.04887
G1 X136.24 Y117.799 E3.07617
G1 X135.917 Y118.537 E3.10296
G1 X135.629 Y119.171 E3.12613
G1 X135.216 Y119.989 E3.1566
G1 X134.797 Y120.736 E3.18509
G1 X134.448 Y121.339 E3.20826
G1 X134.077 Y121.962 E3.23238
G1 X133.557 Y122.756 E3.26395
G1 X133.06 Y123.445 E3.2922
G1 X132.647 Y124.002 E3.31527
G1 X132.206 Y124.582 E3.3395
G1 X131.597 Y125.315 E3.3712
G1 X131.027 Y125.942 E3.39938
G1 X130.57 Y126.431 E3.42164
G1 X130.057 Y126.967 E3.44632
G1 X129.838 Y127.189 E3.45669
G1 X129.07 Y127.947 E3.49258
G1 X128.799 Y128.228 E3.50556
G1 X128.149 Y128.865 E3.53583
G1 X126.405 Y130.674 E3.61941
G1 X124.706 Y132.538 E3.7033
G1 X123.038 Y134.477 E3.78837
G1 X121.985 Y135.759 E3.84354
G1 X121.725 Y136.083 E3.85736
G1 X121.351 Y136.524 E3.87659
G1 X121.176 Y136.72 E3.88533
G1 X120.959 Y136.957 E3.89602
G1 X120.692 Y137.239 E3.90894
G1 X119.723 Y138.146 E3.95308
G1 X119.542 Y138.296 E3.9609
G1 X119.16 Y138.598 E3.9771
G1 X118.819 Y138.856 E3.99132
G1 X118.048 Y139.39 E4.02251
G1 X117.602 Y139.656 E4.03979
G1 X117.353 Y139.797 E4.0493
G1 X117.011 Y139.983 E4.06225
G1 X116.692 Y140.149 E4.07421
G1 X115.495 Y140.683 E4.11781
G1 X115.259 Y140.772 E4.12619
G1 X114.779 Y140.941 E4.14312
G1 X114.376 Y141.072 E4.15721
G1 X113.033 Y141.417 E4.20333
G1 X112.802 Y141.461 E4.21115
G1 X112.413 Y141.528 E4.22428
G1 X111.996 Y141.592 E4.23832
G1 X111.063 Y141.694 E4.26953
G1 X110.589 Y141.716 E4.28531
G1 X110.337 Y141.722 E4.2937
G1 X109.889 Y141.723 E4.3086
G1 X109.474 Y141.716 E4.3224
G1 X108.104 Y141.607 E4.36811
G1 X107.894 Y141.577 E4.37517
G1 X107.491 Y141.512 E4.38875
G1 X107.06 Y141.434 E4.40331
G1 X105.73 Y141.107 E4.44887
G1 X105.513 Y141.039 E4.45643
G1 X105.078 Y140.892 E4.4717
G1 X104.675 Y140.747 E4.48595
G1 X103.414 Y140.203 E4.53163
G1 X103.176 Y140.082 E4.54051
G1 X102.779 Y139.869 E4.55549
G1 X102.435 Y139.676 E4.56861
G1 X101.637 Y139.183 E4.59981
G1 X101.205 Y138.874 E4.61747
G1 X100.979 Y138.704 E4.62688
G1 X100.727 Y138.508 E4.6375
G1 X100.434 Y138.274 E4.64997
G1 X99.442 Y137.379 E4.69441
G1 X99.294 Y137.228 E4.70144
G1 X98.941 Y136.85 E4.71864
G1 X98.644 Y136.517 E4.73348
G1 X98.358 Y136.183 E4.74811
G1 X96.59 Y134.034 E4.84066
G1 X94.959 Y132.162 E4.92324
G1 X93.227 Y130.284 E5.00822
G1 X91.459 Y128.473 E5.09239
G1 X91.15 Y128.17 E5.10679
G1 X90.151 Y127.179 E5.15359
G1 X89.949 Y126.973 E5.16319
G1 X89.338 Y126.333 E5.19262
G1 X88.877 Y125.836 E5.21516
G1 X88.38 Y125.287 E5.23979
G1 X87.784 Y124.569 E5.27083
G1 X87.289 Y123.918 E5.29803
G1 X86.876 Y123.356 E5.32123
G1 X86.432 Y122.738 E5.34654
G1 X85.909 Y121.939 E5.3783
G1 X85.494 Y121.239 E5.40536
G1 X85.124 Y120.598 E5.42998
G1 X84.785 Y119.992 E5.45308
G1 X84.358 Y119.146 E5.48459
G1 X83.992 Y118.331 E5.51431
G1 X83.699 Y117.654 E5.53885
G1 X83.446 Y117.049 E5.56066
G1 X83.122 Y116.172 E5.59175
G1 X82.861 Y115.356 E5.62025
G1 X82.674 Y114.743 E5.64156
G1 X82.454 Y113.991 E5.66762
G1 X82.368 Y113.68 E5.67836
G1 X81.948 Y112.073 E5.7336
G1 X81.265 Y109.624 E5.81816
G1 X80.527 Y107.245 E5.90101
G1 X79.703 Y104.831 E5.98585
G1 X78.871 Y102.594 E6.06523
G1 X78.721 Y102.205 E6.0791
G1 X78.58 Y101.818 E6.09279
G1 X78.516 Y101.632 E6.09934
G1 X78.376 Y101.199 E6.11447
G1 X78.242 Y100.75 E6.13006
G1 X78.013 Y99.84 E6.16127
G1 X77.909 Y99.265 E6.1807
G1 X77.865 Y98.977 E6.19039
G1 X77.821 Y98.66 E6.20104
G1 X77.78 Y98.327 E6.2122
G1 X77.698 Y97.07 E6.25409
G1 X77.696 Y96.816 E6.26254
G1 X77.705 Y96.277 E6.28047
G1 X77.722 Y95.864 E6.29422
G1 X77.846 Y94.608 E6.3362
G1 X77.879 Y94.398 E6.34327
G1 X77.98 Y93.849 E6.36183
G1 X78.076 Y93.391 E6.3774
G1 X78.307 Y92.482 E6.40859
G1 X78.481 Y91.954 E6.42708
G1 X78.568 Y91.71 E6.4357
G1 X78.685 Y91.397 E6.44681
G1 X78.827 Y91.034 E6.45978
G1 X79.367 Y89.862 E6.5027
G1 X79.47 Y89.669 E6.50997
G1 X79.728 Y89.211 E6.52746
G1 X79.95 Y88.839 E6.54187
G1 X80.718 Y87.717 E6.58709
G1 X80.88 Y87.509 E6.59586
G1 X81.163 Y87.16 E6.6108
G1 X81.417 Y86.86 E6.62388
G1 X82.16 Y86.065 E6.66007
G1 X82.223 Y86.004 E6.66298
G0 F6000 X82.502 Y86.292
G1 F600 X82.867 Y85.954 E6.67953
G1 X83.214 Y85.652 E6.69483
G1 X83.509 Y85.404 E6.70765
G1 X84.583 Y84.611 E6.75205
G1 X84.769 Y84.491 E6.75941
G1 X85.109 Y84.281 E6.77271
G1 X85.48 Y84.061 E6.78705
G1 X86.669 Y83.454 E6.83145
G1 X86.888 Y83.359 E6.83939
G1 X87.28 Y83.197 E6.8535
G1 X87.665 Y83.048 E6.86723
G1 X88.949 Y82.643 E6.91201
G1 X89.2 Y82.581 E6.92061
G1 X89.594 Y82.492 E6.93404
G1 X90.213 Y82.366 E6.95506
G1 X90.505 Y82.314 E6.96492
G1 X92.991 Y81.905 E7.04872
G1 X95.47 Y81.424 E7.13271
G1 X97.933 Y80.874 E7.21664
G1 X100.43 Y80.241 E7.30232
G1 X102.328 Y79.722 E7.36777
G1 X102.597 Y79.652 E7.37701
G1 X103.484 Y79.436 E7.40737
G1 X104.111 Y79.294 E7.42876
G1 X104.821 Y79.141 E7.45291
G1 X105.709 Y78.989 E7.48288
G1 X106.497 Y78.889 E7.5093
G1 X107.313 Y78.797 E7.53661
G1 X107.936 Y78.735 E7.55743
G1 X108.434 Y78.697 E7.57404
G1 X108.871 Y78.682 E7.58859
G1 X109.725 Y78.671 E7.61699
G1 X110.281 Y78.671 E7.63549
G1 X111.131 Y78.682 E7.66376
G1 X111.999 Y78.73 E7.69267
G1 X112.682 Y78.796 E7.7155
G1 X113.604 Y78.901 E7.74636
G1 X114.29 Y78.988 E7.76936
G1 X115.197 Y79.144 E7.79997
G1 X115.986 Y79.315 E7.82682
G1 X116.686 Y79.477 E7.85072
G1 X117.419 Y79.656 E7.87582
G1 X117.716 Y79.733 E7.88602
G1 X118.785 Y80.027 E7.9229
G1 X119.13 Y80.113 E7.93472
G1 X119.808 Y80.305 E7.95816
G1 X122.279 Y80.925 E8.04289
G1 X124.725 Y81.464 E8.1262
G1 X127.259 Y81.948 E8.212
G1 X128.939 Y82.228 E8.26865
G1 X129.463 Y82.31 E8.28629
G1 X129.794 Y82.368 E8.29747
G1 X130.053 Y82.417 E8.30623
G1 X130.574 Y82.529 E8.32396
G1 X131 Y82.632 E8.33854
G1 X132.231 Y83.01 E8.38137
G1 X132.487 Y83.106 E8.39046
G1 X132.92 Y83.279 E8.40597
G1 X133.272 Y83.429 E8.41869
G1 X134.483 Y84.04 E8.46381
G1 X134.73 Y84.185 E8.47334
G1 X135.057 Y84.384 E8.48607
G1 X135.379 Y84.589 E8.49876
G1 X136.411 Y85.338 E8.54117
G1 X136.584 Y85.48 E8.54862
G1 X136.921 Y85.768 E8.56336
G1 X137.24 Y86.053 E8.57759
G1 X138.204 Y87.034 E8.62334
G1 X138.38 Y87.238 E8.6323
G1 X138.653 Y87.567 E8.64652
G1 X138.893 Y87.869 E8.65935
G1 X139.609 Y88.889 E8.7008
G1 X139.75 Y89.117 E8.70971
G1 X139.987 Y89.519 E8.72523
G1 X140.176 Y89.857 E8.73811
G1 X140.71 Y90.957 E8.77878
G1 X140.792 Y91.154 E8.78588
G1 X140.99 Y91.666 E8.80414
G1 X141.148 Y92.109 E8.81978
G1 X141.419 Y92.989 E8.85041
G1 X141.536 Y93.484 E8.86732
G1 X141.595 Y93.764 E8.87684
G1 X141.657 Y94.08 E8.88755
G1 X141.719 Y94.426 E8.89924
G1 X141.87 Y95.739 E8.9432
G1 X141.884 Y96.005 E8.95206
G1 X141.898 Y96.43 E8.9662
G1 X141.903 Y96.83 E8.97951
G1 X141.844 Y98.086 E9.02133
G1 X141.823 Y98.283 E9.02792
G1 X141.765 Y98.738 E9.04318
G1 X141.696 Y99.196 E9.05858
G1 X141.519 Y100.1 E9.08922
G1 X141.377 Y100.63 E9.10747
G1 X141.294 Y100.91 E9.11718
G1 X141.192 Y101.233 E9.12845
G1 X141.07 Y101.601 E9.14134
G1 X140.943 Y101.966 E9.1542
G1 X140.035 Y104.374 E9.23979
G1 X139.2 Y106.792 E9.32487
G1 X138.447 Y109.186 E9.40835
G1 X137.758 Y111.625 E9.49264
G1 X137.625 Y112.148 E9.51059
G1 X137.572 Y112.325 E9.51674
G1 X137.245 Y113.579 E9.55984
G1 X137.165 Y113.872 E9.56994
G1 X136.92 Y114.708 E9.59892
G1 X136.744 Y115.281 E9.61885
G1 X136.494 Y116.058 E9.646
G1 X136.188 Y116.888 E9.67542
G1 X135.938 Y117.488 E9.69704
G1 X135.553 Y118.372 E9.72911
G1 X135.265 Y119.006 E9.75227
G1 X134.867 Y119.794 E9.78163
G1 X134.451 Y120.536 E9.80993
G1 X134.104 Y121.135 E9.83295
G1 X133.733 Y121.758 E9.85707
G1 X133.232 Y122.522 E9.88746
G1 X132.738 Y123.208 E9.91557
G1 X132.329 Y123.76 E9.93842
G1 X131.888 Y124.34 E9.96266
G1 X131.301 Y125.046 E9.99319
G1 X130.734 Y125.669 E10.02121
G1 X130.281 Y126.154 E10.04328
G1 X129.768 Y126.69 E10.06796
G1 X129.557 Y126.904 E10.07796
G1 X128.637 Y127.812 E10.12095
G1 X128.519 Y127.942 E10.12679
G1 X127.864 Y128.584 E10.15729
G1 X126.121 Y130.392 E10.24082
G1 X124.408 Y132.271 E10.32539
G1 X122.747 Y134.201 E10.41008
G1 X121.6 Y135.599 E10.47023
G1 X121.413 Y135.832 E10.48016
G1 X121.053 Y136.258 E10.49871
G1 X120.878 Y136.454 E10.50745
G1 X120.668 Y136.682 E10.51776
G1 X120.401 Y136.964 E10.53068
G1 X119.468 Y137.838 E10.5732
G1 X119.287 Y137.988 E10.58102
G1 X118.919 Y138.279 E10.59662
G1 X118.578 Y138.537 E10.61085
G1 X117.82 Y139.06 E10.64148
G1 X117.405 Y139.308 E10.65756
G1 X117.156 Y139.449 E10.66707
G1 X116.826 Y139.628 E10.67956
G1 X116.507 Y139.794 E10.69152
G1 X115.354 Y140.309 E10.73352
G1 X115.118 Y140.398 E10.74191
G1 X114.655 Y140.561 E10.75824
G1 X114.252 Y140.692 E10.77233
G1 X112.958 Y141.024 E10.81676
G1 X112.727 Y141.068 E10.82458
G1 X112.352 Y141.132 E10.83724
G1 X111.935 Y141.196 E10.85127
G1 X110.579 Y141.316 E10.89655
G1 X110.327 Y141.322 E10.90493
G1 X109.896 Y141.323 E10.91926
G1 X109.481 Y141.316 E10.93307
G1 X108.161 Y141.211 E10.97711
G1 X107.951 Y141.181 E10.98417
G1 X107.562 Y141.119 E10.99727
G1 X107.131 Y141.041 E11.01184
G1 X105.849 Y140.725 E11.05575
G1 X105.632 Y140.657 E11.06332
G1 X105.213 Y140.516 E11.07802
G1 X104.81 Y140.371 E11.09226
G1 X103.595 Y139.846 E11.13629
G1 X103.357 Y139.725 E11.14517
G1 X102.974 Y139.52 E11.15962
G1 X102.63 Y139.327 E11.17273
G1 X101.848 Y138.843 E11.20332
G1 X101.445 Y138.554 E11.21982
G1 X101.219 Y138.384 E11.22922
G1 X100.976 Y138.196 E11.23944
G1 X100.683 Y137.962 E11.25191
G1 X99.728 Y137.099 E11.29472
G1 X99.58 Y136.948 E11.30176
G1 X99.239 Y136.584 E11.31835
G1 X98.942 Y136.251 E11.33319
G1 X98.667 Y135.929 E11.34727
G1 X96.902 Y133.784 E11.43966
G1 X95.238 Y131.873 E11.52394
G1 X93.525 Y130.015 E11.60799
G1 X91.766 Y128.214 E11.69173
G1 X91.432 Y127.886 E11.7073
G1 X90.433 Y126.895 E11.7541
G1 X90.238 Y126.697 E11.76334
G1 X89.631 Y126.061 E11.79258
G1 X89.174 Y125.568 E11.81494
G1 X88.677 Y125.019 E11.83957
G1 X88.102 Y124.327 E11.8695
G1 X87.611 Y123.681 E11.89648
G1 X87.2 Y123.123 E11.91953
G1 X86.756 Y122.505 E11.94484
G1 X86.252 Y121.735 E11.97545
G1 X85.84 Y121.039 E12.00235
G1 X85.473 Y120.403 E12.02678
G1 X85.134 Y119.797 E12.04987
G1 X84.723 Y118.981 E12.08026
G1 X84.359 Y118.172 E12.10976
G1 X84.068 Y117.5 E12.13412
G1 X83.815 Y116.895 E12.15593
G1 X83.503 Y116.049 E12.18592
G1 X83.243 Y115.238 E12.21425
G1 X83.057 Y114.63 E12.2354
G1 X82.837 Y113.878 E12.26146
G1 X82.755 Y113.579 E12.27177
G1 X82.336 Y111.976 E12.32688
G1 X81.646 Y109.504 E12.41224
G1 X80.902 Y107.103 E12.49584
G1 X80.081 Y104.699 E12.58033
G1 X79.258 Y102.485 E12.65889
G1 X79.094 Y102.061 E12.67401
G1 X78.958 Y101.688 E12.68722
G1 X78.894 Y101.502 E12.69376
G1 X78.76 Y101.084 E12.70836
G1 X78.626 Y100.635 E12.72395
G1 X78.401 Y99.743 E12.75454
G1 X78.305 Y99.205 E12.77272
G1 X78.261 Y98.917 E12.78241
G1 X78.218 Y98.611 E12.79269
G1 X78.177 Y98.278 E12.80385
G1 X78.098 Y97.066 E12.84424
G1 X78.096 Y96.812 E12.85269
G1 X78.105 Y96.293 E12.86996
G1 X78.122 Y95.88 E12.8837
G1 X78.242 Y94.67 E12.92415
G1 X78.275 Y94.46 E12.93122
G1 X78.371 Y93.931 E12.9491
G1 X78.467 Y93.473 E12.96466
G1 X78.695 Y92.581 E12.99529
G1 X78.858 Y92.088 E13.01256
G1 X78.945 Y91.844 E13.02117
G1 X79.057 Y91.542 E13.03188
G1 X79.199 Y91.179 E13.04485
G1 X79.719 Y90.05 E13.08619
G1 X79.822 Y89.857 E13.09347
G1 X80.072 Y89.416 E13.11033
G1 X80.294 Y89.044 E13.12474
G1 X81.033 Y87.963 E13.16829
G1 X81.195 Y87.755 E13.17706
G1 X81.468 Y87.419 E13.19146
G1 X81.722 Y87.119 E13.20453
G1 X82.439 Y86.353 E13.23943
G1 X82.502 Y86.292 E13.24234
G0 F6000 X82.78 Y86.579
G1 F600 X83.131 Y86.254 E13.25825
G1 X83.471 Y85.958 E13.27325
G1 X83.766 Y85.71 E13.28607
G1 X84.8 Y84.947 E13.32881
G1 X84.986 Y84.827 E13.33617
G1 X85.313 Y84.625 E13.34895
G1 X85.684 Y84.405 E13.3633
G1 X86.828 Y83.82 E13.40604
G1 X87.047 Y83.725 E13.41397
G1 X87.425 Y83.571 E13.42755
G1 X87.81 Y83.422 E13.44128
G1 X89.045 Y83.032 E13.48436
G1 X89.296 Y82.97 E13.49296
G1 X89.675 Y82.884 E13.50588
