;FLAVOR:Marlin
;TIME:20471
;Filament used: 11.9201m
;Layer height: 0.15
;MINX:26
;MINY:25
;MINZ:0.2
;MAXX:194
;MAXY:195
;MAXZ:26.9
;Generated with Cura_SteamEngine 4.9.0
M140 S60
M105
M190 S60
M104 S210
M105
M109 S210
M82 ;absolute extrusion mode
M201 X500.00 Y500.00 Z100.00 E5000.00 ;Setup machine max acceleration
M203 X500.00 Y500.00 Z10.00 E50.00 ;Setup machine max feedrate
M204 P500.00 R1000.00 T500.00 ;Setup Print/Retract/Travel acceleration
M205 X8.00 Y8.00 Z0.40 E5.00 ;Setup Jerk
M220 S100 ;Reset Feedrate
M221 S100 ;Reset Flowrate

G28 ;Home
G29 ;Auto Bed Leveling
M420 S1 Z2 ;Enable ABL using saved Mesh and Fade Height

G92 E0 ;Reset Extruder
G1 Z2.0 F3000 ;Move Z Axis up
G1 X10.1 Y20 Z0.28 F5000.0 ;Move to start position
G1 X10.1 Y200.0 Z0.28 F1500.0 E15 ;Draw the first line
G1 X10.4 Y200.0 Z0.28 F5000.0 ;Move to side a little
G1 X10.4 Y20 Z0.28 F1500.0 E30 ;Draw the second line
G92 E0 ;Reset Extruder
G1 Z2.0 F3000 ;Move Z Axis up
G92 E0
G92 E0
G1 F2700 E-5
;LAYER_COUNT:179
;LAYER:0
M107
G0 F6000 X29.198 Y28.264 Z0.2
;TYPE:SKIRT
G1 F2700 E0
G1 F600 X29.886 Y27.627 E0.03119
G1 X30.626 Y27.051 E0.06237
G1 X31.412 Y26.539 E0.09357
G1 X32.239 Y26.097 E0.12476
G1 X33.101 Y25.727 E0.15596
G1 X33.991 Y25.431 E0.18716
G1 X34.903 Y25.213 E0.21835
G1 X35.83 Y25.072 E0.24953
G1 X36.701 Y25.013 E0.27857
G1 X37.022 Y25.004 E0.28925
G1 X37.33 Y25 E0.29949
G1 X182.293 Y25 E5.12098
G1 X183.149 Y25.011 E5.14946
G1 X184.085 Y25.065 E5.18064
G1 X185.013 Y25.197 E5.21182
G1 X185.927 Y25.409 E5.24302
G1 X186.819 Y25.698 E5.27421
G1 X187.684 Y26.061 E5.30541
G1 X188.514 Y26.497 E5.33659
G1 X189.305 Y27.002 E5.36781
G1 X190.049 Y27.573 E5.399
G1 X190.742 Y28.205 E5.43019
G1 X191.379 Y28.893 E5.46138
G1 X191.954 Y29.634 E5.49257
G1 X192.465 Y30.42 E5.52376
G1 X192.907 Y31.248 E5.55497
G1 X193.276 Y32.11 E5.58616
G1 X193.571 Y33 E5.61735
G1 X193.789 Y33.912 E5.64853
G1 X193.929 Y34.84 E5.67975
G1 X193.987 Y35.701 E5.70845
G1 X193.996 Y36.021 E5.7191
G1 X194 Y36.33 E5.72938
G1 X193.999 Y51.415 E6.2311
G1 X193.989 Y52.143 E6.25532
G1 X193.936 Y53.079 E6.2865
G1 X193.804 Y54.008 E6.31771
G1 X193.593 Y54.922 E6.34891
G1 X193.305 Y55.814 E6.38009
G1 X192.941 Y56.679 E6.4113
G1 X192.506 Y57.51 E6.4425
G1 X192.001 Y58.3 E6.47368
G1 X191.431 Y59.045 E6.50488
G1 X190.8 Y59.738 E6.53605
G1 X190.112 Y60.375 E6.56724
G1 X189.372 Y60.952 E6.59845
G1 X188.585 Y61.463 E6.62966
G1 X187.758 Y61.905 E6.66085
G1 X186.685 Y62.353 E6.69952
G1 X185.261 Y62.86 E6.7498
G1 X184.984 Y62.955 E6.75954
G1 X182.603 Y63.848 E6.84411
G1 X180.262 Y64.802 E6.92819
G1 X177.979 Y65.808 E7.01117
G1 X175.704 Y66.888 E7.09493
G1 X173.433 Y68.046 E7.17972
G1 X171.251 Y69.237 E7.2624
G1 X169.067 Y70.512 E7.34651
G1 X166.933 Y71.839 E7.43009
G1 X164.835 Y73.228 E7.51378
G1 X162.777 Y74.675 E7.59745
G1 X160.766 Y76.176 E7.68092
G1 X158.787 Y77.742 E7.76485
G1 X156.851 Y79.366 E7.8489
G1 X154.958 Y81.047 E7.9331
G1 X153.164 Y82.731 E8.01494
G1 X151.335 Y84.552 E8.10079
G1 X149.636 Y86.339 E8.1828
G1 X147.926 Y88.245 E8.26796
G1 X146.306 Y90.155 E8.35126
G1 X144.748 Y92.102 E8.4342
G1 X143.222 Y94.122 E8.5184
G1 X141.76 Y96.177 E8.60229
G1 X140.367 Y98.256 E8.68552
G1 X139.018 Y100.399 E8.76974
G1 X137.744 Y102.558 E8.85312
G1 X136.518 Y104.774 E8.93735
G1 X135.369 Y106.996 E9.02055
G1 X134.272 Y109.273 E9.10462
G1 X133.241 Y111.582 E9.18872
G1 X132.283 Y113.897 E9.27205
G1 X131.373 Y116.282 E9.35696
G1 X130.572 Y118.587 E9.43812
G1 X129.791 Y121.047 E9.52396
G1 X129.103 Y123.448 E9.60704
G1 X128.483 Y125.874 E9.69032
G1 X127.925 Y128.336 E9.77428
G1 X127.441 Y130.797 E9.8577
G1 X127.023 Y133.293 E9.94188
G1 X126.678 Y135.788 E10.02565
G1 X126.403 Y138.285 E10.1092
G1 X126.202 Y140.77 E10.19212
G1 X126.068 Y143.293 E10.27616
G1 X126 Y146.848 E10.39442
G1 X125.999 Y183.415 E11.61064
G1 X125.989 Y184.142 E11.63482
G1 X125.936 Y185.079 E11.66604
G1 X125.804 Y186.007 E11.69721
G1 X125.593 Y186.921 E11.72841
G1 X125.304 Y187.813 E11.7596
G1 X124.941 Y188.678 E11.7908
G1 X124.506 Y189.509 E11.822
G1 X124.001 Y190.299 E11.85318
G1 X123.431 Y191.044 E11.88438
G1 X122.8 Y191.738 E11.91558
G1 X122.111 Y192.375 E11.94679
G1 X121.371 Y192.951 E11.97798
G1 X120.585 Y193.462 E12.00916
G1 X119.758 Y193.904 E12.04035
G1 X118.896 Y194.274 E12.07155
G1 X118.006 Y194.569 E12.10273
G1 X117.094 Y194.788 E12.13393
G1 X116.167 Y194.928 E12.16511
G1 X115.299 Y194.987 E12.19405
G1 X114.979 Y194.996 E12.2047
G1 X114.67 Y195 E12.21497
G1 X105.565 Y194.999 E12.51781
G1 X104.867 Y194.99 E12.54102
G1 X103.931 Y194.938 E12.5722
G1 X103.002 Y194.806 E12.60341
G1 X102.088 Y194.596 E12.6346
G1 X101.195 Y194.309 E12.6658
G1 X100.33 Y193.946 E12.697
G1 X99.499 Y193.512 E12.72818
G1 X98.708 Y193.008 E12.75938
G1 X97.963 Y192.438 E12.79058
G1 X97.269 Y191.807 E12.82178
G1 X96.632 Y191.12 E12.85294
G1 X96.055 Y190.38 E12.88415
G1 X95.543 Y189.594 E12.91535
G1 X95.1 Y188.767 E12.94655
G1 X94.729 Y187.906 E12.97773
G1 X94.433 Y187.016 E13.00893
G1 X94.214 Y186.104 E13.04012
G1 X94.073 Y185.177 E13.07131
G1 X94.013 Y184.288 E13.10095
G1 X94.004 Y183.955 E13.11203
G1 X94 Y183.658 E13.12191
G1 X94 Y146.816 E14.34728
G1 X93.963 Y144.208 E14.43403
G1 X93.856 Y141.686 E14.51798
G1 X93.679 Y139.191 E14.60118
G1 X93.431 Y136.692 E14.6847
G1 X93.113 Y134.203 E14.76816
G1 X92.719 Y131.694 E14.85263
G1 X92.26 Y129.228 E14.93606
G1 X91.726 Y126.745 E15.02053
G1 X91.139 Y124.35 E15.10255
G1 X90.461 Y121.884 E15.18761
G1 X89.732 Y119.504 E15.2704
G1 X88.921 Y117.101 E15.35475
G1 X88.041 Y114.713 E15.4394
G1 X87.117 Y112.414 E15.52181
G1 X86.109 Y110.098 E15.60582
G1 X85.04 Y107.817 E15.68961
G1 X83.897 Y105.547 E15.77414
G1 X82.721 Y103.37 E15.85643
G1 X81.448 Y101.163 E15.94117
G1 X80.124 Y99.01 E16.02524
G1 X78.761 Y96.929 E16.10798
G1 X77.324 Y94.866 E16.1916
G1 X75.819 Y92.83 E16.27581
G1 X74.266 Y90.847 E16.35958
G1 X72.655 Y88.907 E16.44346
G1 X71.002 Y87.028 E16.52669
G1 X69.285 Y85.182 E16.61054
G1 X67.516 Y83.386 E16.69439
G1 X65.711 Y81.654 E16.77759
G1 X63.826 Y79.947 E16.86217
G1 X61.903 Y78.3 E16.94639
G1 X59.965 Y76.734 E17.02926
G1 X57.97 Y75.212 E17.11272
G1 X55.925 Y73.741 E17.1965
G1 X53.836 Y72.328 E17.28038
G1 X51.707 Y70.973 E17.36432
G1 X49.544 Y69.682 E17.4481
G1 X47.371 Y68.465 E17.53094
G1 X45.126 Y67.291 E17.6152
G1 X42.845 Y66.18 E17.69959
G1 X40.578 Y65.153 E17.78237
G1 X38.248 Y64.176 E17.8664
G1 X35.881 Y63.26 E17.95082
G1 X33.358 Y62.369 E18.03981
G1 X32.925 Y62.205 E18.05521
G1 X32.07 Y61.82 E18.0864
G1 X31.25 Y61.364 E18.1176
G1 X30.473 Y60.839 E18.14879
G1 X29.743 Y60.25 E18.17999
G1 X29.066 Y59.601 E18.21118
G1 X28.447 Y58.896 E18.24239
G1 X27.89 Y58.142 E18.27357
G1 X27.399 Y57.343 E18.30476
G1 X26.978 Y56.505 E18.33595
G1 X26.63 Y55.634 E18.36715
G1 X26.358 Y54.736 E18.39835
G1 X26.163 Y53.819 E18.42953
G1 X26.047 Y52.888 E18.46074
G1 X26.015 Y52.333 E18.47923
G1 X26.005 Y52.011 E18.48994
G1 X26 Y51.67 E18.50129
G1 X26.001 Y36.525 E19.00501
G1 X26.01 Y35.86 E19.02713
G1 X26.063 Y34.924 E19.05831
G1 X26.195 Y33.995 E19.08952
G1 X26.406 Y33.081 E19.12072
G1 X26.694 Y32.189 E19.1519
G1 X27.057 Y31.324 E19.1831
G1 X27.492 Y30.493 E19.2143
G1 X27.996 Y29.703 E19.24546
G1 X28.566 Y28.958 E19.27666
G1 X29.198 Y28.264 E19.30788
G0 F6000 X29.589 Y28.439
G1 F600 X30.274 Y27.823 E19.33852
G1 X31.01 Y27.27 E19.36914
G1 X31.791 Y26.782 E19.39977
G1 X32.611 Y26.364 E19.43038
G1 X33.465 Y26.019 E19.46102
G1 X34.345 Y25.749 E19.49163
G1 X35.245 Y25.557 E19.52224
G1 X36.159 Y25.443 E19.55288
G1 X36.712 Y25.413 E19.5713
G1 X37.033 Y25.404 E19.58198
G1 X37.33 Y25.4 E19.59186
G1 X182.293 Y25.4 E24.41335
G1 X183.143 Y25.411 E24.44162
G1 X184.062 Y25.464 E24.47224
G1 X184.973 Y25.597 E24.50286
G1 X185.869 Y25.808 E24.53347
G1 X186.743 Y26.096 E24.56408
G1 X187.59 Y26.459 E24.59473
G1 X188.401 Y26.894 E24.62534
G1 X189.171 Y27.398 E24.65595
G1 X189.895 Y27.967 E24.68658
G1 X190.567 Y28.597 E24.71721
G1 X191.182 Y29.282 E24.74783
G1 X191.735 Y30.018 E24.77845
G1 X192.222 Y30.799 E24.80906
G1 X192.639 Y31.62 E24.83969
G1 X192.984 Y32.474 E24.87032
G1 X193.253 Y33.354 E24.90093
G1 X193.445 Y34.255 E24.93157
G1 X193.558 Y35.168 E24.96217
G1 X193.587 Y35.712 E24.98029
G1 X193.596 Y36.032 E24.99093
G1 X193.6 Y36.33 E25.00085
G1 X193.599 Y51.41 E25.50241
G1 X193.589 Y52.138 E25.52663
G1 X193.536 Y53.057 E25.55724
G1 X193.404 Y53.968 E25.58786
G1 X193.193 Y54.864 E25.61847
G1 X192.906 Y55.739 E25.6491
G1 X192.543 Y56.585 E25.67972
G1 X192.109 Y57.397 E25.71034
G1 X191.605 Y58.167 E25.74095
G1 X191.037 Y58.892 E25.77159
G1 X190.408 Y59.564 E25.8022
G1 X189.723 Y60.179 E25.83282
G1 X188.987 Y60.732 E25.86344
G1 X188.206 Y61.22 E25.89407
G1 X187.386 Y61.638 E25.92468
G1 X186.55 Y61.976 E25.95467
G1 X185.13 Y62.482 E26.00481
G1 X184.828 Y62.586 E26.01543
G1 X182.46 Y63.474 E26.09955
G1 X180.116 Y64.429 E26.18373
G1 X177.809 Y65.446 E26.26759
G1 X175.515 Y66.534 E26.35204
G1 X173.281 Y67.674 E26.43545
G1 X171.065 Y68.884 E26.51943
G1 X168.86 Y70.171 E26.60435
G1 X166.707 Y71.509 E26.68866
G1 X164.606 Y72.9 E26.77246
G1 X162.53 Y74.359 E26.85686
G1 X160.529 Y75.853 E26.93992
G1 X158.523 Y77.441 E27.02501
G1 X156.592 Y79.061 E27.10885
G1 X154.703 Y80.737 E27.19284
G1 X152.873 Y82.456 E27.27635
G1 X151.063 Y84.258 E27.36129
G1 X149.331 Y86.079 E27.44488
G1 X147.64 Y87.965 E27.52913
G1 X145.99 Y89.909 E27.61394
G1 X144.432 Y91.856 E27.69688
G1 X142.893 Y93.895 E27.78185
G1 X141.429 Y95.952 E27.86582
G1 X140.029 Y98.043 E27.94952
G1 X138.678 Y100.189 E28.03386
G1 X137.399 Y102.355 E28.11752
G1 X136.155 Y104.602 E28.20295
G1 X135.01 Y106.817 E28.28588
G1 X133.918 Y109.086 E28.36963
G1 X132.87 Y111.432 E28.45509
G1 X131.916 Y113.738 E28.53809
G1 X130.997 Y116.145 E28.62379
G1 X130.184 Y118.484 E28.70615
G1 X129.418 Y120.898 E28.79038
G1 X128.72 Y123.335 E28.8747
G1 X128.091 Y125.793 E28.95909
G1 X127.536 Y128.243 E29.04264
G1 X127.041 Y130.76 E29.12796
G1 X126.631 Y133.209 E29.21054
G1 X126.283 Y135.726 E29.29506
G1 X126.004 Y138.256 E29.37971
G1 X125.802 Y140.753 E29.46304
G1 X125.669 Y143.265 E29.5467
G1 X125.6 Y146.84 E29.66563
G1 X125.599 Y183.41 E30.88195
G1 X125.589 Y184.137 E30.90614
G1 X125.536 Y185.056 E30.93675
G1 X125.404 Y185.967 E30.96737
G1 X125.193 Y186.863 E30.99799
G1 X124.906 Y187.738 E31.02861
G1 X124.543 Y188.584 E31.05923
G1 X124.109 Y189.396 E31.08985
G1 X123.605 Y190.167 E31.12049
G1 X123.037 Y190.891 E31.1511
G1 X122.408 Y191.563 E31.18171
G1 X121.723 Y192.178 E31.21233
G1 X120.987 Y192.731 E31.24295
G1 X120.206 Y193.219 E31.27358
G1 X119.386 Y193.637 E31.30419
G1 X118.532 Y193.982 E31.33483
G1 X117.652 Y194.251 E31.36543
G1 X116.751 Y194.444 E31.39608
G1 X115.838 Y194.557 E31.42668
G1 X115.288 Y194.587 E31.445
G1 X114.968 Y194.596 E31.45565
G1 X114.67 Y194.6 E31.46556
G1 X105.57 Y194.599 E31.76823
G1 X104.872 Y194.59 E31.79144
G1 X103.953 Y194.538 E31.82206
G1 X103.042 Y194.407 E31.85267
G1 X102.146 Y194.197 E31.88328
G1 X101.271 Y193.91 E31.91391
G1 X100.424 Y193.548 E31.94454
G1 X99.612 Y193.114 E31.97517
G1 X98.841 Y192.612 E32.00577
G1 X98.116 Y192.044 E32.0364
G1 X97.443 Y191.415 E32.06704
G1 X96.828 Y190.731 E32.09763
G1 X96.274 Y189.996 E32.12824
G1 X95.786 Y189.215 E32.15887
G1 X95.367 Y188.395 E32.1895
G1 X95.021 Y187.542 E32.22012
G1 X94.751 Y186.662 E32.25073
G1 X94.558 Y185.761 E32.28138
G1 X94.444 Y184.848 E32.31198
G1 X94.413 Y184.277 E32.331
G1 X94.404 Y183.944 E32.34208
G1 X94.4 Y183.658 E32.35159
G1 X94.4 Y146.81 E33.57716
G1 X94.363 Y144.185 E33.66448
G1 X94.256 Y141.677 E33.74797
G1 X94.078 Y139.156 E33.83203
G1 X93.828 Y136.638 E33.91619
G1 X93.507 Y134.127 E34.00039
G1 X93.12 Y131.665 E34.08328
G1 X92.651 Y129.143 E34.1686
G1 X92.119 Y126.671 E34.2527
G1 X91.519 Y124.221 E34.3366
G1 X90.852 Y121.798 E34.42018
G1 X90.107 Y119.364 E34.50485
G1 X89.289 Y116.939 E34.58997
G1 X88.428 Y114.604 E34.67274
G1 X87.479 Y112.242 E34.7574
G1 X86.48 Y109.947 E34.84065
G1 X85.388 Y107.618 E34.92621
G1 X84.263 Y105.383 E35.00943
G1 X83.062 Y103.159 E35.0935
G1 X81.793 Y100.959 E35.17797
G1 X80.482 Y98.828 E35.26119
G1 X79.091 Y96.704 E35.34563
G1 X77.629 Y94.605 E35.43071
G1 X76.141 Y92.591 E35.514
G1 X74.573 Y90.59 E35.59855
G1 X72.979 Y88.671 E35.68152
G1 X71.295 Y86.755 E35.76637
G1 X69.564 Y84.894 E35.8509
G1 X67.795 Y83.099 E35.93472
G1 X65.974 Y81.352 E36.01865
G1 X64.11 Y79.662 E36.10234
G1 X62.169 Y78.001 E36.18731
G1 X60.213 Y76.42 E36.27096
G1 X58.206 Y74.89 E36.3549
G1 X56.154 Y73.414 E36.43897
G1 X54.053 Y71.992 E36.52335
G1 X51.922 Y70.636 E36.60736
G1 X49.738 Y69.332 E36.69196
G1 X47.545 Y68.104 E36.77556
G1 X45.294 Y66.927 E36.86004
G1 X43.05 Y65.833 E36.94308
G1 X40.719 Y64.778 E37.02818
G1 X38.411 Y63.811 E37.11141
G1 X35.993 Y62.874 E37.19766
G1 X33.491 Y61.991 E37.2859
G1 X33.073 Y61.834 E37.30075
G1 X32.234 Y61.455 E37.33138
G1 X31.431 Y61.005 E37.36199
G1 X30.67 Y60.487 E37.39261
G1 X29.957 Y59.905 E37.42322
G1 X29.297 Y59.263 E37.45384
G1 X28.695 Y58.566 E37.48448
G1 X28.156 Y57.82 E37.51509
G1 X27.684 Y57.03 E37.5457
G1 X27.282 Y56.201 E37.57634
G1 X26.953 Y55.341 E37.60696
G1 X26.7 Y54.456 E37.63758
G1 X26.525 Y53.552 E37.6682
G1 X26.415 Y52.321 E37.70931
G1 X26.405 Y51.999 E37.72003
G1 X26.4 Y51.67 E37.73097
G1 X26.401 Y36.531 E38.23449
G1 X26.41 Y35.866 E38.25661
G1 X26.462 Y34.946 E38.28726
G1 X26.594 Y34.035 E38.31788
G1 X26.805 Y33.139 E38.3485
G1 X27.092 Y32.264 E38.37912
G1 X27.455 Y31.418 E38.40974
G1 X27.889 Y30.606 E38.44037
G1 X28.392 Y29.835 E38.47098
G1 X28.961 Y29.111 E38.50161
G1 X29.589 Y28.439 E38.5322
G0 F6000 X29.981 Y28.617
G1 F600 X30.662 Y28.024 E38.56224
G1 X31.394 Y27.494 E38.59229
G1 X32.169 Y27.031 E38.62232
G1 X32.982 Y26.638 E38.65235
G1 X33.827 Y26.318 E38.68241
G1 X34.696 Y26.075 E38.71242
G1 X35.584 Y25.909 E38.74247
G1 X36.723 Y25.813 E38.78048
G1 X37.044 Y25.804 E38.79116
G1 X37.33 Y25.8 E38.80068
G1 X182.293 Y25.8 E43.62217
G1 X183.137 Y25.811 E43.65024
G1 X184.039 Y25.864 E43.68029
G1 X184.932 Y25.996 E43.71032
G1 X185.81 Y26.207 E43.74035
G1 X186.666 Y26.495 E43.77039
G1 X187.493 Y26.857 E43.80042
G1 X188.285 Y27.292 E43.83047
G1 X189.036 Y27.794 E43.86051
G1 X189.739 Y28.361 E43.89055
G1 X190.389 Y28.988 E43.92059
G1 X190.981 Y29.67 E43.95063
G1 X191.511 Y30.401 E43.98066
G1 X191.973 Y31.177 E44.0107
G1 X192.366 Y31.99 E44.04073
G1 X192.684 Y32.835 E44.07076
G1 X192.927 Y33.705 E44.1008
G1 X193.092 Y34.593 E44.13084
G1 X193.187 Y35.723 E44.16856
G1 X193.196 Y36.043 E44.17921
G1 X193.2 Y36.33 E44.18876
G1 X193.199 Y51.404 E44.69012
G1 X193.189 Y52.132 E44.71433
G1 X193.137 Y53.034 E44.74438
G1 X193.005 Y53.927 E44.77441
G1 X192.794 Y54.805 E44.80444
G1 X192.507 Y55.662 E44.8345
G1 X192.145 Y56.489 E44.86453
G1 X191.712 Y57.281 E44.89455
G1 X191.209 Y58.032 E44.92461
G1 X190.643 Y58.735 E44.95463
G1 X190.017 Y59.386 E44.98467
G1 X189.335 Y59.978 E45.01471
G1 X188.604 Y60.508 E45.04474
G1 X187.828 Y60.971 E45.07479
G1 X187.015 Y61.364 E45.10483
G1 X186.416 Y61.599 E45.12623
G1 X185 Y62.104 E45.17623
G1 X184.707 Y62.205 E45.18654
G1 X182.305 Y63.106 E45.27187
G1 X179.952 Y64.064 E45.35636
G1 X177.656 Y65.076 E45.43982
G1 X175.327 Y66.181 E45.52556
G1 X173.086 Y67.324 E45.60923
G1 X170.85 Y68.545 E45.69396
G1 X168.669 Y69.818 E45.77796
G1 X166.481 Y71.179 E45.86366
G1 X164.401 Y72.555 E45.94661
G1 X162.307 Y74.028 E46.03176
G1 X160.265 Y75.552 E46.11651
G1 X158.285 Y77.119 E46.20049
G1 X156.314 Y78.771 E46.28603
G1 X154.445 Y80.431 E46.36917
G1 X152.565 Y82.197 E46.45496
G1 X150.791 Y83.962 E46.53819
G1 X149.027 Y85.818 E46.62336
G1 X147.354 Y87.684 E46.70671
G1 X145.689 Y89.646 E46.7923
G1 X144.099 Y91.633 E46.87694
G1 X142.58 Y93.645 E46.96079
G1 X141.104 Y95.719 E47.04546
G1 X139.702 Y97.812 E47.12925
G1 X138.338 Y99.978 E47.21438
G1 X137.038 Y102.18 E47.29943
G1 X135.816 Y104.39 E47.38343
G1 X134.646 Y106.653 E47.46816
G1 X133.543 Y108.943 E47.5527
G1 X132.525 Y111.221 E47.63569
G1 X131.54 Y113.603 E47.72142
G1 X130.626 Y115.997 E47.80665
G1 X129.798 Y118.38 E47.89056
G1 X129.028 Y120.804 E47.97515
G1 X128.333 Y123.231 E48.05912
G1 X127.708 Y125.677 E48.14308
G1 X127.138 Y128.189 E48.22876
G1 X126.654 Y130.653 E48.31228
