;FLAVOR:Marlin
;TIME:974
;Filament used: 0.428732m
;Layer height: 0.15
;MINX:90.336
;MINY:91.336
;MINZ:0.24
;MAXX:129.664
;MAXY:128.664
;MAXZ:9.965
;Generated with Cura_SteamEngine 4.10.0
M140 S60
M105
M190 S60
M104 S210
M105
M109 S210
M82 ;absolute extrusion mode
M201 X500.00 Y500.00 Z100.00 E5000.00 ;Setup machine max acceleration
M203 X500.00 Y500.00 Z10.00 E50.00 ;Setup machine max feedrate
M204 P500.00 R1000.00 T500.00 ;Setup Print/Retract/Travel acceleration
M205 X8.00 Y8.00 Z0.40 E5.00 ;Setup Jerk
M220 S100 ;Reset Feedrate
M221 S100 ;Reset Flowrate

G28 ;Home
G29 ;Auto Bed Leveling
M420 S1 Z2 ;Enable ABL using saved Mesh and Fade Height

G92 E0 ;Reset Extruder
G1 Z2.0 F3000 ;Move Z Axis up
G1 X10.1 Y20 Z0.28 F5000.0 ;Move to start position
G1 X10.1 Y200.0 Z0.28 F1500.0 E15 ;Draw the first line
G1 X10.4 Y200.0 Z0.28 F5000.0 ;Move to side a little
G1 X10.4 Y20 Z0.28 F1500.0 E30 ;Draw the second line
G92 E0 ;Reset Extruder
G1 Z2.0 F3000 ;Move Z Axis up
G92 E0
G92 E0
G1 F2700 E-5
;LAYER_COUNT:60
;LAYER:-6
M107
G0 F9000 X95.802 Y96.556 Z0.24
;TYPE:SUPPORT-INTERFACE
G1 F2700 E0
G1 F1125 X95.927 Y96.436 E0.01383
G1 X96.598 Y95.833 E0.08584
G1 X96.714 Y95.737 E0.09786
G1 X97.426 Y95.187 E0.16968
G1 X97.585 Y95.074 E0.18525
G1 X98.323 Y94.584 E0.25596
G1 X98.449 Y94.508 E0.26771
G1 X99.243 Y94.062 E0.34041
G1 X99.393 Y93.984 E0.3539
G1 X100.208 Y93.601 E0.42578
G1 X100.351 Y93.541 E0.43816
G1 X101.21 Y93.212 E0.51159
G1 X101.36 Y93.16 E0.52426
G1 X102.21 Y92.905 E0.5951
G1 X102.383 Y92.858 E0.60941
G1 X103.278 Y92.658 E0.68261
G1 X103.408 Y92.635 E0.69315
G1 X104.313 Y92.501 E0.76618
G1 X104.482 Y92.483 E0.77975
G1 X105.371 Y92.417 E0.85091
G1 X105.555 Y92.408 E0.86561
G1 X106.06 Y92.4 E0.90593
G1 X114.003 Y92.401 E1.53997
G1 X115.004 Y92.437 E1.61993
G1 X115.127 Y92.446 E1.62977
G1 X116.044 Y92.548 E1.70342
G1 X116.219 Y92.573 E1.71754
G1 X117.108 Y92.737 E1.7897
G1 X117.231 Y92.765 E1.79977
G1 X118.125 Y92.999 E1.87353
G1 X118.288 Y93.048 E1.88712
G1 X119.13 Y93.334 E1.9581
G1 X119.296 Y93.398 E1.9723
G1 X120.099 Y93.739 E2.04194
G1 X120.288 Y93.827 E2.05859
G1 X121.082 Y94.235 E2.12984
G1 X121.199 Y94.302 E2.14061
G1 X121.978 Y94.776 E2.2134
G1 X122.129 Y94.876 E2.22785
G1 X122.843 Y95.387 E2.29794
G1 X122.991 Y95.5 E2.3128
G1 X123.682 Y96.076 E2.38461
G1 X123.795 Y96.177 E2.39671
G1 X124.444 Y96.802 E2.46863
G1 X124.564 Y96.927 E2.48247
G1 X125.167 Y97.598 E2.55448
G1 X125.263 Y97.714 E2.5665
G1 X125.822 Y98.438 E2.63951
G1 X125.916 Y98.569 E2.65238
G1 X126.416 Y99.323 E2.7246
G1 X126.492 Y99.449 E2.73635
G1 X126.938 Y100.243 E2.80904
G1 X127.016 Y100.393 E2.82254
G1 X127.399 Y101.208 E2.89442
G1 X127.459 Y101.351 E2.9068
G1 X127.788 Y102.21 E2.98023
G1 X127.84 Y102.36 E2.9929
G1 X128.095 Y103.21 E3.06374
G1 X128.142 Y103.383 E3.07805
G1 X128.34 Y104.269 E3.15052
G1 X128.365 Y104.408 E3.16179
G1 X128.498 Y105.307 E3.23433
G1 X128.516 Y105.469 E3.24734
G1 X128.583 Y106.371 E3.31954
G1 X128.592 Y106.555 E3.33425
G1 X128.6 Y107.056 E3.37425
G1 X128.6 Y112.986 E3.8476
G1 X128.564 Y113.992 E3.92796
G1 X128.554 Y114.127 E3.93876
G1 X128.452 Y115.044 E4.01242
G1 X128.427 Y115.219 E4.02653
G1 X128.265 Y116.097 E4.0978
G1 X128.235 Y116.231 E4.10876
G1 X128.004 Y117.116 E4.18177
G1 X127.952 Y117.288 E4.19611
G1 X127.676 Y118.1 E4.26457
G1 X127.596 Y118.309 E4.28243
G1 X127.261 Y119.099 E4.35093
G1 X127.18 Y119.274 E4.36632
G1 X126.765 Y120.082 E4.43883
G1 X126.698 Y120.199 E4.44959
G1 X126.224 Y120.978 E4.52238
G1 X126.124 Y121.129 E4.53684
G1 X125.613 Y121.843 E4.60693
G1 X125.5 Y121.991 E4.62179
G1 X124.924 Y122.682 E4.6936
G1 X124.823 Y122.795 E4.7057
G1 X124.198 Y123.444 E4.77762
G1 X124.073 Y123.564 E4.79145
G1 X123.403 Y124.166 E4.86335
G1 X123.286 Y124.263 E4.87549
G1 X122.574 Y124.813 E4.9473
G1 X122.415 Y124.926 E4.96287
G1 X121.677 Y125.416 E5.03359
G1 X121.551 Y125.492 E5.04533
G1 X120.757 Y125.938 E5.11803
G1 X120.606 Y126.016 E5.13159
G1 X119.792 Y126.399 E5.2034
G1 X119.649 Y126.459 E5.21578
G1 X118.79 Y126.788 E5.28921
G1 X118.64 Y126.84 E5.30188
G1 X117.79 Y127.095 E5.37272
G1 X117.617 Y127.142 E5.38703
G1 X116.722 Y127.342 E5.46024
G1 X116.592 Y127.365 E5.47077
G1 X115.687 Y127.499 E5.5438
G1 X115.519 Y127.517 E5.55729
G1 X114.629 Y127.583 E5.62853
G1 X114.445 Y127.592 E5.64323
G1 X113.94 Y127.6 E5.68355
G1 X105.997 Y127.599 E6.31759
G1 X104.996 Y127.563 E6.39755
G1 X104.873 Y127.554 E6.40739
G1 X103.956 Y127.452 E6.48105
G1 X103.781 Y127.427 E6.49516
G1 X102.892 Y127.263 E6.56732
G1 X102.769 Y127.235 E6.57739
G1 X101.875 Y127.001 E6.65115
G1 X101.712 Y126.952 E6.66474
G1 X100.87 Y126.666 E6.73572
G1 X100.704 Y126.602 E6.74993
G1 X99.901 Y126.261 E6.81956
G1 X99.712 Y126.173 E6.83621
G1 X98.918 Y125.765 E6.90747
G1 X98.801 Y125.698 E6.91823
G1 X98.022 Y125.224 E6.99102
G1 X97.871 Y125.124 E7.00547
G1 X97.157 Y124.613 E7.07556
G1 X97.009 Y124.5 E7.09043
G1 X96.318 Y123.924 E7.16223
G1 X96.205 Y123.823 E7.17433
G1 X95.556 Y123.198 E7.24626
G1 X95.436 Y123.073 E7.26009
G1 X94.833 Y122.402 E7.3321
G1 X94.736 Y122.284 E7.34429
G1 X94.178 Y121.562 E7.41713
G1 X94.074 Y121.415 E7.43151
G1 X93.581 Y120.672 E7.50268
G1 X93.508 Y120.551 E7.51396
G1 X93.056 Y119.746 E7.58766
G1 X92.984 Y119.607 E7.60016
G1 X92.587 Y118.761 E7.67475
G1 X92.541 Y118.649 E7.68442
G1 X92.212 Y117.79 E7.75784
G1 X92.155 Y117.625 E7.77178
G1 X91.905 Y116.79 E7.84136
G1 X91.858 Y116.617 E7.85567
G1 X91.657 Y115.716 E7.92936
G1 X91.635 Y115.592 E7.93941
G1 X91.5 Y114.678 E8.01316
G1 X91.483 Y114.518 E8.026
G1 X91.417 Y113.626 E8.0974
G1 X91.408 Y113.445 E8.11187
G1 X91.4 Y112.944 E8.15186
G1 X91.4 Y107.014 E8.62522
G1 X91.436 Y106.008 E8.70558
G1 X91.446 Y105.873 E8.71638
G1 X91.548 Y104.956 E8.79003
G1 X91.573 Y104.781 E8.80414
G1 X91.735 Y103.903 E8.87541
G1 X91.765 Y103.769 E8.88637
G1 X91.996 Y102.884 E8.95939
G1 X92.048 Y102.712 E8.97373
G1 X92.334 Y101.87 E9.04471
G1 X92.398 Y101.704 E9.05891
G1 X92.739 Y100.901 E9.12855
G1 X92.82 Y100.726 E9.14395
G1 X93.235 Y99.918 E9.21645
G1 X93.302 Y99.801 E9.22722
G1 X93.776 Y99.022 E9.30001
G1 X93.876 Y98.871 E9.31446
G1 X94.387 Y98.157 E9.38455
G1 X94.5 Y98.009 E9.39941
G1 X95.076 Y97.318 E9.47122
G1 X95.177 Y97.205 E9.48332
G1 X95.802 Y96.556 E9.55524
G0 F9000 X96 Y96.37
G1 F1125 X96 Y123.625 E11.73086
G0 F9000 X97.6 Y124.93
G1 F1125 X97.6 Y95.064 E14.11489
G0 F9000 X99.2 Y94.086
G1 F1125 X99.2 Y125.909 E16.65514
G0 F9000 X100.8 Y126.639
G1 F1125 X100.8 Y93.369 E19.31089
G0 F9000 X102.4 Y92.854
G1 F1125 X102.4 Y127.138 E22.04759
G0 F9000 X104 Y127.456
G1 F1125 X104 Y92.547 E24.83418
G0 F9000 X105.6 Y92.407
G1 F1125 X105.6 Y127.584 E27.64216
G0 F9000 X107.2 Y127.599
G1 F1125 X107.2 Y92.401 E30.45182
G0 F9000 X108.8 Y92.401
G1 F1125 X108.8 Y127.599 E33.26147
G0 F9000 X110.4 Y127.599
G1 F1125 X110.4 Y92.401 E36.07113
G0 F9000 X112 Y92.401
G1 F1125 X112 Y127.599 E38.88079
G0 F9000 X113.6 Y127.599
G1 F1125 X113.6 Y92.401 E41.69044
G0 F9000 X115.2 Y92.455
G1 F1125 X115.2 Y127.541 E44.49116
G0 F9000 X116.8 Y127.325
G1 F1125 X116.8 Y92.681 E47.25659
G0 F9000 X118.4 Y93.087
G1 F1125 X118.4 Y126.912 E49.95665
G0 F9000 X120 Y126.302
G1 F1125 X120 Y93.697 E52.55932
G0 F9000 X121.6 Y94.546
G1 F1125 X121.6 Y125.463 E55.02725
G0 F9000 X123.2 Y124.33
G1 F1125 X123.2 Y95.675 E57.31462
G0 F9000 X124.8 Y97.19
G1 F1125 X124.8 Y122.819 E59.36043
G0 F9000 X126.4 Y120.689
G1 F1125 X126.4 Y99.299 E61.06788
G0 F9000 X128 Y102.894
G1 F1125 X128 Y117.13 E62.20426
G1 F2700 E57.20426
G0 F9000 X128.964 Y117.62
G0 X128.231 Y119.538
G0 X127.613 Y120.743
G0 X126.466 Y122.481
G0 X125.608 Y123.514
G0 X124.103 Y124.968
G0 X123.023 Y125.799
G0 X121.257 Y126.878
G0 X120.039 Y127.45
G0 X118.073 Y128.121
G0 X116.758 Y128.417
G0 X114.69 Y128.646
G0 X104.943 Y128.626
G0 X103.617 Y128.479
G0 X101.59 Y128.027
G0 X100.3 Y127.587
G0 X98.42 Y126.705
G0 X97.261 Y125.996
G0 X95.617 Y124.725
G0 X94.843 Y123.978
G0 X93.558 Y122.5
G0 X94.4 Y121.849
G1 F2700 E62.20426
G1 F1125 X94.4 Y98.139 E64.09689
G0 F9000 X92.8 Y100.769
G1 F1125 X92.8 Y119.214 E65.56925
G0 F300 X92.8 Y119.214 Z0.465
G0 F9000 X93.287 Y120.157
;TIME_ELAPSED:52.192495
;LAYER:-5
;TYPE:SUPPORT
G1 F1125 X98.862 Y125.732 E66.15927
G1 X98.8 Y125.697 E66.1646
G1 X98.021 Y125.222 E66.23288
G1 X97.871 Y125.123 E66.24633
G1 X97.157 Y124.612 E66.31203
G1 X97.008 Y124.499 E66.32603
G1 X96.317 Y123.923 E66.39335
G1 X96.205 Y123.822 E66.40463
G1 X95.556 Y123.197 E66.47206
G1 X95.436 Y123.072 E66.48503
G1 X94.832 Y122.401 E66.55259
G1 X94.736 Y122.283 E66.56398
G1 X94.178 Y121.561 E66.63226
G1 X94.073 Y121.414 E66.64578
G1 X93.58 Y120.671 E66.71251
G1 X93.507 Y120.55 E66.72309
G1 F2700 E61.72309
G0 F9000 X92.681 Y121.24
G0 X93.901 Y122.944
G0 X94.797 Y123.945
G0 X96.352 Y125.338
G0 X96.664 Y125.561
G0 X98.257 Y126.613
G0 X98.862 Y125.732
G1 F2700 E66.72309
G1 F1125 X98.917 Y125.763 E66.72781
G1 X99.711 Y126.171 E66.79462
G1 X99.9 Y126.26 E66.81025
G1 X100.704 Y126.601 E66.8756
G1 X100.87 Y126.665 E66.88892
G1 X101.383 Y126.839 E66.92946
G1 X92.148 Y117.603 E67.90688
G1 X91.904 Y116.789 E67.97047
G1 X91.858 Y116.616 E67.98387
G1 X91.656 Y115.715 E68.05297
G1 X91.652 Y115.693 E68.05464
G1 X103.294 Y127.336 E69.2868
G1 X103.78 Y127.426 E69.32379
G1 X103.956 Y127.451 E69.3371
G1 X104.873 Y127.552 E69.40614
G1 X104.929 Y127.557 E69.41034
G1 X91.45 Y114.077 E70.83692
G1 X91.416 Y113.625 E70.87084
G1 X91.407 Y113.443 E70.88448
G1 X91.4 Y112.943 E70.9219
G1 X91.399 Y112.613 E70.94659
G1 X106.384 Y127.598 E72.5325
G1 X107.799 Y127.598 E72.6384
G1 X91.399 Y111.198 E74.37406
G1 X91.399 Y109.784 E74.47988
G1 X109.213 Y127.598 E76.36519
G1 X110.628 Y127.598 E76.47108
G1 X91.399 Y108.37 E78.50609
G1 X91.399 Y107.012 E78.60772
G1 X91.401 Y106.957 E78.61184
G1 X112.042 Y127.598 E80.79634
G1 X113.456 Y127.598 E80.90215
G1 X91.474 Y105.616 E83.22858
G1 X91.548 Y104.955 E83.27835
G1 X91.573 Y104.78 E83.29158
G1 X91.647 Y104.375 E83.32239
G1 X114.838 Y127.566 E85.77677
G1 X115.519 Y127.516 E85.82787
G1 X115.686 Y127.498 E85.84044
G1 X116.12 Y127.434 E85.87327
G1 X91.906 Y103.22 E88.43591
G1 X91.996 Y102.882 E88.46208
G1 X92.048 Y102.711 E88.47546
G1 X92.241 Y102.14 E88.52057
G1 X117.309 Y127.209 E91.17364
G1 X117.616 Y127.141 E91.19717
G1 X117.789 Y127.093 E91.21061
G1 X118.419 Y126.905 E91.25981
G1 X92.642 Y101.127 E93.98792
G1 X92.739 Y100.9 E94.0064
G1 X92.819 Y100.725 E94.0208
G1 X93.102 Y100.173 E94.06722
G1 X119.459 Y126.53 E96.85666
G1 X119.648 Y126.458 E96.8718
G1 X119.792 Y126.398 E96.88347
G1 X120.437 Y126.094 E96.93683
G1 X93.619 Y99.276 E99.77506
G1 X93.775 Y99.021 E99.79744
G1 X93.876 Y98.869 E99.81109
G1 X94.189 Y98.432 E99.85132
G1 X121.356 Y125.599 E102.72649
G1 X121.55 Y125.49 E102.74314
G1 X121.677 Y125.415 E102.75418
G1 X122.223 Y125.051 E102.80328
G1 X94.808 Y97.637 E105.70465
G1 X95.076 Y97.317 E105.73588
G1 X95.176 Y97.204 E105.74717
G1 X95.477 Y96.891 E105.77967
G1 X123.038 Y124.452 E108.69654
G1 X123.286 Y124.261 E108.71996
G1 X123.402 Y124.165 E108.73123
G1 X123.803 Y123.803 E108.77166
G1 X96.195 Y96.195 E111.6935
G1 X96.597 Y95.833 E111.73398
G1 X96.713 Y95.737 E111.74525
G1 X96.96 Y95.546 E111.76862
G1 X124.522 Y123.107 E114.68554
G1 X124.822 Y122.794 E114.71798
G1 X124.923 Y122.681 E114.72932
G1 X125.19 Y122.362 E114.76045
G1 X97.775 Y94.947 E117.66187
G1 X98.321 Y94.584 E117.71094
G1 X98.448 Y94.508 E117.72201
G1 X98.642 Y94.4 E117.73863
G1 X125.809 Y121.567 E120.6138
G1 X126.123 Y121.129 E120.65413
G1 X126.223 Y120.978 E120.66768
G1 X126.379 Y120.722 E120.69011
G1 X99.562 Y93.905 E123.52824
G1 X100.206 Y93.601 E123.58153
G1 X100.35 Y93.541 E123.59321
G1 X100.539 Y93.468 E123.60837
G1 X126.896 Y119.825 E126.39781
G1 X127.179 Y119.274 E126.44417
G1 X127.26 Y119.098 E126.45867
G1 X127.357 Y118.871 E126.47714
G1 X101.579 Y93.094 E129.20525
G1 X102.209 Y92.905 E129.25448
G1 X102.382 Y92.857 E129.26791
G1 X102.689 Y92.79 E129.29143
G1 X127.757 Y117.858 E131.94445
G1 X127.95 Y117.287 E131.98956
G1 X128.003 Y117.116 E132.00295
G1 X128.092 Y116.778 E132.02911
G1 X103.878 Y92.565 E134.5917
G1 X104.312 Y92.5 E134.62454
G1 X104.481 Y92.483 E134.63725
G1 X105.16 Y92.432 E134.68821
G1 X128.351 Y115.623 E137.14258
G1 X128.426 Y115.218 E137.17341
G1 X128.45 Y115.044 E137.18655
G1 X128.525 Y114.383 E137.23634
G1 X106.542 Y92.4 E139.56286
G1 X107.956 Y92.4 E139.66868
G1 X128.597 Y113.041 E141.85318
G1 X128.599 Y112.986 E141.8573
G1 X128.599 Y111.628 E141.95893
G1 X109.371 Y92.4 E143.99389
G1 X110.785 Y92.401 E144.0997
G1 X128.599 Y110.214 E145.98496
G1 X128.599 Y108.8 E146.09078
G1 X112.2 Y92.401 E147.82634
G1 X113.614 Y92.401 E147.93215
G1 X128.599 Y107.386 E149.51806
G1 X128.598 Y107.055 E149.54283
G1 X128.591 Y106.555 E149.58025
G1 X128.582 Y106.37 E149.59412
G1 X128.549 Y105.921 E149.62781
G1 X115.069 Y92.442 E151.05438
G1 X115.126 Y92.446 E151.05866
G1 X116.043 Y92.547 E151.1277
G1 X116.218 Y92.573 E151.14094
G1 X116.704 Y92.662 E151.17791
G1 X128.345 Y104.303 E152.40992
G1 X128.339 Y104.269 E152.4125
G1 X128.141 Y103.382 E152.48051
G1 X128.094 Y103.21 E152.49386
G1 X127.849 Y102.394 E152.55762
G1 X118.615 Y93.159 E153.53493
G1 X119.129 Y93.333 E153.57554
G1 X119.295 Y93.398 E153.58888
G1 X120.098 Y93.739 E153.65417
G1 X120.287 Y93.827 E153.66977
G1 X121.081 Y94.235 E153.73658
G1 X121.137 Y94.267 E153.7414
G1 X126.712 Y99.842 E154.33142
G0 F9000 X126.491 Y99.448
G1 F1125 X126.415 Y99.323 E154.34237
G1 X125.915 Y98.568 E154.41014
G1 X125.821 Y98.437 E154.4222
G1 X125.262 Y97.713 E154.49065
G1 X125.166 Y97.597 E154.50192
G1 X124.563 Y96.926 E154.56943
G1 X124.443 Y96.802 E154.58235
G1 X123.793 Y96.177 E154.64983
G1 X123.681 Y96.076 E154.66111
G1 X122.99 Y95.499 E154.72848
G1 X122.842 Y95.386 E154.74242
G1 X122.127 Y94.876 E154.80814
G1 X121.977 Y94.776 E154.82163
G1 X121.198 Y94.301 E154.88991
G1 X121.137 Y94.267 E154.89514
G1 F2700 E149.89514
G0 F300 X121.137 Y94.267 Z0.615
G0 F9000 X121.58 Y93.295
G0 X119.7 Y92.413
G0 X118.539 Y92.017
G0 X116.538 Y91.549
G0 X116.381 Y92.4
;TIME_ELAPSED:118.190753
;LAYER:-4
;TYPE:SUPPORT-INTERFACE
G1 F2700 E154.89514
G1 F1500 X103.63 Y92.4 E155.21321
G1 X104.286 Y92.303 E155.22976
G1 X104.461 Y92.283 E155.23415
G1 X105.361 Y92.217 E155.25666
G1 X105.545 Y92.208 E155.26126
G1 X106.058 Y92.2 E155.27405
G1 X114.01 Y92.201 E155.47242
G1 X115.014 Y92.237 E155.49748
G1 X115.149 Y92.247 E155.50086
G1 X116.066 Y92.349 E155.52387
G1 X116.24 Y92.374 E155.52826
G1 F2700 E150.52826
G0 F9000 X116.172 Y91.491
G0 X113.987 Y91.336
G0 X105.31 Y91.354
G0 X103.504 Y91.545
G0 X103.63 Y92.4
G1 F2700 E155.52826
G1 F1500 X103.386 Y92.436 E155.53441
G1 X103.233 Y92.464 E155.53829
G1 X102.324 Y92.667 E155.56152
G1 X102.165 Y92.709 E155.56563
G1 X101.864 Y92.8 E155.57347
G1 X118.154 Y92.8 E155.97983
G1 X118.173 Y92.805 E155.98032
G1 X118.359 Y92.86 E155.98515
G1 X119.187 Y93.142 E156.00697
G1 X119.339 Y93.2 E156.01103
G1 X100.683 Y93.2 E156.47641
G1 X100.28 Y93.354 E156.48717
G1 X100.138 Y93.413 E156.491
G1 X99.74 Y93.6 E156.50197
G1 X120.278 Y93.6 E157.0143
G1 X120.365 Y93.641 E157.0167
G1 X121.063 Y94 E157.03628
G1 X98.945 Y94 E157.58801
G1 X98.357 Y94.33 E157.60483
G1 X98.242 Y94.4 E157.60819
G1 X121.747 Y94.4 E158.19452
G1 X122.075 Y94.6 E158.20411
G1 X122.251 Y94.717 E158.20938
G1 X122.368 Y94.8 E158.21296
G1 X97.638 Y94.8 E158.82985
G1 X97.464 Y94.915 E158.83505
G1 X97.31 Y95.024 E158.83976
G1 X97.082 Y95.2 E158.84694
G1 X122.927 Y95.2 E159.49165
G1 X122.97 Y95.231 E159.49297
G1 X123.106 Y95.335 E159.49724
G1 X123.424 Y95.6 E159.50757
G1 X96.566 Y95.6 E160.17754
G1 X96.465 Y95.684 E160.18082
G1 X96.114 Y96 E160.1926
G1 X123.899 Y96 E160.8857
G1 X123.923 Y96.022 E160.88651
G1 X124.316 Y96.4 E160.90012
G1 X95.676 Y96.4 E161.61454
G1 X95.664 Y96.411 E161.61495
G1 X95.29 Y96.8 E161.62841
G1 X124.72 Y96.8 E162.36255
G1 X125.079 Y97.2 E162.37595
G1 X94.915 Y97.2 E163.1284
G1 X94.582 Y97.6 E163.14138
G1 X125.429 Y97.6 E163.91086
G1 X125.738 Y98 E163.92347
G1 X94.255 Y98 E164.70882
G1 X94.228 Y98.035 E164.70992
G1 X93.968 Y98.4 E164.7211
G1 X126.042 Y98.4 E165.52119
G1 X126.082 Y98.457 E165.52292
G1 X126.31 Y98.8 E165.5332
G1 X93.685 Y98.8 E166.34703
