;FLAVOR:Marlin
;TIME:3430
;Filament used: 1.73597m
;Layer height: 0.15
;MINX:77.001
;MINY:82.723
;MINZ:0.2
;MAXX:143
;MAXY:138.233
;MAXZ:6.2
;Generated with Cura_SteamEngine 4.9.0
M140 S60
M105
M190 S60
M104 S210
M105
M109 S210
M82 ;absolute extrusion mode
M201 X500.00 Y500.00 Z100.00 E5000.00 ;Setup machine max acceleration
M203 X500.00 Y500.00 Z10.00 E50.00 ;Setup machine max feedrate
M204 P500.00 R1000.00 T500.00 ;Setup Print/Retract/Travel acceleration
M205 X8.00 Y8.00 Z0.40 E5.00 ;Setup Jerk
M220 S100 ;Reset Feedrate
M221 S100 ;Reset Flowrate

G28 ;Home
G29 ;Auto Bed Leveling
M420 S1 Z2 ;Enable ABL using saved Mesh and Fade Height

G92 E0 ;Reset Extruder
G1 Z2.0 F3000 ;Move Z Axis up
G1 X10.1 Y20 Z0.28 F5000.0 ;Move to start position
G1 X10.1 Y200.0 Z0.28 F1500.0 E15 ;Draw the first line
G1 X10.4 Y200.0 Z0.28 F5000.0 ;Move to side a little
G1 X10.4 Y20 Z0.28 F1500.0 E30 ;Draw the second line
G92 E0 ;Reset Extruder
G1 Z2.0 F3000 ;Move Z Axis up
G92 E0
G92 E0
G1 F2700 E-5
;LAYER_COUNT:41
;LAYER:0
M107
G0 F6000 X80.198 Y85.987 Z0.2
;TYPE:SKIRT
G1 F2700 E0
G1 F600 X80.886 Y85.35 E0.03119
G1 X81.626 Y84.774 E0.06237
G1 X82.412 Y84.262 E0.09357
G1 X83.239 Y83.82 E0.12476
G1 X84.101 Y83.45 E0.15596
G1 X84.991 Y83.154 E0.18716
G1 X85.903 Y82.936 E0.21835
G1 X86.83 Y82.795 E0.24953
G1 X87.701 Y82.736 E0.27857
G1 X88.022 Y82.727 E0.28925
G1 X88.33 Y82.723 E0.29949
G1 X131.293 Y82.723 E1.72845
G1 X132.149 Y82.734 E1.75692
G1 X133.085 Y82.788 E1.78811
G1 X134.013 Y82.92 E1.81928
G1 X134.927 Y83.132 E1.85049
G1 X135.819 Y83.421 E1.88168
G1 X136.684 Y83.784 E1.91288
G1 X137.514 Y84.22 E1.94406
G1 X138.305 Y84.725 E1.97527
G1 X139.049 Y85.296 E2.00647
G1 X139.742 Y85.928 E2.03766
G1 X140.379 Y86.616 E2.06885
G1 X140.954 Y87.357 E2.10004
G1 X141.465 Y88.143 E2.13122
G1 X141.907 Y88.971 E2.16244
G1 X142.276 Y89.833 E2.19363
G1 X142.571 Y90.723 E2.22481
G1 X142.789 Y91.635 E2.256
G1 X142.929 Y92.563 E2.28721
G1 X142.987 Y93.424 E2.31592
G1 X142.996 Y93.744 E2.32656
G1 X143 Y94.053 E2.33684
G1 X142.999 Y126.633 E3.42046
G1 X142.99 Y127.36 E3.44464
G1 X142.939 Y128.297 E3.47585
G1 X142.807 Y129.225 E3.50703
G1 X142.598 Y130.139 E3.53821
G1 X142.311 Y131.032 E3.56941
G1 X141.949 Y131.898 E3.60063
G1 X141.515 Y132.729 E3.63181
G1 X141.011 Y133.52 E3.663
G1 X140.442 Y134.265 E3.69418
G1 X139.811 Y134.96 E3.7254
G1 X139.124 Y135.598 E3.75659
G1 X138.385 Y136.175 E3.78777
G1 X137.599 Y136.687 E3.81897
G1 X136.773 Y137.13 E3.85015
G1 X135.911 Y137.502 E3.88137
G1 X135.022 Y137.798 E3.91254
G1 X134.11 Y138.018 E3.94374
G1 X133.183 Y138.159 E3.97493
G1 X132.299 Y138.22 E4.0044
G1 X131.978 Y138.229 E4.01508
G1 X131.67 Y138.233 E4.02532
G1 X88.55 Y138.233 E5.4595
G1 X87.852 Y138.223 E5.48272
G1 X86.916 Y138.169 E5.5139
G1 X85.988 Y138.037 E5.54508
G1 X85.074 Y137.825 E5.57629
G1 X84.182 Y137.536 E5.60747
G1 X83.317 Y137.173 E5.63867
G1 X82.487 Y136.737 E5.66986
G1 X81.696 Y136.232 E5.70107
G1 X80.952 Y135.661 E5.73226
G1 X80.259 Y135.029 E5.76346
G1 X79.622 Y134.341 E5.79464
G1 X79.047 Y133.6 E5.82584
G1 X78.536 Y132.814 E5.85702
G1 X78.094 Y131.986 E5.88824
G1 X77.725 Y131.124 E5.91942
G1 X77.43 Y130.234 E5.95061
G1 X77.212 Y129.322 E5.9818
G1 X77.072 Y128.394 E6.01301
G1 X77.015 Y127.539 E6.04151
G1 X77.006 Y127.225 E6.05196
G1 X77.001 Y126.91 E6.06244
G1 X77.001 Y94.248 E7.14878
G1 X77.01 Y93.583 E7.1709
G1 X77.063 Y92.647 E7.20208
G1 X77.195 Y91.718 E7.23329
G1 X77.406 Y90.804 E7.26449
G1 X77.694 Y89.912 E7.29567
G1 X78.057 Y89.047 E7.32687
G1 X78.492 Y88.216 E7.35806
G1 X78.996 Y87.426 E7.38923
G1 X79.566 Y86.681 E7.42043
G1 X80.198 Y85.987 E7.45165
G0 F6000 X80.589 Y86.162
G1 F600 X81.274 Y85.546 E7.48229
G1 X82.01 Y84.993 E7.51291
G1 X82.791 Y84.505 E7.54354
G1 X83.611 Y84.087 E7.57415
G1 X84.465 Y83.742 E7.60479
G1 X85.345 Y83.472 E7.6354
G1 X86.245 Y83.28 E7.66601
G1 X87.159 Y83.166 E7.69665
G1 X87.712 Y83.136 E7.71507
G1 X88.033 Y83.127 E7.72575
G1 X88.33 Y83.123 E7.73562
G1 X131.293 Y83.123 E9.16458
G1 X132.143 Y83.134 E9.19285
G1 X133.062 Y83.187 E9.22347
G1 X133.973 Y83.32 E9.25409
G1 X134.869 Y83.531 E9.28471
G1 X135.743 Y83.819 E9.31531
G1 X136.59 Y84.182 E9.34596
G1 X137.401 Y84.617 E9.37657
G1 X138.171 Y85.121 E9.40718
G1 X138.895 Y85.69 E9.43781
G1 X139.567 Y86.32 E9.46845
G1 X140.182 Y87.005 E9.49906
G1 X140.735 Y87.741 E9.52968
G1 X141.222 Y88.522 E9.5603
G1 X141.639 Y89.343 E9.59092
G1 X141.984 Y90.197 E9.62156
G1 X142.253 Y91.077 E9.65216
G1 X142.445 Y91.978 E9.6828
G1 X142.558 Y92.891 E9.7134
G1 X142.587 Y93.435 E9.73152
G1 X142.596 Y93.755 E9.74217
G1 X142.6 Y94.053 E9.75208
G1 X142.599 Y126.628 E10.83553
G1 X142.59 Y127.355 E10.85971
G1 X142.539 Y128.274 E10.89032
G1 X142.408 Y129.186 E10.92097
G1 X142.198 Y130.082 E10.95158
G1 X141.912 Y130.957 E10.9822
G1 X141.551 Y131.804 E11.01282
G1 X141.117 Y132.616 E11.04344
G1 X140.615 Y133.388 E11.07407
G1 X140.047 Y134.113 E11.1047
G1 X139.419 Y134.786 E11.13532
G1 X138.735 Y135.402 E11.16593
G1 X138 Y135.956 E11.19655
G1 X137.22 Y136.445 E11.22717
G1 X136.4 Y136.864 E11.25779
G1 X135.547 Y137.21 E11.28841
G1 X134.667 Y137.481 E11.31904
G1 X133.767 Y137.674 E11.34965
G1 X132.853 Y137.789 E11.38029
G1 X132.288 Y137.82 E11.39911
G1 X131.967 Y137.829 E11.40979
G1 X131.67 Y137.833 E11.41967
G1 X88.556 Y137.833 E12.85365
G1 X87.858 Y137.823 E12.87687
G1 X86.939 Y137.77 E12.90748
G1 X86.028 Y137.637 E12.9381
G1 X85.132 Y137.426 E12.96872
G1 X84.258 Y137.138 E12.99933
G1 X83.411 Y136.775 E13.02998
G1 X82.6 Y136.34 E13.06059
G1 X81.83 Y135.836 E13.09119
G1 X81.106 Y135.267 E13.12182
G1 X80.434 Y134.637 E13.15246
G1 X79.819 Y133.952 E13.18308
G1 X79.266 Y133.216 E13.2137
G1 X78.779 Y132.435 E13.24431
G1 X78.362 Y131.614 E13.27494
G1 X78.017 Y130.76 E13.30557
G1 X77.748 Y129.88 E13.33618
G1 X77.556 Y128.979 E13.36682
G1 X77.443 Y128.066 E13.39741
G1 X77.414 Y127.528 E13.41533
G1 X77.405 Y127.214 E13.42578
G1 X77.401 Y126.91 E13.43589
G1 X77.401 Y94.254 E14.52204
G1 X77.41 Y93.589 E14.54416
G1 X77.462 Y92.669 E14.5748
G1 X77.594 Y91.758 E14.60542
G1 X77.805 Y90.862 E14.63604
G1 X78.092 Y89.987 E14.66667
G1 X78.455 Y89.141 E14.69728
G1 X78.889 Y88.329 E14.72791
G1 X79.392 Y87.558 E14.75853
G1 X79.961 Y86.834 E14.78915
G1 X80.589 Y86.162 E14.81974
G0 F6000 X80.981 Y86.34
G1 F600 X81.662 Y85.747 E14.84978
G1 X82.394 Y85.217 E14.87984
G1 X83.169 Y84.754 E14.90986
G1 X83.982 Y84.361 E14.9399
G1 X84.827 Y84.041 E14.96995
G1 X85.696 Y83.798 E14.99996
G1 X86.584 Y83.632 E15.03001
G1 X87.723 Y83.536 E15.06803
G1 X88.044 Y83.527 E15.07871
G1 X88.33 Y83.523 E15.08822
G1 X131.293 Y83.523 E16.51717
G1 X132.137 Y83.534 E16.54525
G1 X133.039 Y83.587 E16.5753
G1 X133.932 Y83.719 E16.60532
G1 X134.81 Y83.93 E16.63536
G1 X135.666 Y84.218 E16.6654
G1 X136.493 Y84.58 E16.69542
G1 X137.285 Y85.015 E16.72548
G1 X138.036 Y85.517 E16.75552
G1 X138.739 Y86.084 E16.78556
G1 X139.389 Y86.711 E16.8156
G1 X139.981 Y87.393 E16.84564
G1 X140.511 Y88.124 E16.87567
G1 X140.973 Y88.9 E16.90571
G1 X141.366 Y89.713 E16.93574
G1 X141.684 Y90.558 E16.96577
G1 X141.927 Y91.428 E16.99581
G1 X142.092 Y92.316 E17.02585
G1 X142.187 Y93.446 E17.06357
G1 X142.196 Y93.766 E17.07422
G1 X142.2 Y94.053 E17.08376
G1 X142.199 Y126.623 E18.16705
G1 X142.19 Y127.35 E18.19123
G1 X142.139 Y128.252 E18.22128
G1 X142.008 Y129.146 E18.25133
G1 X141.799 Y130.024 E18.28135
G1 X141.513 Y130.881 E18.3114
G1 X141.152 Y131.709 E18.34144
G1 X140.72 Y132.501 E18.37145
G1 X140.219 Y133.253 E18.4015
G1 X139.653 Y133.957 E18.43154
G1 X139.028 Y134.608 E18.46156
G1 X138.347 Y135.202 E18.49162
G1 X137.616 Y135.733 E18.52167
G1 X136.842 Y136.197 E18.55168
G1 X136.029 Y136.591 E18.58173
G1 X135.185 Y136.911 E18.61175
G1 X134.315 Y137.156 E18.64181
G1 X133.428 Y137.322 E18.67183
G1 X132.277 Y137.42 E18.71025
G1 X131.956 Y137.429 E18.72093
G1 X131.67 Y137.433 E18.73044
G1 X88.562 Y137.433 E20.16422
G1 X87.864 Y137.423 E20.18744
G1 X86.962 Y137.37 E20.21749
G1 X86.069 Y137.238 E20.24751
G1 X85.191 Y137.027 E20.27755
G1 X84.335 Y136.739 E20.30759
G1 X83.508 Y136.377 E20.33761
G1 X82.716 Y135.942 E20.36767
G1 X81.965 Y135.44 E20.39771
G1 X81.262 Y134.873 E20.42775
G1 X80.612 Y134.246 E20.45779
G1 X80.02 Y133.564 E20.48783
G1 X79.49 Y132.833 E20.51786
G1 X79.028 Y132.057 E20.54789
G1 X78.635 Y131.244 E20.57793
G1 X78.317 Y130.399 E20.60796
G1 X78.074 Y129.529 E20.638
G1 X77.909 Y128.641 E20.66804
G1 X77.814 Y127.516 E20.70559
G1 X77.805 Y127.202 E20.71604
G1 X77.801 Y126.91 E20.72575
G1 X77.801 Y94.259 E21.81173
G1 X77.81 Y93.594 E21.83385
G1 X77.862 Y92.692 E21.8639
G1 X77.994 Y91.799 E21.89392
G1 X78.204 Y90.921 E21.92395
G1 X78.491 Y90.064 E21.95401
G1 X78.853 Y89.237 E21.98404
G1 X79.286 Y88.445 E22.01406
G1 X79.788 Y87.694 E22.0441
G1 X80.355 Y86.99 E22.07417
G1 X80.981 Y86.34 E22.10418
G1 F2700 E17.10418
;MESH:P25_Mouth_Grin.STL
G0 F6000 X103.155 Y107.399
G0 X111.781 Y116.944
G0 X112.886 Y116.642
G0 X118.137 Y121.629
G0 X116.689 Y121.447
G0 X117.261 Y123.235
G0 X117.528 Y123.762
G0 X117.879 Y124.239
G0 X118.307 Y124.648
G0 X119.884 Y125.533
;TYPE:WALL-INNER
G1 F2700 E22.10418
G1 F600 X120.501 Y125.584 E22.12477
G1 X121.116 Y125.533 E22.1453
G1 X121.716 Y125.375 E22.16594
G1 X122.28 Y125.121 E22.18651
G1 X122.792 Y124.775 E22.20706
G1 X123.242 Y124.347 E22.22772
G1 X123.61 Y123.848 E22.24834
G1 X123.888 Y123.294 E22.26896
G1 X124.068 Y122.702 E22.28954
G1 X124.148 Y122.09 E22.31006
G1 X124.122 Y121.469 E22.33074
G1 X123.992 Y120.865 E22.35129
G1 X123.761 Y120.289 E22.37193
G1 X123.436 Y119.763 E22.39249
G1 X123.028 Y119.296 E22.41312
G1 X122.544 Y118.908 E22.43375
G1 X122.004 Y118.605 E22.45434
G1 X121.42 Y118.401 E22.47492
G1 X120.81 Y118.294 E22.49552
G1 X120.192 Y118.294 E22.51607
G1 X119.578 Y118.4 E22.5368
G1 X118.997 Y118.606 E22.5573
G1 X118.455 Y118.907 E22.57792
G1 X117.973 Y119.297 E22.59854
G1 X117.565 Y119.761 E22.61909
G1 X117.239 Y120.288 E22.6397
G1 X117.007 Y120.865 E22.66039
G1 X116.879 Y121.471 E22.68099
G1 X116.852 Y122.087 E22.7015
G1 X116.931 Y122.701 E22.72209
G1 X117.111 Y123.296 E22.74276
G1 X117.391 Y123.848 E22.76335
G1 X117.759 Y124.345 E22.78392
G1 X118.206 Y124.774 E22.80452
G1 X118.719 Y125.119 E22.82508
G1 X119.284 Y125.376 E22.84573
G1 X119.884 Y125.533 E22.86636
G0 F6000 X119.952 Y125.137
;TYPE:WALL-OUTER
G1 F600 X120.501 Y125.183 E22.88468
G1 X121.048 Y125.137 E22.90294
G1 X121.582 Y124.997 E22.9213
G1 X122.084 Y124.77 E22.93962
G1 X122.541 Y124.462 E22.95795
G1 X122.941 Y124.081 E22.97633
G1 X123.268 Y123.638 E22.99464
G1 X123.515 Y123.145 E23.01298
G1 X123.676 Y122.617 E23.03134
G1 X123.747 Y122.072 E23.04962
G1 X123.724 Y121.52 E23.068
G1 X123.608 Y120.982 E23.0863
G1 X123.403 Y120.47 E23.10464
G1 X123.113 Y120.001 E23.12298
G1 X122.75 Y119.586 E23.14132
G1 X122.319 Y119.241 E23.15968
G1 X121.839 Y118.971 E23.178
G1 X121.319 Y118.789 E23.19633
G1 X120.775 Y118.694 E23.21469
G1 X120.226 Y118.694 E23.23295
G1 X119.68 Y118.788 E23.25138
G1 X119.162 Y118.972 E23.26966
G1 X118.68 Y119.24 E23.28801
G1 X118.251 Y119.587 E23.30636
G1 X117.887 Y120 E23.32467
G1 X117.597 Y120.469 E23.34301
G1 X117.391 Y120.982 E23.3614
G1 X117.277 Y121.521 E23.37972
G1 X117.253 Y122.07 E23.398
G1 X117.323 Y122.617 E23.41634
G1 X117.484 Y123.146 E23.43473
G1 X117.733 Y123.637 E23.45304
G1 X118.06 Y124.08 E23.47135
G1 X118.458 Y124.461 E23.48968
G1 X118.915 Y124.769 E23.50801
G1 X119.418 Y124.998 E23.52639
G1 X119.952 Y125.137 E23.54474
G0 F6000 X119.878 Y125.57
G1 F2700 E18.54474
G0 F6000 X118.307 Y124.648
G0 X117.879 Y124.239
G0 X117.681 Y123.969
G0 X116.66 Y122.096
G0 X118.119 Y122.032
G0 X111.781 Y116.944
G0 X112.096 Y118.366
G0 X109.324 Y118.407
;TYPE:WALL-INNER
G1 F2700 E23.54474
G1 F600 X110.703 Y118.407 E23.59061
G1 X112.057 Y118.179 E23.63628
G1 X112.12 Y118.163 E23.63844
G1 X113.416 Y117.72 E23.68399
G1 X114.618 Y117.067 E23.72949
G1 X114.675 Y117.032 E23.73172
G1 X115.756 Y116.189 E23.77731
G1 X116.709 Y115.156 E23.82406
G1 X117.478 Y113.98 E23.87079
G1 X118.048 Y112.673 E23.91821
G1 X118.093 Y112.498 E23.92422
G1 X118.152 Y112.26 E23.93238
G1 X118.16 Y112.229 E23.93344
G1 X118.206 Y112.273 E23.93425
G1 X118.409 Y112.41 E23.93951
G1 X118.72 Y112.62 E23.95199
G1 X119.284 Y112.876 E23.97259
G1 X119.884 Y113.033 E23.99322
G1 X120.501 Y113.084 E24.01381
G1 X121.118 Y113.034 E24.0344
G1 X121.717 Y112.875 E24.05501
G1 X122.28 Y112.62 E24.07557
G1 X122.793 Y112.273 E24.09617
G1 X123.24 Y111.846 E24.11673
G1 X123.61 Y111.349 E24.13734
G1 X123.888 Y110.794 E24.15798
G1 X124.069 Y110.202 E24.17857
G1 X124.148 Y109.587 E24.19919
G1 X124.121 Y108.972 E24.21967
G1 X123.993 Y108.365 E24.2403
G1 X123.761 Y107.788 E24.26099
G1 X123.435 Y107.261 E24.2816
G1 X123.027 Y106.797 E24.30215
G1 X122.546 Y106.409 E24.3227
G1 X122.004 Y106.105 E24.34337
G1 X121.42 Y105.901 E24.36394
G1 X120.81 Y105.794 E24.38454
G1 X120.192 Y105.794 E24.4051
G1 X119.578 Y105.9 E24.42582
G1 X118.997 Y106.106 E24.44632
G1 X118.456 Y106.407 E24.46692
G1 X118.131 Y106.669 E24.4808
G1 X117.973 Y106.797 E24.48756
G1 X117.909 Y106.87 E24.49079
G1 X117.893 Y106.833
G1 X117.812 Y106.647 E24.49543
G1 X117.477 Y105.884 E24.52315
G1 X116.708 Y104.709 E24.56985
G1 X115.76 Y103.679 E24.61641
G1 X114.651 Y102.816 E24.66315
G1 X113.49 Y102.189 E24.70704
G1 X113.434 Y102.153 E24.70925
G1 X112.083 Y101.69 E24.75675
G1 X110.78 Y101.474 E24.80068
G1 X110.716 Y101.459 E24.80287
G1 X109.292 Y101.46 E24.85023
G1 X107.908 Y101.693 E24.89691
G1 X106.69 Y102.112 E24.93975
G1 X106.627 Y102.123 E24.94188
G1 X105.434 Y102.77 E24.98702
G1 X105.381 Y102.79 E24.9889
G1 X104.337 Y103.606 E25.03297
G1 X104.282 Y103.633 E25.03501
G1 X103.374 Y104.624 E25.07971
G1 X103.322 Y104.662 E25.08186
G1 X102.519 Y105.893 E25.13074
G1 X102.189 Y106.647 E25.15812
G1 X102.108 Y106.832 E25.16483
G1 X102.091 Y106.87 E25.16622
G1 X102.027 Y106.797 E25.16767
G1 X101.869 Y106.67 E25.17232
G1 X101.546 Y106.409 E25.18614
G1 X101.004 Y106.105 E25.2068
G1 X100.42 Y105.901 E25.22738
G1 X99.81 Y105.794 E25.24798
G1 X99.192 Y105.794 E25.26853
G1 X98.578 Y105.9 E25.28926
G1 X97.997 Y106.106 E25.30976
G1 X97.456 Y106.407 E25.33035
G1 X96.973 Y106.797 E25.351
G1 X96.565 Y107.261 E25.37155
G1 X96.239 Y107.789 E25.39219
G1 X96.008 Y108.366 E25.41286
G1 X95.879 Y108.97 E25.4334
G1 X95.852 Y109.586 E25.45391
G1 X95.931 Y110.202 E25.47457
G1 X96.112 Y110.796 E25.49522
G1 X96.391 Y111.348 E25.51579
G1 X96.759 Y111.845 E25.53636
G1 X97.206 Y112.274 E25.55697
G1 X97.72 Y112.62 E25.57757
G1 X98.284 Y112.876 E25.59817
G1 X98.884 Y113.033 E25.6188
G1 X99.501 Y113.084 E25.63939
G1 X100.118 Y113.034 E25.65998
G1 X100.717 Y112.875 E25.6806
G1 X101.28 Y112.62 E25.70115
G1 X101.592 Y112.409 E25.71368
G1 X101.793 Y112.273 E25.72175
G1 X101.841 Y112.228 E25.72394
G1 X101.848 Y112.258
G1 X101.907 Y112.493 E25.72917
G1 X101.961 Y112.703 E25.73638
G1 X102.528 Y113.989 E25.78312
G1 X103.291 Y115.156 E25.8295
G1 X104.145 Y116.082 E25.87139
G1 X104.17 Y116.134 E25.87331
G1 X105.218 Y116.947 E25.91743
G1 X105.246 Y116.995 E25.91928
G1 X106.454 Y117.647 E25.96493
G1 X106.493 Y117.688 E25.96682
G1 X107.879 Y118.162 E26.01554
G1 X107.941 Y118.18 E26.01768
G1 X109.258 Y118.399 E26.06209
G1 X109.324 Y118.407 E26.0643
G0 F6000 X109.348 Y118.007
;TYPE:WALL-OUTER
G1 F600 X110.67 Y118.007 E26.10827
G1 X111.975 Y117.787 E26.15229
G1 X112.007 Y117.779 E26.15338
G1 X113.255 Y117.352 E26.19725
G1 X114.417 Y116.721 E26.24123
G1 X114.446 Y116.703 E26.24237
G1 X115.484 Y115.894 E26.28614
G1 X116.392 Y114.909 E26.3307
G1 X117.125 Y113.789 E26.37522
G1 X117.668 Y112.543 E26.42042
G1 X117.948 Y111.434 E26.45847
G1 X118.062 Y111.581 E26.46465
G1 X118.458 Y111.961 E26.48291
G1 X118.916 Y112.27 E26.50128
G1 X119.418 Y112.498 E26.51962
G1 X119.952 Y112.637 E26.53797
G1 X120.501 Y112.683 E26.5563
G1 X121.05 Y112.638 E26.57462
G1 X121.582 Y112.497 E26.59292
G1 X122.084 Y112.27 E26.61125
G1 X122.541 Y111.961 E26.6296
G1 X122.939 Y111.58 E26.64792
G1 X123.268 Y111.138 E26.66625
G1 X123.515 Y110.645 E26.68459
G1 X123.677 Y110.117 E26.70296
G1 X123.747 Y109.57 E26.7213
G1 X123.723 Y109.022 E26.73954
G1 X123.609 Y108.482 E26.7579
G1 X123.403 Y107.969 E26.77629
