;FLAVOR:Marlin
;TIME:8561
;Filament used: 3.36903m
;Layer height: 0.15
;MINX:12.799
;MINY:13.416
;MINZ:0.2
;MAXX:202.937
;MAXY:203.548
;MAXZ:10.25
;Generated with Cura_SteamEngine 4.8.0
M140 S60
M105
M190 S60
M104 S210
M105
M109 S210
M82 ;absolute extrusion mode
M201 X500.00 Y500.00 Z100.00 E5000.00 ;Setup machine max acceleration
M203 X500.00 Y500.00 Z10.00 E50.00 ;Setup machine max feedrate
M204 P500.00 R1000.00 T500.00 ;Setup Print/Retract/Travel acceleration
M205 X8.00 Y8.00 Z0.40 E5.00 ;Setup Jerk
M220 S100 ;Reset Feedrate
M221 S100 ;Reset Flowrate

G28 ;Home
G29 ;Auto Bed Leveling
M420 S1 Z2 ;Enable ABL using saved Mesh and Fade Height

G92 E0 ;Reset Extruder
G1 Z2.0 F3000 ;Move Z Axis up
G1 X10.1 Y20 Z0.28 F5000.0 ;Move to start position
G1 X10.1 Y200.0 Z0.28 F1500.0 E15 ;Draw the first line
G1 X10.4 Y200.0 Z0.28 F5000.0 ;Move to side a little
G1 X10.4 Y20 Z0.28 F1500.0 E30 ;Draw the second line
G92 E0 ;Reset Extruder
G1 Z2.0 F3000 ;Move Z Axis up
G92 E0
G92 E0
G1 F2700 E-5
;LAYER_COUNT:69
;LAYER:0
M107
G0 F6000 X146.517 Y24.059 Z0.2
;TYPE:SKIRT
G1 F2700 E0
G1 F600 X146.724 Y23.144 E0.0312
G1 X147.009 Y22.251 E0.06238
G1 X147.368 Y21.385 E0.09356
G1 X147.801 Y20.552 E0.12478
G1 X148.302 Y19.76 E0.15595
G1 X148.869 Y19.013 E0.18715
G1 X149.498 Y18.317 E0.21835
G1 X150.183 Y17.677 E0.24953
G1 X150.921 Y17.097 E0.28075
G1 X151.705 Y16.583 E0.31193
G1 X152.531 Y16.138 E0.34313
G1 X153.391 Y15.764 E0.37433
G1 X154.28 Y15.465 E0.40552
G1 X155.191 Y15.243 E0.43671
G1 X156.118 Y15.099 E0.46791
G1 X157.053 Y15.035 E0.49908
G1 X158.192 Y15.064 E0.53698
G1 X158.818 Y15.114 E0.55786
G1 X160.563 Y15.278 E0.61616
G1 X163.073 Y15.442 E0.69982
G1 X165.594 Y15.534 E0.78372
G1 X168.122 Y15.556 E0.86781
G1 X170.639 Y15.507 E0.95154
G1 X173.126 Y15.387 E1.03435
G1 X175.656 Y15.193 E1.11875
G1 X178.146 Y14.932 E1.20202
G1 X180.671 Y14.594 E1.28675
G1 X183.118 Y14.197 E1.3692
G1 X186.033 Y13.633 E1.46796
G1 X186.96 Y13.485 E1.49918
G1 X187.895 Y13.416 E1.53036
G1 X188.833 Y13.427 E1.56156
G1 X189.766 Y13.519 E1.59274
G1 X190.688 Y13.689 E1.62393
G1 X191.593 Y13.937 E1.65514
G1 X192.473 Y14.262 E1.68634
G1 X193.322 Y14.66 E1.71752
G1 X194.134 Y15.129 E1.74871
G1 X194.903 Y15.666 E1.77991
G1 X195.749 Y16.381 E1.81675
G1 X195.984 Y16.601 E1.82746
G1 X196.247 Y16.855 E1.83962
G1 X197.905 Y18.516 E1.91768
G1 X198.381 Y19.006 E1.9404
G1 X198.674 Y19.32 E1.95468
G1 X198.842 Y19.507 E1.96304
G1 X199.139 Y19.852 E1.97818
G1 X199.486 Y20.272 E1.9963
G1 X200.214 Y21.261 E2.03715
G1 X200.346 Y21.463 E2.04517
G1 X200.6 Y21.87 E2.06113
G1 X200.865 Y22.317 E2.07841
G1 X201.416 Y23.372 E2.118
G1 X201.522 Y23.605 E2.12651
G1 X201.731 Y24.096 E2.14426
G1 X201.927 Y24.589 E2.16191
G1 X202.321 Y25.773 E2.20341
G1 X202.388 Y26.02 E2.21192
G1 X202.497 Y26.454 E2.22681
G1 X202.614 Y26.967 E2.24431
G1 X202.824 Y28.222 E2.28663
G1 X202.852 Y28.479 E2.29523
G1 X202.896 Y28.984 E2.31209
G1 X202.929 Y29.512 E2.32968
G1 X202.937 Y30.739 E2.37049
G1 X202.924 Y31.003 E2.37929
G1 X202.889 Y31.489 E2.39549
G1 X202.841 Y32.001 E2.4126
G1 X202.675 Y33.131 E2.45058
G1 X202.627 Y33.371 E2.45872
G1 X202.498 Y33.94 E2.47813
G1 X202.366 Y34.456 E2.49584
G1 X201.994 Y35.63 E2.53681
G1 X201.892 Y35.899 E2.54637
G1 X201.704 Y36.364 E2.56306
G1 X201.092 Y37.776 E2.61424
G1 X200.687 Y38.681 E2.64722
G1 X199.706 Y41.047 E2.73241
G1 X198.818 Y43.384 E2.81556
G1 X197.993 Y45.744 E2.89871
G1 X197.232 Y48.142 E2.98239
G1 X196.533 Y50.579 E3.06671
G1 X195.916 Y52.98 E3.14916
G1 X195.344 Y55.498 E3.23505
G1 X194.863 Y57.944 E3.31796
G1 X194.448 Y60.419 E3.40143
G1 X194.105 Y62.888 E3.48433
G1 X193.828 Y65.404 E3.56852
G1 X193.623 Y67.92 E3.65248
G1 X193.489 Y70.438 E3.73635
G1 X193.427 Y72.963 E3.82036
G1 X193.435 Y75.485 E3.90424
G1 X193.514 Y77.971 E3.98697
G1 X193.666 Y80.503 E4.07133
G1 X193.887 Y83.003 E4.15481
G1 X194.177 Y85.481 E4.23779
G1 X194.58 Y88.23 E4.3302
G1 X194.72 Y89.095 E4.35934
G1 X194.78 Y89.515 E4.37345
G1 X194.812 Y89.774 E4.38213
G1 X194.879 Y90.407 E4.4033
G1 X194.918 Y90.821 E4.41713
G1 X194.976 Y91.526 E4.44066
G1 X195.008 Y92.751 E4.48142
G1 X195.002 Y92.955 E4.48821
G1 X194.99 Y93.244 E4.49783
G1 X194.969 Y93.615 E4.51019
G1 X194.929 Y94.216 E4.53022
G1 X194.877 Y94.872 E4.55211
G1 X194.763 Y95.803 E4.5833
G1 X194.708 Y96.087 E4.59293
G1 X194.673 Y96.288 E4.59971
G1 X194.617 Y96.563 E4.60905
G1 X194.542 Y96.905 E4.62069
G1 X194.413 Y97.462 E4.63971
G1 X194.23 Y98.204 E4.66513
G1 X193.877 Y99.36 E4.70533
G1 X193.797 Y99.578 E4.71305
G1 X193.681 Y99.878 E4.72375
G1 X193.31 Y100.797 E4.75671
G1 X193.058 Y101.387 E4.77805
G1 X192.518 Y102.472 E4.81836
G1 X192.348 Y102.771 E4.8298
G1 X192.185 Y103.048 E4.84049
G1 X191.813 Y103.659 E4.86428
G1 X191.454 Y104.231 E4.88674
G1 X190.741 Y105.236 E4.92773
G1 X190.561 Y105.462 E4.93734
G1 X190.349 Y105.721 E4.94847
G1 X189.96 Y106.18 E4.96848
G1 X189.288 Y106.946 E5.00237
G1 X188.897 Y107.368 E5.02151
G1 X188.459 Y107.814 E5.0423
G1 X160.203 Y136.071 E6.3714
G1 X158.555 Y137.778 E6.45031
G1 X157.65 Y138.704 E6.49338
G1 X157.058 Y139.295 E6.5212
G1 X155.713 Y140.603 E6.5836
G1 X155.194 Y141.094 E6.60736
G1 X152.469 Y143.86 E6.73651
G1 X152.135 Y144.213 E6.75267
G1 X151.928 Y144.426 E6.76255
G1 X149.449 Y146.907 E6.8792
G1 X148.8 Y147.538 E6.90931
G1 X147.028 Y149.307 E6.99259
G1 X146.435 Y149.913 E7.02079
G1 X143.97 Y152.377 E7.13671
G1 X142.588 Y153.719 E7.20078
G1 X142.234 Y154.053 E7.21697
G1 X140.487 Y155.8 E7.29914
G1 X140.115 Y156.191 E7.31709
G1 X138.537 Y157.818 E7.39248
G1 X138.13 Y158.222 E7.41155
G1 X137.026 Y159.295 E7.46276
G1 X136.435 Y159.853 E7.48979
G1 X135.372 Y160.899 E7.53939
G1 X107.171 Y189.096 E8.86579
G1 X106.643 Y189.609 E8.89027
G1 X106.345 Y189.89 E8.9039
G1 X106.093 Y190.117 E8.91518
G1 X105.716 Y190.444 E8.93177
G1 X105.361 Y190.745 E8.94726
G1 X104.795 Y191.214 E8.9717
G1 X103.801 Y191.948 E9.0128
G1 X103.399 Y192.208 E9.02872
G1 X103.105 Y192.39 E9.04022
G1 X102.622 Y192.682 E9.059
G1 X102 Y193.048 E9.083
G1 X100.893 Y193.618 E9.12441
G1 X100.693 Y193.707 E9.13169
G1 X100.402 Y193.832 E9.14223
G1 X99.779 Y194.088 E9.16463
G1 X98.937 Y194.417 E9.1947
G1 X97.758 Y194.8 E9.23593
G1 X97.527 Y194.861 E9.24387
G1 X97.211 Y194.94 E9.25471
G1 X96.566 Y195.09 E9.27673
G1 X95.709 Y195.275 E9.30589
G1 X94.463 Y195.468 E9.34783
G1 X94.204 Y195.493 E9.35649
G1 X93.899 Y195.518 E9.36666
G1 X93.04 Y195.576 E9.3953
G1 X92.417 Y195.608 E9.41605
G1 X91.811 Y195.622 E9.43621
G1 X91.14 Y195.602 E9.45854
G1 X90.878 Y195.586 E9.46727
G1 X90.533 Y195.559 E9.47878
G1 X89.765 Y195.486 E9.50444
G1 X89.021 Y195.405 E9.52933
G1 X88.638 Y195.357 E9.54217
G1 X88.362 Y195.315 E9.55145
G1 X87.824 Y195.227 E9.56958
G1 X85.307 Y194.848 E9.65424
G1 X82.779 Y194.541 E9.73894
G1 X80.262 Y194.307 E9.82302
G1 X77.763 Y194.144 E9.90631
G1 X75.253 Y194.054 E9.98985
G1 X72.729 Y194.034 E10.0738
G1 X70.197 Y194.086 E10.15803
G1 X67.69 Y194.208 E10.24151
G1 X65.19 Y194.401 E10.32491
G1 X62.696 Y194.664 E10.40832
G1 X60.191 Y195.001 E10.49239
G1 X57.686 Y195.409 E10.5768
G1 X55.263 Y195.876 E10.65888
G1 X52.774 Y196.429 E10.74368
G1 X50.329 Y197.043 E10.82753
G1 X47.936 Y197.719 E10.91023
G1 X45.487 Y198.485 E10.99558
G1 X43.133 Y199.296 E11.07839
G1 X40.792 Y200.176 E11.16157
G1 X38.419 Y201.147 E11.24685
G1 X36.776 Y201.865 E11.30648
G1 X36.12 Y202.159 E11.33039
G1 X35.692 Y202.34 E11.34585
G1 X35.203 Y202.535 E11.36336
G1 X34.016 Y202.931 E11.40498
G1 X33.766 Y202.999 E11.4136
G1 X33.303 Y203.115 E11.42947
G1 X32.794 Y203.23 E11.44683
G1 X31.552 Y203.436 E11.4887
G1 X31.293 Y203.464 E11.49736
G1 X30.797 Y203.507 E11.51392
G1 X30.269 Y203.54 E11.53152
G1 X29.051 Y203.548 E11.57203
G1 X28.803 Y203.536 E11.58029
G1 X28.311 Y203.501 E11.59669
G1 X27.787 Y203.452 E11.6142
G1 X26.654 Y203.286 E11.65229
G1 X26.414 Y203.238 E11.66043
G1 X25.84 Y203.108 E11.68
G1 X25.321 Y202.975 E11.69782
G1 X24.147 Y202.603 E11.73878
G1 X23.881 Y202.502 E11.74824
G1 X23.409 Y202.31 E11.76519
G1 X22.941 Y202.107 E11.78216
G1 X21.837 Y201.552 E11.82326
G1 X21.616 Y201.425 E11.83174
G1 X21.214 Y201.183 E11.84734
G1 X20.77 Y200.902 E11.86482
G1 X19.765 Y200.183 E11.90592
G1 X19.577 Y200.032 E11.91394
G1 X19.206 Y199.721 E11.93004
G1 X18.795 Y199.36 E11.94823
G1 X18.476 Y199.07 E11.96257
G1 X18.248 Y198.853 E11.97304
G1 X17.893 Y198.505 E11.98958
G1 X16.385 Y196.996 E12.06053
G1 X15.915 Y196.513 E12.08295
G1 X15.291 Y195.814 E12.11411
G1 X14.728 Y195.064 E12.1453
G1 X14.231 Y194.268 E12.17651
G1 X13.803 Y193.434 E12.20769
G1 X13.448 Y192.566 E12.23888
G1 X13.169 Y191.67 E12.2701
G1 X12.967 Y190.754 E12.30129
G1 X12.843 Y189.825 E12.33247
G1 X12.799 Y188.888 E12.36367
G1 X12.835 Y187.951 E12.39485
G1 X12.998 Y186.757 E12.43494
G1 X13.247 Y185.474 E12.4784
G1 X13.326 Y185.097 E12.49122
G1 X13.763 Y182.653 E12.57379
G1 X14.14 Y180.131 E12.65861
G1 X14.442 Y177.64 E12.74206
G1 X14.67 Y175.17 E12.82457
G1 X14.833 Y172.619 E12.90959
G1 X14.921 Y170.131 E12.99239
G1 X14.94 Y167.605 E13.07641
G1 X14.886 Y165.084 E13.16027
G1 X14.762 Y162.567 E13.24409
G1 X14.552 Y159.881 E13.3337
G1 X14.468 Y158.967 E13.36423
G1 X14.422 Y158.03 E13.39543
G1 X14.456 Y157.093 E13.42662
G1 X14.57 Y156.162 E13.45781
G1 X14.763 Y155.244 E13.48901
G1 X15.033 Y154.346 E13.5202
G1 X15.379 Y153.474 E13.5514
G1 X15.798 Y152.635 E13.5826
G1 X16.287 Y151.834 E13.61381
G1 X16.842 Y151.079 E13.64498
G1 X17.459 Y150.373 E13.67616
G1 X18.135 Y149.722 E13.70738
G1 X18.863 Y149.131 E13.73856
G1 X19.639 Y148.605 E13.76974
G1 X20.458 Y148.146 E13.80097
G1 X21.312 Y147.759 E13.83215
G1 X22.196 Y147.446 E13.86334
G1 X23.103 Y147.209 E13.89452
G1 X24.028 Y147.051 E13.92574
G1 X24.962 Y146.972 E13.95691
G1 X25.9 Y146.972 E13.98811
G1 X27.101 Y147.091 E14.02825
G1 X28.098 Y147.245 E14.0618
G1 X28.329 Y147.283 E14.06959
G1 X40.885 Y149.497 E14.49365
G1 X43.477 Y149.917 E14.58098
G1 X45.931 Y150.242 E14.66332
G1 X48.478 Y150.507 E14.74849
G1 X50.942 Y150.694 E14.83067
G1 X53.485 Y150.814 E14.91535
G1 X56.013 Y150.862 E14.99945
G1 X58.504 Y150.839 E15.0823
G1 X61.027 Y150.744 E15.16628
G1 X63.543 Y150.578 E15.25014
G1 X66.046 Y150.342 E15.33376
G1 X68.522 Y150.036 E15.41674
G1 X71.044 Y149.654 E15.50158
G1 X73.501 Y149.209 E15.58463
G1 X75.995 Y148.685 E15.66939
G1 X78.405 Y148.107 E15.75182
G1 X80.822 Y147.454 E15.83509
G1 X83.262 Y146.719 E15.91985
G1 X85.678 Y145.918 E16.0045
G1 X88.004 Y145.072 E16.08683
G1 X90.356 Y144.141 E16.17096
G1 X92.677 Y143.145 E16.25496
G1 X94.942 Y142.096 E16.33799
G1 X97.197 Y140.974 E16.42176
G1 X99.442 Y139.776 E16.50639
G1 X101.628 Y138.529 E16.5901
G1 X103.76 Y137.231 E16.67312
G1 X105.88 Y135.858 E16.75712
G1 X107.948 Y134.433 E16.84065
G1 X109.978 Y132.948 E16.92431
G1 X111.987 Y131.389 E17.00889
G1 X113.894 Y129.821 E17.091
G1 X115.812 Y128.151 E17.17559
G1 X117.678 Y126.431 E17.26
G1 X119.486 Y124.666 E17.34403
G1 X120.696 Y123.429 E17.40159
G1 X120.77 Y123.351 E17.40516
G1 X121.024 Y123.093 E17.4172
G1 X121.261 Y122.86 E17.42826
G1 X122.666 Y121.45 E17.49446
G1 X123.108 Y121.021 E17.51495
G1 X124.97 Y119.167 E17.60234
G1 X126.69 Y117.353 E17.68549
G1 X128.367 Y115.48 E17.76911
G1 X130.007 Y113.542 E17.85355
G1 X131.559 Y111.6 E17.93623
G1 X133.088 Y109.571 E18.02073
G1 X134.535 Y107.533 E18.10386
G1 X135.946 Y105.422 E18.18832
G1 X137.278 Y103.302 E18.27159
G1 X138.551 Y101.142 E18.35498
G1 X139.775 Y98.923 E18.43927
G1 X140.917 Y96.707 E18.52218
G1 X142.022 Y94.408 E18.60702
G1 X143.044 Y92.115 E18.69052
G1 X144.004 Y89.788 E18.77424
G1 X144.901 Y87.429 E18.85819
G1 X145.719 Y85.072 E18.94117
G1 X146.477 Y82.677 E19.02472
G1 X147.172 Y80.24 E19.10901
G1 X147.8 Y77.781 E19.19342
G1 X148.348 Y75.34 E19.27663
G1 X148.83 Y72.876 E19.36013
G1 X149.239 Y70.421 E19.44291
G1 X149.589 Y67.876 E19.52836
G1 X149.856 Y65.422 E19.61046
G1 X150.06 Y62.875 E19.69544
G1 X150.188 Y60.392 E19.77814
G1 X150.248 Y57.861 E19.86234
G1 X150.236 Y55.342 E19.94613
G1 X150.152 Y52.81 E20.03039
G1 X150 Y50.331 E20.11299
G1 X149.771 Y47.79 E20.19785
G1 X149.48 Y45.333 E20.28014
G1 X149.099 Y42.745 E20.36715
G1 X148.9 Y41.572 E20.40672
G1 X146.593 Y28.483 E20.84877
G1 X146.481 Y27.793 E20.87202
G1 X146.37 Y26.862 E20.9032
G1 X146.34 Y25.925 E20.93438
G1 X146.389 Y24.988 E20.96559
G1 X146.517 Y24.059 E20.99678
G0 F6000 X146.923 Y24.064
G1 F600 X147.133 Y23.168 E21.02739
G1 X147.42 Y22.293 E21.05802
G1 X147.782 Y21.447 E21.08863
G1 X148.215 Y20.635 E21.11923
G1 X148.718 Y19.863 E21.14988
G1 X149.286 Y19.138 E21.18051
G1 X149.914 Y18.466 E21.2111
G1 X150.599 Y17.85 E21.24174
G1 X151.334 Y17.296 E21.27236
G1 X152.115 Y16.808 E21.30299
G1 X152.935 Y16.389 E21.33361
G1 X153.788 Y16.044 E21.36422
G1 X154.668 Y15.773 E21.39484
G1 X155.568 Y15.58 E21.42546
G1 X156.482 Y15.466 E21.45609
G1 X157.402 Y15.431 E21.48671
G1 X158.161 Y15.463 E21.51198
G1 X158.781 Y15.512 E21.53267
G1 X160.536 Y15.677 E21.5913
G1 X163.066 Y15.842 E21.67562
G1 X165.577 Y15.934 E21.75919
G1 X168.126 Y15.956 E21.84398
G1 X170.631 Y15.907 E21.92731
G1 X173.174 Y15.785 E22.01199
G1 X175.691 Y15.592 E22.09595
G1 X178.208 Y15.328 E22.18012
G1 X180.682 Y14.997 E22.26314
G1 X183.225 Y14.583 E22.34884
G1 X186.113 Y14.025 E22.44667
G1 X187.023 Y13.88 E22.47732
G1 X187.941 Y13.815 E22.50793
G1 X188.862 Y13.83 E22.53856
G1 X189.777 Y13.924 E22.56916
G1 X190.681 Y14.098 E22.59978
G1 X191.567 Y14.35 E22.63041
G1 X192.427 Y14.677 E22.66101
G1 X193.256 Y15.078 E22.69164
G1 X194.047 Y15.549 E22.72226
G1 X194.794 Y16.087 E22.75288
G1 X195.475 Y16.673 E22.78276
G1 X195.71 Y16.893 E22.79347
G1 X195.964 Y17.138 E22.80521
G1 X197.618 Y18.795 E22.88308
G1 X198.094 Y19.285 E22.9058
G1 X198.376 Y19.587 E22.91954
G1 X198.544 Y19.774 E22.9279
G1 X198.831 Y20.107 E22.94252
G1 X199.178 Y20.527 E22.96064
G1 X199.879 Y21.48 E22.99999
G1 X200.011 Y21.682 E23.00802
G1 X200.256 Y22.074 E23.02339
G1 X200.521 Y22.521 E23.04068
G1 X201.051 Y23.538 E23.07882
G1 X201.157 Y23.771 E23.08733
G1 X201.359 Y24.244 E23.10444
G1 X201.555 Y24.737 E23.12209
G1 X201.935 Y25.878 E23.16209
G1 X202.002 Y26.125 E23.1706
G1 X202.107 Y26.543 E23.18493
G1 X202.224 Y27.056 E23.20243
G1 X202.427 Y28.265 E23.24321
G1 X202.455 Y28.522 E23.25181
G1 X202.496 Y29.009 E23.26806
G1 X202.529 Y29.537 E23.28566
G1 X202.537 Y30.719 E23.32497
G1 X202.524 Y30.983 E23.33376
G1 X202.491 Y31.451 E23.34937
G1 X202.443 Y31.963 E23.36647
G1 X202.283 Y33.053 E23.40311
G1 X202.235 Y33.293 E23.41125
G1 X202.11 Y33.841 E23.42995
G1 X201.978 Y34.357 E23.44766
G1 X201.62 Y35.488 E23.48712
G1 X201.518 Y35.757 E23.49669
G1 X201.337 Y36.206 E23.51279
G1 X200.727 Y37.613 E23.56379
G1 X200.311 Y38.544 E23.59771
G1 X199.338 Y40.889 E23.68215
G1 X198.45 Y43.226 E23.7653
G1 X197.611 Y45.628 E23.84993
G1 X196.842 Y48.048 E23.93438
G1 X196.143 Y50.483 E24.01864
G1 X195.526 Y52.89 E24.10129
G1 X194.956 Y55.397 E24.1868
G1 X194.47 Y57.873 E24.27072
G1 X194.052 Y60.369 E24.3549
G1 X193.706 Y62.856 E24.43841
G1 X193.429 Y65.367 E24.52243
G1 X193.223 Y67.9 E24.60696
G1 X193.09 Y70.408 E24.69049
G1 X193.026 Y72.954 E24.7752
G1 X193.034 Y75.465 E24.85872
G1 X193.115 Y78.008 E24.94334
G1 X193.267 Y80.526 E25.02724
G1 X193.49 Y83.048 E25.11145
G1 X193.783 Y85.553 E25.19534
G1 X194.182 Y88.275 E25.28684
G1 X194.325 Y89.158 E25.31659
G1 X194.384 Y89.567 E25.33033
G1 X194.414 Y89.818 E25.33874
G1 X194.481 Y90.445 E25.35971
G1 X194.519 Y90.854 E25.37338
G1 X194.577 Y91.559 E25.3969
G1 X194.608 Y92.74 E25.4362
G1 X194.591 Y93.222 E25.45224
G1 X194.57 Y93.589 E25.46447
G1 X194.53 Y94.185 E25.48433
G1 X194.478 Y94.841 E25.50622
G1 X194.365 Y95.754 E25.53682
G1 X194.315 Y96.013 E25.54559
G1 X194.28 Y96.214 E25.55238
G1 X194.226 Y96.479 E25.56137
G1 X194.152 Y96.815 E25.57282
G1 X194.025 Y97.366 E25.59162
G1 X193.842 Y98.108 E25.61704
G1 X193.501 Y99.222 E25.65579
G1 X193.421 Y99.44 E25.66351
G1 X193.31 Y99.729 E25.67381
G1 X192.94 Y100.646 E25.7067
G1 X192.691 Y101.229 E25.72778
G1 X192.171 Y102.274 E25.76661
G1 X192.001 Y102.573 E25.77805
G1 X191.843 Y102.841 E25.78839
G1 X191.474 Y103.446 E25.81196
G1 X191.115 Y104.018 E25.83443
G1 X190.429 Y104.987 E25.87391
G1 X190.249 Y105.213 E25.88352
