;FLAVOR:Marlin
;TIME:27063
;Filament used: 15.6805m
;Layer height: 0.15
;MINX:26
;MINY:31
;MINZ:0.2
;MAXX:194
;MAXY:189
;MAXZ:26.9
;Generated with Cura_SteamEngine 4.9.0
M140 S60
M105
M190 S60
M104 S210
M105
M109 S210
M82 ;absolute extrusion mode
M201 X500.00 Y500.00 Z100.00 E5000.00 ;Setup machine max acceleration
M203 X500.00 Y500.00 Z10.00 E50.00 ;Setup machine max feedrate
M204 P500.00 R1000.00 T500.00 ;Setup Print/Retract/Travel acceleration
M205 X8.00 Y8.00 Z0.40 E5.00 ;Setup Jerk
M220 S100 ;Reset Feedrate
M221 S100 ;Reset Flowrate

G28 ;Home
G29 ;Auto Bed Leveling
M420 S1 Z2 ;Enable ABL using saved Mesh and Fade Height

G92 E0 ;Reset Extruder
G1 Z2.0 F3000 ;Move Z Axis up
G1 X10.1 Y20 Z0.28 F5000.0 ;Move to start position
G1 X10.1 Y200.0 Z0.28 F1500.0 E15 ;Draw the first line
G1 X10.4 Y200.0 Z0.28 F5000.0 ;Move to side a little
G1 X10.4 Y20 Z0.28 F1500.0 E30 ;Draw the second line
G92 E0 ;Reset Extruder
G1 Z2.0 F3000 ;Move Z Axis up
G92 E0
G92 E0
G1 F2700 E-5
;LAYER_COUNT:179
;LAYER:0
M107
G0 F6000 X81.065 Y37.309 Z0.2
;TYPE:SKIRT
G1 F2700 E0
G1 F600 X81.501 Y36.479 E0.03118
G1 X82.007 Y35.689 E0.06239
G1 X82.578 Y34.945 E0.09358
G1 X83.21 Y34.252 E0.12477
G1 X83.899 Y33.616 E0.15596
G1 X84.64 Y33.041 E0.18716
G1 X85.427 Y32.531 E0.21835
G1 X86.255 Y32.09 E0.24955
G1 X87.117 Y31.721 E0.28074
G1 X88.008 Y31.427 E0.31194
G1 X88.92 Y31.209 E0.34313
G1 X89.847 Y31.071 E0.3743
G1 X90.701 Y31.013 E0.40277
G1 X91.021 Y31.004 E0.41342
G1 X91.33 Y31 E0.4237
G1 X128.293 Y31 E1.65309
G1 X129.149 Y31.011 E1.68157
G1 X130.085 Y31.065 E1.71275
G1 X131.013 Y31.197 E1.74392
G1 X131.927 Y31.409 E1.77513
G1 X132.819 Y31.698 E1.80632
G1 X133.684 Y32.061 E1.83752
G1 X134.514 Y32.497 E1.8687
G1 X135.305 Y33.002 E1.89991
G1 X136.049 Y33.573 E1.93111
G1 X136.742 Y34.205 E1.9623
G1 X137.379 Y34.893 E1.99349
G1 X137.954 Y35.634 E2.02468
G1 X138.465 Y36.42 E2.05587
G1 X138.907 Y37.248 E2.08708
G1 X139.276 Y38.11 E2.11827
G1 X139.571 Y39 E2.14945
G1 X139.789 Y39.912 E2.18064
G1 X139.929 Y40.84 E2.21186
G1 X139.987 Y41.701 E2.24056
G1 X139.996 Y42.021 E2.25121
G1 X140 Y42.33 E2.26148
G1 X140 Y73.127 E3.2858
G1 X140.037 Y75.735 E3.37255
G1 X140.144 Y78.256 E3.45647
G1 X140.321 Y80.751 E3.53967
G1 X140.569 Y83.251 E3.62322
G1 X140.888 Y85.744 E3.70682
G1 X141.279 Y88.237 E3.79075
G1 X141.742 Y90.727 E3.87499
G1 X142.272 Y93.191 E3.95881
G1 X142.861 Y95.593 E4.04107
G1 X143.537 Y98.049 E4.1258
G1 X144.275 Y100.459 E4.20963
G1 X145.082 Y102.851 E4.29359
G1 X145.945 Y105.191 E4.37654
G1 X146.891 Y107.547 E4.46099
G1 X147.891 Y109.845 E4.54434
G1 X148.96 Y112.126 E4.62812
G1 X150.103 Y114.396 E4.71266
G1 X151.288 Y116.589 E4.79556
G1 X152.546 Y118.772 E4.87936
G1 X153.861 Y120.909 E4.96282
G1 X155.233 Y123.005 E5.04614
G1 X156.688 Y125.093 E5.13079
G1 X158.181 Y127.113 E5.21433
G1 X159.731 Y129.093 E5.29796
G1 X161.347 Y131.038 E5.38207
G1 X162.998 Y132.915 E5.46521
G1 X164.714 Y134.76 E5.54902
G1 X166.484 Y136.557 E5.63291
G1 X168.288 Y138.288 E5.71607
G1 X170.174 Y139.997 E5.80072
G1 X172.097 Y141.643 E5.88491
G1 X174.035 Y143.209 E5.96778
G1 X176.03 Y144.731 E6.05124
G1 X178.075 Y146.202 E6.13502
G1 X180.164 Y147.615 E6.21891
G1 X182.293 Y148.97 E6.30284
G1 X184.456 Y150.261 E6.38662
G1 X186.628 Y151.477 E6.46941
G1 X187.196 Y151.776 E6.49076
G1 X188.221 Y152.33 E6.52952
G1 X189.027 Y152.811 E6.56074
G1 X189.788 Y153.358 E6.59191
G1 X190.5 Y153.969 E6.62311
G1 X191.157 Y154.638 E6.6543
G1 X191.756 Y155.36 E6.6855
G1 X192.29 Y156.131 E6.71669
G1 X192.757 Y156.944 E6.74788
G1 X193.152 Y157.795 E6.77908
G1 X193.474 Y158.675 E6.81025
G1 X193.72 Y159.581 E6.84147
G1 X193.888 Y160.503 E6.87265
G1 X193.987 Y161.701 E6.91263
G1 X193.996 Y162.024 E6.92337
G1 X194 Y162.33 E6.93355
G1 X193.999 Y177.4 E7.43478
G1 X193.99 Y178.127 E7.45896
G1 X193.939 Y179.064 E7.49018
G1 X193.807 Y179.992 E7.52135
G1 X193.598 Y180.906 E7.55254
G1 X193.311 Y181.799 E7.58373
G1 X192.949 Y182.665 E7.61495
G1 X192.515 Y183.496 E7.64613
G1 X192.011 Y184.287 E7.67733
G1 X191.442 Y185.032 E7.70851
G1 X190.811 Y185.727 E7.73973
G1 X190.124 Y186.365 E7.77091
G1 X189.385 Y186.942 E7.8021
G1 X188.599 Y187.454 E7.8333
G1 X187.773 Y187.897 E7.86447
G1 X186.911 Y188.269 E7.8957
G1 X186.022 Y188.565 E7.92686
G1 X185.11 Y188.785 E7.95807
G1 X184.183 Y188.926 E7.98925
G1 X183.299 Y188.987 E8.01872
G1 X182.978 Y188.996 E8.0294
G1 X182.67 Y189 E8.03965
G1 X37.565 Y188.999 E12.86586
G1 X36.867 Y188.99 E12.88908
G1 X35.931 Y188.938 E12.92026
G1 X35.002 Y188.806 E12.95147
G1 X34.088 Y188.596 E12.98266
G1 X33.195 Y188.309 E13.01386
G1 X32.33 Y187.946 E13.04506
G1 X31.499 Y187.512 E13.07624
G1 X30.708 Y187.008 E13.10743
G1 X29.963 Y186.438 E13.13863
G1 X29.269 Y185.807 E13.16983
G1 X28.632 Y185.12 E13.20099
G1 X28.055 Y184.38 E13.2322
G1 X27.543 Y183.594 E13.2634
G1 X27.1 Y182.767 E13.29461
G1 X26.729 Y181.906 E13.32579
G1 X26.433 Y181.016 E13.35698
G1 X26.214 Y180.104 E13.38818
G1 X26.073 Y179.177 E13.41937
G1 X26.013 Y178.288 E13.449
G1 X26.004 Y177.955 E13.46008
G1 X26 Y177.658 E13.46996
G1 X26.001 Y162.509 E13.97382
G1 X26.011 Y161.841 E13.99604
G1 X26.065 Y160.905 E14.02722
G1 X26.199 Y159.977 E14.05841
G1 X26.411 Y159.063 E14.08961
G1 X26.7 Y158.171 E14.1208
G1 X27.064 Y157.307 E14.15198
G1 X27.501 Y156.477 E14.18318
G1 X28.006 Y155.687 E14.21437
G1 X28.577 Y154.943 E14.24556
G1 X29.21 Y154.25 E14.27678
G1 X29.899 Y153.614 E14.30796
G1 X30.639 Y153.038 E14.33915
G1 X31.427 Y152.528 E14.37037
G1 X31.927 Y152.251 E14.38939
G1 X32.151 Y152.134 E14.39779
G1 X34.436 Y150.898 E14.4842
G1 X36.625 Y149.633 E14.56829
G1 X38.739 Y148.33 E14.65088
G1 X40.892 Y146.919 E14.7365
G1 X42.924 Y145.501 E14.81891
G1 X44.935 Y144.013 E14.90212
G1 X46.941 Y142.438 E14.98694
G1 X48.881 Y140.825 E15.07086
G1 X50.761 Y139.169 E15.15419
G1 X52.591 Y137.464 E15.23738
G1 X54.384 Y135.695 E15.32115
G1 X56.121 Y133.881 E15.40468
G1 X57.832 Y131.99 E15.4895
G1 X59.471 Y130.073 E15.57339
G1 X61.031 Y128.142 E15.65596
G1 X62.574 Y126.113 E15.74074
G1 X64.017 Y124.104 E15.82301
G1 X65.46 Y121.97 E15.90869
G1 X66.776 Y119.897 E15.99036
G1 X68.074 Y117.718 E16.07471
G1 X69.316 Y115.497 E16.15935
G1 X70.466 Y113.293 E16.24203
G1 X71.576 Y111.011 E16.32644
G1 X72.62 Y108.701 E16.41075
G1 X73.576 Y106.417 E16.4931
G1 X74.496 Y104.032 E16.57813
G1 X75.325 Y101.683 E16.66098
G1 X76.096 Y99.285 E16.74475
G1 X76.799 Y96.869 E16.82844
G1 X77.433 Y94.436 E16.91207
G1 X77.998 Y91.985 E16.99573
G1 X78.506 Y89.461 E17.08136
G1 X78.918 Y87.051 E17.16268
G1 X79.281 Y84.502 E17.24831
G1 X79.561 Y82.036 E17.33086
G1 X79.774 Y79.536 E17.41431
G1 X79.919 Y77.003 E17.4987
G1 X79.991 Y74.497 E17.58208
G1 X80 Y73.143 E17.62712
G1 X80.001 Y42.509 E18.64601
G1 X80.011 Y41.844 E18.66813
G1 X80.065 Y40.907 E18.69935
G1 X80.199 Y39.979 E18.73053
G1 X80.411 Y39.065 E18.76174
G1 X80.7 Y38.173 E18.79292
G1 X81.065 Y37.309 E18.82412
G0 F6000 X81.463 Y37.404
G1 F600 X81.898 Y36.593 E18.85473
G1 X82.403 Y35.822 E18.88538
G1 X82.972 Y35.099 E18.91598
G1 X83.602 Y34.427 E18.94662
G1 X84.288 Y33.813 E18.97724
G1 X85.024 Y33.261 E19.00784
G1 X85.806 Y32.774 E19.03848
G1 X86.627 Y32.358 E19.06909
G1 X87.481 Y32.014 E19.09972
G1 X88.361 Y31.745 E19.13032
G1 X89.262 Y31.554 E19.16096
G1 X90.176 Y31.442 E19.19158
G1 X90.712 Y31.413 E19.20944
G1 X91.032 Y31.404 E19.22008
G1 X91.33 Y31.4 E19.23
G1 X128.293 Y31.4 E20.45939
G1 X129.143 Y31.411 E20.48766
G1 X130.062 Y31.464 E20.51828
G1 X130.973 Y31.597 E20.5489
G1 X131.869 Y31.808 E20.57952
G1 X132.743 Y32.096 E20.61013
G1 X133.59 Y32.459 E20.64077
G1 X134.401 Y32.894 E20.67138
G1 X135.171 Y33.398 E20.70199
G1 X135.895 Y33.967 E20.73262
G1 X136.567 Y34.597 E20.76326
G1 X137.182 Y35.282 E20.79387
G1 X137.735 Y36.018 E20.82449
G1 X138.222 Y36.799 E20.85511
G1 X138.639 Y37.62 E20.88573
G1 X138.984 Y38.474 E20.91637
G1 X139.253 Y39.354 E20.94697
G1 X139.445 Y40.255 E20.97761
G1 X139.558 Y41.168 E21.00821
G1 X139.587 Y41.712 E21.02633
G1 X139.596 Y42.032 E21.03698
G1 X139.6 Y42.33 E21.04689
G1 X139.6 Y73.133 E22.0714
G1 X139.637 Y75.758 E22.15872
G1 X139.744 Y78.266 E22.24221
G1 X139.922 Y80.786 E22.32624
G1 X140.171 Y83.301 E22.41029
G1 X140.49 Y85.79 E22.49376
G1 X140.891 Y88.342 E22.57968
G1 X141.343 Y90.773 E22.66192
G1 X141.879 Y93.265 E22.7467
G1 X142.481 Y95.722 E22.83084
G1 X143.154 Y98.167 E22.91518
G1 X143.889 Y100.567 E22.99867
G1 X144.703 Y102.981 E23.0834
G1 X145.57 Y105.331 E23.16671
G1 X146.529 Y107.719 E23.2523
G1 X147.52 Y109.996 E23.33489
G1 X148.612 Y112.325 E23.42045
G1 X149.737 Y114.56 E23.50367
G1 X150.932 Y116.773 E23.58732
G1 X152.193 Y118.96 E23.67129
G1 X153.545 Y121.157 E23.75709
G1 X154.913 Y123.247 E23.84017
G1 X156.353 Y125.314 E23.92395
G1 X157.859 Y127.352 E24.00824
G1 X159.41 Y129.332 E24.09189
G1 X161.038 Y131.291 E24.17661
G1 X162.705 Y133.188 E24.26061
G1 X164.435 Y135.048 E24.34509
G1 X166.204 Y136.844 E24.42894
G1 X168.025 Y138.59 E24.51285
G1 X169.89 Y140.281 E24.59658
G1 X171.831 Y141.942 E24.68155
G1 X173.787 Y143.523 E24.7652
G1 X175.794 Y145.053 E24.84914
G1 X177.846 Y146.529 E24.93321
G1 X179.947 Y147.951 E25.01759
G1 X182.078 Y149.307 E25.1016
G1 X184.262 Y150.611 E25.1862
G1 X186.469 Y151.846 E25.27032
G1 X187.006 Y152.128 E25.29049
G1 X188.031 Y152.682 E25.32924
G1 X188.821 Y153.154 E25.35985
G1 X189.567 Y153.694 E25.39048
G1 X190.264 Y154.296 E25.42111
G1 X190.906 Y154.956 E25.45174
G1 X191.488 Y155.669 E25.48235
G1 X192.006 Y156.43 E25.51297
G1 X192.455 Y157.234 E25.5436
G1 X192.834 Y158.073 E25.57422
G1 X193.138 Y158.942 E25.60484
G1 X193.366 Y159.834 E25.63546
G1 X193.515 Y160.742 E25.66606
G1 X193.587 Y161.712 E25.69842
G1 X193.596 Y162.035 E25.70916
G1 X193.6 Y162.33 E25.71898
G1 X193.599 Y177.395 E26.22004
G1 X193.59 Y178.122 E26.24422
G1 X193.539 Y179.041 E26.27483
G1 X193.408 Y179.953 E26.30548
G1 X193.198 Y180.849 E26.33609
G1 X192.912 Y181.724 E26.36671
G1 X192.551 Y182.571 E26.39733
G1 X192.117 Y183.383 E26.42795
G1 X191.615 Y184.155 E26.45858
G1 X191.047 Y184.88 E26.48921
G1 X190.419 Y185.553 E26.51983
G1 X189.735 Y186.169 E26.55044
G1 X189 Y186.723 E26.58106
G1 X188.22 Y187.212 E26.61168
G1 X187.4 Y187.631 E26.6423
G1 X186.547 Y187.977 E26.67292
G1 X185.667 Y188.248 E26.70354
G1 X184.767 Y188.441 E26.73416
G1 X183.853 Y188.556 E26.7648
G1 X183.288 Y188.587 E26.78362
G1 X182.967 Y188.596 E26.7943
G1 X182.67 Y188.6 E26.80418
G1 X37.57 Y188.599 E31.63022
G1 X36.872 Y188.59 E31.65344
G1 X35.953 Y188.538 E31.68406
G1 X35.042 Y188.407 E31.71467
G1 X34.146 Y188.197 E31.74528
G1 X33.271 Y187.91 E31.77591
G1 X32.424 Y187.548 E31.80654
G1 X31.612 Y187.114 E31.83716
G1 X30.841 Y186.612 E31.86776
G1 X30.116 Y186.044 E31.8984
G1 X29.443 Y185.415 E31.92904
G1 X28.828 Y184.731 E31.95963
G1 X28.274 Y183.996 E31.99024
G1 X27.786 Y183.215 E32.02087
G1 X27.367 Y182.395 E32.0515
G1 X27.021 Y181.542 E32.08212
G1 X26.751 Y180.662 E32.11273
G1 X26.558 Y179.761 E32.14338
G1 X26.444 Y178.848 E32.17398
G1 X26.413 Y178.277 E32.193
G1 X26.404 Y177.944 E32.20408
G1 X26.4 Y177.658 E32.21359
G1 X26.401 Y162.515 E32.71725
G1 X26.411 Y161.847 E32.73947
G1 X26.465 Y160.928 E32.77009
G1 X26.598 Y160.017 E32.80071
G1 X26.81 Y159.121 E32.83134
G1 X27.099 Y158.247 E32.86195
G1 X27.462 Y157.401 E32.89257
G1 X27.898 Y156.59 E32.9232
G1 X28.402 Y155.82 E32.95381
G1 X28.971 Y155.096 E32.98443
G1 X29.601 Y154.425 E33.01505
G1 X30.287 Y153.811 E33.04567
G1 X31.024 Y153.258 E33.07631
G1 X32.112 Y152.605 E33.11852
G1 X32.372 Y152.47 E33.12826
G1 X34.647 Y151.238 E33.21431
G1 X36.803 Y149.993 E33.29712
G1 X38.989 Y148.646 E33.38252
G1 X41.095 Y147.265 E33.46628
G1 X43.145 Y145.835 E33.54941
G1 X45.197 Y144.316 E33.63433
G1 X47.199 Y142.745 E33.71897
G1 X49.118 Y141.149 E33.80198
G1 X51.014 Y139.478 E33.88604
G1 X52.879 Y137.741 E33.97081
G1 X54.671 Y135.974 E34.05451
G1 X56.44 Y134.126 E34.1396
G1 X58.117 Y132.273 E34.22272
G1 X59.77 Y130.339 E34.30734
G1 X61.357 Y128.374 E34.39135
G1 X62.883 Y126.367 E34.47521
G1 X64.362 Y124.308 E34.55953
G1 X65.769 Y122.227 E34.64308
G1 X67.139 Y120.07 E34.72807
G1 X68.434 Y117.897 E34.8122
G1 X69.654 Y115.713 E34.89541
G1 X70.823 Y113.475 E34.97939
G1 X71.943 Y111.172 E35.06456
G1 X72.963 Y108.915 E35.14694
G1 X73.959 Y106.536 E35.23272
G1 X74.871 Y104.173 E35.31697
G1 X75.707 Y101.801 E35.40062
G1 X76.475 Y99.413 E35.48405
G1 X77.187 Y96.967 E35.56878
G1 X77.824 Y94.521 E35.65285
G1 X78.394 Y92.048 E35.73725
G1 X78.893 Y89.569 E35.82136
G1 X79.315 Y87.104 E35.90454
G1 X79.673 Y84.592 E35.98893
G1 X79.958 Y82.086 E36.07282
G1 X80.174 Y79.553 E36.15737
G1 X80.317 Y77.038 E36.24116
G1 X80.391 Y74.465 E36.32677
G1 X80.4 Y73.145 E36.37068
G1 X80.401 Y42.515 E37.38943
G1 X80.411 Y41.85 E37.41155
G1 X80.465 Y40.931 E37.44217
G1 X80.598 Y40.02 E37.47279
G1 X80.81 Y39.124 E37.50342
G1 X81.099 Y38.249 E37.53407
G1 X81.463 Y37.404 E37.56467
G0 F6000 X81.861 Y37.5
G1 F600 X82.295 Y36.709 E37.59468
G1 X82.798 Y35.958 E37.62474
G1 X83.366 Y35.256 E37.65478
G1 X83.993 Y34.606 E37.68481
G1 X84.675 Y34.014 E37.71485
G1 X85.407 Y33.485 E37.74489
G1 X86.183 Y33.023 E37.77493
G1 X86.997 Y32.632 E37.80496
G1 X87.842 Y32.313 E37.835
G1 X88.712 Y32.071 E37.86504
G1 X89.6 Y31.907 E37.89507
G1 X90.723 Y31.813 E37.93255
G1 X91.043 Y31.804 E37.9432
G1 X91.33 Y31.8 E37.95275
G1 X128.293 Y31.8 E39.18214
G1 X129.137 Y31.811 E39.21022
G1 X130.039 Y31.864 E39.24027
G1 X130.932 Y31.996 E39.27029
G1 X131.81 Y32.207 E39.30033
G1 X132.666 Y32.495 E39.33037
G1 X133.493 Y32.857 E39.36039
G1 X134.285 Y33.292 E39.39045
G1 X135.036 Y33.794 E39.42049
G1 X135.739 Y34.361 E39.45053
G1 X136.389 Y34.988 E39.48057
G1 X136.981 Y35.67 E39.5106
G1 X137.511 Y36.401 E39.54064
G1 X137.973 Y37.177 E39.57067
G1 X138.366 Y37.99 E39.60071
G1 X138.684 Y38.835 E39.63074
G1 X138.927 Y39.705 E39.66078
G1 X139.092 Y40.593 E39.69082
G1 X139.187 Y41.723 E39.72854
G1 X139.196 Y42.043 E39.73918
G1 X139.2 Y42.33 E39.74873
G1 X139.2 Y73.139 E40.77344
G1 X139.237 Y75.745 E40.86013
G1 X139.346 Y78.31 E40.94552
G1 X139.524 Y80.817 E41.02911
G1 X139.775 Y83.358 E41.11404
G1 X140.096 Y85.866 E41.19813
G1 X140.49 Y88.371 E41.28247
G1 X140.952 Y90.858 E41.36661
G1 X141.493 Y93.372 E41.45214
G1 X142.092 Y95.818 E41.53589
G1 X142.765 Y98.262 E41.62021
G1 X143.51 Y100.697 E41.7049
G1 X144.321 Y103.099 E41.78922
G1 X145.211 Y105.512 E41.87477
G1 X146.137 Y107.819 E41.95745
G1 X147.169 Y110.19 E42.04345
G1 X148.25 Y112.496 E42.12816
G1 X149.379 Y114.738 E42.21165
G1 X150.599 Y116.996 E42.29701
G1 X151.849 Y119.164 E42.38025
G1 X153.187 Y121.339 E42.46518
G1 X154.583 Y123.472 E42.54997
G1 X156.036 Y125.557 E42.63449
G1 X157.538 Y127.591 E42.71859
G1 X159.117 Y129.606 E42.80374
G1 X160.73 Y131.548 E42.8877
G1 X162.411 Y133.459 E42.97235
G1 X164.14 Y135.319 E43.05682
G1 X165.905 Y137.11 E43.14045
G1 X167.745 Y138.875 E43.22525
G1 X169.646 Y140.598 E43.31059
G1 X171.565 Y142.241 E43.39461
G1 X173.555 Y143.85 E43.47973
G1 X175.547 Y145.368 E43.56303
G1 X177.635 Y146.87 E43.64857
G1 X179.729 Y148.287 E43.73267
G1 X181.864 Y149.646 E43.81684
G1 X184.056 Y150.954 E43.90174
G1 X186.252 Y152.183 E43.98544
G1 X186.816 Y152.48 E44.00664
G1 X187.841 Y153.034 E44.0454
G1 X188.616 Y153.498 E44.07544
G1 X189.346 Y154.029 E44.10546
G1 X190.027 Y154.622 E44.1355
G1 X190.653 Y155.274 E44.16556
G1 X191.218 Y155.978 E44.19558
G1 X191.719 Y156.729 E44.22561
G1 X192.152 Y157.522 E44.25566
G1 X192.513 Y158.35 E44.2857
G1 X192.799 Y159.206 E44.31572
G1 X193.008 Y160.085 E44.34577
G1 X193.139 Y160.978 E44.37579
G1 X193.187 Y161.723 E44.40062
G1 X193.196 Y162.046 E44.41137
G1 X193.2 Y162.33 E44.42082
G1 X193.199 Y177.39 E44.92171
G1 X193.19 Y178.117 E44.9459
G1 X193.139 Y179.019 E44.97594
G1 X193.008 Y179.913 E45.006
G1 X192.799 Y180.791 E45.03602
G1 X192.513 Y181.648 E45.06606
G1 X192.152 Y182.476 E45.09611
G1 X191.72 Y183.268 E45.12611
G1 X191.219 Y184.02 E45.15617
G1 X190.653 Y184.724 E45.18621
G1 X190.028 Y185.375 E45.21623
G1 X189.347 Y185.969 E45.24628
G1 X188.616 Y186.5 E45.27633
G1 X187.842 Y186.964 E45.30635
G1 X187.029 Y187.358 E45.3364
G1 X186.185 Y187.678 E45.36642
G1 X185.315 Y187.923 E45.39648
G1 X184.428 Y188.089 E45.42649
