;FLAVOR:Marlin
;TIME:19471
;Filament used: 9.6236m
;Layer height: 0.15
;MINX:48
;MINY:64
;MINZ:0.2
;MAXX:172
;MAXY:156
;MAXZ:18.95
;Generated with Cura_SteamEngine 4.10.0
M140 S60
M105
M190 S60
M104 S210
M105
M109 S210
M82 ;absolute extrusion mode
M201 X500.00 Y500.00 Z100.00 E5000.00 ;Setup machine max acceleration
M203 X500.00 Y500.00 Z10.00 E50.00 ;Setup machine max feedrate
M204 P500.00 R1000.00 T500.00 ;Setup Print/Retract/Travel acceleration
M205 X8.00 Y8.00 Z0.40 E5.00 ;Setup Jerk
M220 S100 ;Reset Feedrate
M221 S100 ;Reset Flowrate

G28 ;Home
G29 ;Auto Bed Leveling
M420 S1 Z2 ;Enable ABL using saved Mesh and Fade Height

G92 E0 ;Reset Extruder
G1 Z2.0 F3000 ;Move Z Axis up
G1 X10.1 Y20 Z0.28 F5000.0 ;Move to start position
G1 X10.1 Y200.0 Z0.28 F1500.0 E15 ;Draw the first line
G1 X10.4 Y200.0 Z0.28 F5000.0 ;Move to side a little
G1 X10.4 Y20 Z0.28 F1500.0 E30 ;Draw the second line
G92 E0 ;Reset Extruder
G1 Z2.0 F3000 ;Move Z Axis up
G92 E0
G92 E0
G1 F2700 E-5
;LAYER_COUNT:126
;LAYER:0
M107
G0 F6000 X51.886 Y66.627 Z0.2
;TYPE:SKIRT
G1 F2700 E0
G1 F600 X52.626 Y66.051 E0.03119
G1 X53.412 Y65.539 E0.06239
G1 X54.239 Y65.097 E0.09358
G1 X55.101 Y64.727 E0.12478
G1 X55.991 Y64.431 E0.15597
G1 X56.903 Y64.213 E0.18716
G1 X57.83 Y64.072 E0.21835
G1 X58.701 Y64.013 E0.24738
G1 X59.022 Y64.004 E0.25806
G1 X59.33 Y64 E0.26831
G1 X160.293 Y64 E3.62635
G1 X161.149 Y64.011 E3.65483
G1 X162.085 Y64.065 E3.68601
G1 X163.013 Y64.197 E3.71718
G1 X163.927 Y64.409 E3.74839
G1 X164.819 Y64.698 E3.77958
G1 X165.684 Y65.061 E3.81078
G1 X166.514 Y65.497 E3.84196
G1 X167.305 Y66.002 E3.87317
G1 X168.049 Y66.573 E3.90437
G1 X168.742 Y67.205 E3.93556
G1 X169.379 Y67.893 E3.96675
G1 X169.954 Y68.634 E3.99794
G1 X170.465 Y69.42 E4.02913
G1 X170.907 Y70.248 E4.06034
G1 X171.276 Y71.11 E4.09153
G1 X171.571 Y72 E4.12271
G1 X171.789 Y72.912 E4.1539
G1 X171.929 Y73.84 E4.18512
G1 X171.987 Y74.701 E4.21382
G1 X171.996 Y75.021 E4.22447
G1 X172 Y75.33 E4.23474
G1 X171.999 Y144.4 E6.53202
G1 X171.99 Y145.127 E6.5562
G1 X171.939 Y146.064 E6.58742
G1 X171.807 Y146.992 E6.61859
G1 X171.598 Y147.906 E6.64978
G1 X171.311 Y148.799 E6.68097
G1 X170.949 Y149.665 E6.71219
G1 X170.515 Y150.496 E6.74337
G1 X170.011 Y151.287 E6.77457
G1 X169.442 Y152.032 E6.80575
G1 X168.811 Y152.727 E6.83697
G1 X168.124 Y153.365 E6.86815
G1 X167.385 Y153.942 E6.89934
G1 X166.599 Y154.454 E6.93054
G1 X165.773 Y154.897 E6.96171
G1 X164.911 Y155.269 E6.99294
G1 X164.022 Y155.565 E7.0241
G1 X163.11 Y155.785 E7.0553
G1 X162.183 Y155.926 E7.08649
G1 X161.299 Y155.987 E7.11596
G1 X160.978 Y155.996 E7.12664
G1 X160.67 Y156 E7.13689
G1 X59.565 Y155.999 E10.49966
G1 X58.867 Y155.99 E10.52287
G1 X57.931 Y155.938 E10.55405
G1 X57.002 Y155.806 E10.58526
G1 X56.088 Y155.596 E10.61645
G1 X55.195 Y155.309 E10.64765
G1 X54.33 Y154.946 E10.67885
G1 X53.499 Y154.512 E10.71003
G1 X52.708 Y154.008 E10.74123
G1 X51.963 Y153.438 E10.77243
G1 X51.269 Y152.807 E10.80362
G1 X50.632 Y152.12 E10.83479
G1 X50.055 Y151.38 E10.866
G1 X49.543 Y150.594 E10.8972
G1 X49.1 Y149.767 E10.9284
G1 X48.729 Y148.906 E10.95958
G1 X48.433 Y148.016 E10.99078
G1 X48.214 Y147.104 E11.02197
G1 X48.073 Y146.177 E11.05316
G1 X48.013 Y145.288 E11.0828
G1 X48.004 Y144.955 E11.09387
G1 X48 Y144.658 E11.10375
G1 X48.001 Y75.525 E13.40313
G1 X48.01 Y74.86 E13.42525
G1 X48.063 Y73.924 E13.45643
G1 X48.195 Y72.995 E13.48764
G1 X48.406 Y72.081 E13.51884
G1 X48.694 Y71.189 E13.55001
G1 X49.057 Y70.324 E13.58121
G1 X49.492 Y69.493 E13.61241
G1 X49.996 Y68.703 E13.64358
G1 X50.566 Y67.958 E13.67478
G1 X51.198 Y67.264 E13.706
G1 X51.886 Y66.627 E13.73718
G0 F6000 X52.274 Y66.823
G1 F600 X53.01 Y66.27 E13.7678
G1 X53.791 Y65.782 E13.79843
G1 X54.611 Y65.364 E13.82904
G1 X55.465 Y65.019 E13.85968
G1 X56.345 Y64.749 E13.89029
G1 X57.245 Y64.557 E13.9209
G1 X58.159 Y64.443 E13.95154
G1 X58.712 Y64.413 E13.96996
G1 X59.033 Y64.404 E13.98064
G1 X59.33 Y64.4 E13.99052
G1 X160.293 Y64.4 E17.34856
G1 X161.143 Y64.411 E17.37683
G1 X162.062 Y64.464 E17.40745
G1 X162.973 Y64.597 E17.43807
G1 X163.869 Y64.808 E17.46869
G1 X164.743 Y65.096 E17.49929
G1 X165.59 Y65.459 E17.52994
G1 X166.401 Y65.894 E17.56055
G1 X167.171 Y66.398 E17.59116
G1 X167.895 Y66.967 E17.62179
G1 X168.567 Y67.597 E17.65243
G1 X169.182 Y68.282 E17.68304
G1 X169.735 Y69.018 E17.71366
G1 X170.222 Y69.799 E17.74428
G1 X170.639 Y70.62 E17.7749
G1 X170.984 Y71.474 E17.80554
G1 X171.253 Y72.354 E17.83614
G1 X171.445 Y73.255 E17.86678
G1 X171.558 Y74.168 E17.89738
G1 X171.587 Y74.712 E17.9155
G1 X171.596 Y75.032 E17.92615
G1 X171.6 Y75.33 E17.93606
G1 X171.599 Y144.395 E20.23317
G1 X171.59 Y145.122 E20.25735
G1 X171.539 Y146.041 E20.28797
G1 X171.408 Y146.953 E20.31861
G1 X171.198 Y147.849 E20.34922
G1 X170.912 Y148.724 E20.37984
G1 X170.551 Y149.571 E20.41046
G1 X170.117 Y150.383 E20.44108
G1 X169.615 Y151.155 E20.47171
G1 X169.047 Y151.88 E20.50234
G1 X168.419 Y152.553 E20.53296
G1 X167.735 Y153.169 E20.56358
G1 X167 Y153.723 E20.59419
G1 X166.22 Y154.212 E20.62481
G1 X165.4 Y154.631 E20.65544
G1 X164.547 Y154.977 E20.68605
G1 X163.667 Y155.248 E20.71668
G1 X162.767 Y155.441 E20.74729
G1 X161.853 Y155.556 E20.77793
G1 X161.288 Y155.587 E20.79675
G1 X160.967 Y155.596 E20.80743
G1 X160.67 Y155.6 E20.81731
G1 X59.57 Y155.599 E24.17991
G1 X58.872 Y155.59 E24.20313
G1 X57.953 Y155.538 E24.23374
G1 X57.042 Y155.407 E24.26436
G1 X56.146 Y155.197 E24.29496
G1 X55.271 Y154.91 E24.32559
G1 X54.424 Y154.548 E24.35623
G1 X53.612 Y154.114 E24.38685
G1 X52.841 Y153.612 E24.41745
G1 X52.116 Y153.044 E24.44808
G1 X51.443 Y152.415 E24.47872
G1 X50.828 Y151.731 E24.50932
G1 X50.274 Y150.996 E24.53993
G1 X49.786 Y150.215 E24.57056
G1 X49.367 Y149.395 E24.60119
G1 X49.021 Y148.542 E24.6318
G1 X48.751 Y147.662 E24.66242
G1 X48.558 Y146.761 E24.69307
G1 X48.444 Y145.848 E24.72367
G1 X48.413 Y145.277 E24.74269
G1 X48.404 Y144.944 E24.75377
G1 X48.4 Y144.658 E24.76328
G1 X48.401 Y75.531 E27.06245
G1 X48.41 Y74.866 E27.08457
G1 X48.462 Y73.946 E27.11522
G1 X48.594 Y73.035 E27.14584
G1 X48.805 Y72.139 E27.17645
G1 X49.092 Y71.264 E27.20708
G1 X49.455 Y70.418 E27.2377
G1 X49.889 Y69.606 E27.26832
G1 X50.392 Y68.835 E27.29894
G1 X50.961 Y68.111 E27.32957
G1 X51.589 Y67.439 E27.36016
G1 X52.274 Y66.823 E27.3908
G0 F6000 X52.662 Y67.024
G1 F600 X53.394 Y66.494 E27.42086
G1 X54.169 Y66.031 E27.45089
G1 X54.982 Y65.638 E27.48092
G1 X55.827 Y65.318 E27.51097
G1 X56.696 Y65.075 E27.54098
G1 X57.584 Y64.909 E27.57103
G1 X58.723 Y64.813 E27.60905
G1 X59.044 Y64.804 E27.61973
G1 X59.33 Y64.8 E27.62924
G1 X160.293 Y64.8 E30.98729
G1 X161.137 Y64.811 E31.01536
G1 X162.039 Y64.864 E31.04541
G1 X162.932 Y64.996 E31.07544
G1 X163.81 Y65.207 E31.10547
G1 X164.666 Y65.495 E31.13551
G1 X165.493 Y65.857 E31.16553
G1 X166.285 Y66.292 E31.19559
G1 X167.036 Y66.794 E31.22563
G1 X167.739 Y67.361 E31.25567
G1 X168.389 Y67.988 E31.28571
G1 X168.981 Y68.67 E31.31575
G1 X169.511 Y69.401 E31.34578
G1 X169.973 Y70.177 E31.37582
G1 X170.366 Y70.99 E31.40585
G1 X170.684 Y71.835 E31.43588
G1 X170.927 Y72.705 E31.46592
G1 X171.092 Y73.593 E31.49596
G1 X171.187 Y74.723 E31.53368
G1 X171.196 Y75.043 E31.54433
G1 X171.2 Y75.33 E31.55387
G1 X171.199 Y144.39 E33.85082
G1 X171.19 Y145.117 E33.875
G1 X171.139 Y146.019 E33.90505
G1 X171.008 Y146.913 E33.9351
G1 X170.799 Y147.791 E33.96512
G1 X170.513 Y148.648 E33.99517
G1 X170.152 Y149.476 E34.02521
G1 X169.72 Y150.268 E34.05522
G1 X169.219 Y151.02 E34.08527
G1 X168.653 Y151.724 E34.11532
G1 X168.028 Y152.375 E34.14533
G1 X167.347 Y152.969 E34.17539
G1 X166.616 Y153.5 E34.20544
G1 X165.842 Y153.964 E34.23545
G1 X165.029 Y154.358 E34.2655
G1 X164.185 Y154.678 E34.29552
G1 X163.315 Y154.923 E34.32559
G1 X162.428 Y155.089 E34.3556
G1 X161.277 Y155.187 E34.39402
G1 X160.956 Y155.196 E34.4047
G1 X160.67 Y155.2 E34.41422
G1 X59.575 Y155.199 E37.77665
G1 X58.877 Y155.19 E37.79987
G1 X57.976 Y155.139 E37.82988
G1 X57.082 Y155.007 E37.85994
G1 X56.204 Y154.798 E37.88996
G1 X55.347 Y154.511 E37.92002
G1 X54.52 Y154.15 E37.95003
G1 X53.727 Y153.717 E37.98008
G1 X52.976 Y153.216 E38.01011
G1 X52.272 Y152.65 E38.04015
G1 X51.621 Y152.024 E38.07019
G1 X51.028 Y151.343 E38.10022
G1 X50.498 Y150.612 E38.13025
G1 X50.034 Y149.837 E38.1603
G1 X49.64 Y149.024 E38.19035
G1 X49.32 Y148.18 E38.22037
G1 X49.076 Y147.31 E38.25042
G1 X48.91 Y146.422 E38.28047
G1 X48.813 Y145.267 E38.31902
G1 X48.804 Y144.934 E38.3301
G1 X48.8 Y144.658 E38.33928
G1 X48.801 Y75.536 E40.63829
G1 X48.81 Y74.871 E40.66041
G1 X48.862 Y73.969 E40.69046
G1 X48.994 Y73.076 E40.72048
G1 X49.204 Y72.198 E40.75051
G1 X49.491 Y71.341 E40.78057
G1 X49.853 Y70.514 E40.81059
G1 X50.286 Y69.722 E40.84061
G1 X50.788 Y68.971 E40.87066
G1 X51.355 Y68.267 E40.90072
G1 X51.981 Y67.617 E40.93074
G1 X52.662 Y67.024 E40.96077
G1 F2700 E35.96077
;MESH:LCD_Display_Box_ReneB.stl
G0 F6000 X85.657 Y133.738
G0 X85.057 Y132.411
G0 X84.213 Y133.745
G0 X84.069 Y134.311
G0 X84.12 Y134.982
G0 X84.396 Y135.592
G0 X84.861 Y136.07
G0 X85.382 Y136.339
G0 X86.674 Y136.491
;TYPE:WALL-INNER
G1 F2700 E40.96077
G1 F600 X87.041 Y136.326 E40.97416
G1 X87.309 Y136.144 E40.98493
G1 X87.54 Y135.93 E40.9954
G1 X87.737 Y135.682 E41.00594
G1 X87.896 Y135.406 E41.01653
G1 X88.036 Y135.023 E41.0301
G1 X88.091 Y134.712 E41.0406
G1 X88.1 Y134.401 E41.05095
G1 X88.059 Y134.086 E41.06151
G1 X87.976 Y133.781 E41.07203
G1 X87.799 Y133.414 E41.08558
G1 X87.61 Y133.15 E41.09638
G1 X87.393 Y132.925 E41.10677
G1 X87.139 Y132.735 E41.11732
G1 X86.864 Y132.584 E41.12776
G1 X86.56 Y132.475 E41.1385
G1 X86.174 Y132.407 E41.15154
G1 X86.043 Y132.399 E41.1559
G1 X85.737 Y132.416 E41.1661
G1 X85.432 Y132.477 E41.17644
G1 X85.136 Y132.585 E41.18692
G1 X84.861 Y132.735 E41.19734
G1 X84.607 Y132.925 E41.20789
G1 X84.39 Y133.15 E41.21829
G1 X84.207 Y133.405 E41.22873
G1 X84.065 Y133.681 E41.23905
G1 X83.963 Y133.98 E41.24956
G1 X83.908 Y134.296 E41.26022
G1 X83.908 Y134.705 E41.27383
G1 X83.964 Y135.024 E41.2846
G1 X84.103 Y135.405 E41.29809
G1 X84.263 Y135.683 E41.30876
G1 X84.463 Y135.933 E41.31941
G1 X84.764 Y136.2 E41.33279
G1 X85.044 Y136.371 E41.3437
G1 X85.331 Y136.493 E41.35407
G1 X85.638 Y136.569 E41.36459
G1 X85.948 Y136.601 E41.37496
G1 X86.27 Y136.584 E41.38568
G1 X86.674 Y136.491 E41.39947
G0 F6000 X86.546 Y136.11
;TYPE:WALL-OUTER
G1 F600 X86.845 Y135.976 E41.41037
G1 X87.059 Y135.83 E41.41898
G1 X87.246 Y135.657 E41.42746
G1 X87.405 Y135.457 E41.43596
G1 X87.532 Y135.236 E41.44443
G1 X87.648 Y134.919 E41.45566
G1 X87.692 Y134.671 E41.46404
G1 X87.699 Y134.421 E41.47236
G1 X87.666 Y134.164 E41.48097
G1 X87.6 Y133.922 E41.48932
G1 X87.454 Y133.619 E41.5005
G1 X87.302 Y133.407 E41.50918
G1 X87.127 Y133.226 E41.51755
G1 X86.922 Y133.072 E41.52608
G1 X86.699 Y132.95 E41.53454
G1 X86.457 Y132.863 E41.54309
G1 X86.128 Y132.805 E41.5542
G1 X86.042 Y132.8 E41.55707
G1 X85.787 Y132.814 E41.56556
G1 X85.54 Y132.863 E41.57394
G1 X85.301 Y132.95 E41.5824
G1 X85.078 Y133.072 E41.59085
G1 X84.873 Y133.226 E41.59938
G1 X84.698 Y133.407 E41.60775
G1 X84.549 Y133.614 E41.61623
G1 X84.434 Y133.838 E41.62461
G1 X84.352 Y134.079 E41.63308
G1 X84.308 Y134.331 E41.64158
G1 X84.308 Y134.67 E41.65286
G1 X84.352 Y134.92 E41.6613
G1 X84.467 Y135.235 E41.67246
G1 X84.595 Y135.457 E41.68098
G1 X84.754 Y135.657 E41.68948
G1 X85.003 Y135.877 E41.70053
G1 X85.227 Y136.014 E41.70926
G1 X85.458 Y136.112 E41.71761
G1 X85.707 Y136.174 E41.72614
G1 X85.958 Y136.2 E41.73453
G1 X86.214 Y136.186 E41.74306
G1 X86.546 Y136.11 E41.75439
G0 F6000 X86.685 Y136.527
G1 F2700 E36.75439
G0 F6000 X85.513 Y136.358
G0 X84.105 Y135.791
G0 X85.286 Y134.933
G0 X68.253 Y137.414
G0 X69.542 Y138.1
G0 X68.416 Y139.043
;TYPE:WALL-INNER
G1 F2700 E41.75439
G1 F600 X68.716 Y138.838 E41.76648
G1 X68.974 Y138.599 E41.77817
G1 X69.193 Y138.325 E41.78984
G1 X69.37 Y138.017 E41.80165
G1 X69.498 Y137.688 E41.8134
G1 X69.576 Y137.344 E41.82513
G1 X69.6 Y136.892 E41.84018
G1 X69.554 Y136.534 E41.85219
G1 X69.459 Y136.196 E41.86387
G1 X69.316 Y135.876 E41.87552
G1 X69.125 Y135.58 E41.88724
G1 X68.89 Y135.314 E41.89904
G1 X68.618 Y135.087 E41.91083
G1 X68.223 Y134.859 E41.926
G1 X67.883 Y134.736 E41.93802
G1 X67.548 Y134.669 E41.94939
G1 X67.304 Y134.65 E41.95753
G1 X66.958 Y134.668 E41.96905
G1 X66.614 Y134.736 E41.98071
G1 X66.281 Y134.858 E41.99251
G1 X65.974 Y135.025 E42.00413
G1 X65.695 Y135.237 E42.01579
G1 X65.449 Y135.488 E42.02748
G1 X65.244 Y135.774 E42.03918
G1 X65.082 Y136.087 E42.0509
G1 X64.971 Y136.421 E42.06261
G1 X64.911 Y136.764 E42.07419
G1 X64.9 Y137.113 E42.0858
G1 X64.946 Y137.466 E42.09764
G1 X65.041 Y137.804 E42.10932
G1 X65.184 Y138.124 E42.12098
G1 X65.375 Y138.42 E42.13269
G1 X65.608 Y138.683 E42.14438
G1 X65.88 Y138.913 E42.15623
G1 X66.276 Y139.141 E42.17143
G1 X66.614 Y139.264 E42.18339
G1 X66.958 Y139.332 E42.19505
G1 X67.312 Y139.35 E42.20684
G1 X67.663 Y139.315 E42.21857
G1 X68.006 Y139.226 E42.23036
G1 X68.416 Y139.043 E42.24529
G0 F6000 X68.22 Y138.692
;TYPE:WALL-OUTER
G1 F600 X68.466 Y138.524 E42.2552
G1 X68.68 Y138.326 E42.2649
G1 X68.861 Y138.099 E42.27455
G1 X69.008 Y137.844 E42.28434
G1 X69.114 Y137.571 E42.29408
G1 X69.178 Y137.288 E42.30374
G1 X69.199 Y136.907 E42.31643
G1 X69.161 Y136.614 E42.32625
G1 X69.082 Y136.333 E42.33596
G1 X68.963 Y136.067 E42.34565
G1 X68.805 Y135.822 E42.35535
G1 X68.61 Y135.602 E42.36513
G1 X68.388 Y135.416 E42.37476
G1 X68.054 Y135.223 E42.38759
G1 X67.775 Y135.122 E42.39746
G1 X67.493 Y135.066 E42.40702
G1 X67.299 Y135.051 E42.41349
G1 X67.007 Y135.066 E42.42322
G1 X66.722 Y135.122 E42.43288
G1 X66.447 Y135.223 E42.44262
G1 X66.192 Y135.362 E42.45228
G1 X65.96 Y135.538 E42.46197
G1 X65.756 Y135.746 E42.47166
G1 X65.586 Y135.983 E42.48136
G1 X65.452 Y136.243 E42.49109
G1 X65.36 Y136.519 E42.50076
G1 X65.31 Y136.805 E42.51042
G1 X65.301 Y137.093 E42.52
G1 X65.339 Y137.386 E42.52983
G1 X65.418 Y137.667 E42.53954
G1 X65.537 Y137.933 E42.54923
G1 X65.695 Y138.178 E42.55893
G1 X65.888 Y138.396 E42.56861
G1 X66.111 Y138.584 E42.57831
G1 X66.446 Y138.777 E42.59117
G1 X66.722 Y138.878 E42.60095
G1 X67.007 Y138.934 E42.61061
G1 X67.302 Y138.949 E42.62043
G1 X67.592 Y138.92 E42.63013
G1 X67.873 Y138.847 E42.63978
G1 X68.22 Y138.692 E42.65242
G0 F6000 X68.434 Y139.076
G1 F2700 E37.65242
G0 F6000 X69.225 Y137.948
G0 X69.416 Y137.321
G0 X69.396 Y136.567
G0 X69.174 Y135.952
G0 X68.95 Y135.657
G0 X67.935 Y134.552
G0 X67.505 Y135.944
G0 X67.439 Y84.069
G0 X67.697 Y85.503
G0 X68.416 Y85.043
;TYPE:WALL-INNER
G1 F2700 E42.65242
G1 F600 X68.716 Y84.838 E42.66451
G1 X68.974 Y84.599 E42.6762
G1 X69.193 Y84.325 E42.68787
G1 X69.37 Y84.017 E42.69969
G1 X69.498 Y83.688 E42.71143
G1 X69.576 Y83.344 E42.72316
G1 X69.6 Y82.892 E42.73821
G1 X69.554 Y82.534 E42.75022
G1 X69.459 Y82.196 E42.7619
G1 X69.316 Y81.876 E42.77355
G1 X69.125 Y81.58 E42.78527
G1 X68.89 Y81.314 E42.79708
G1 X68.618 Y81.087 E42.80886
G1 X68.223 Y80.859 E42.82403
G1 X67.883 Y80.736 E42.83606
G1 X67.548 Y80.669 E42.84742
G1 X67.304 Y80.65 E42.85556
G1 X66.958 Y80.668 E42.86708
G1 X66.614 Y80.736 E42.87874
G1 X66.281 Y80.858 E42.89054
G1 X65.974 Y81.025 E42.90216
G1 X65.695 Y81.237 E42.91382
G1 X65.449 Y81.488 E42.92551
G1 X65.244 Y81.774 E42.93721
G1 X65.082 Y82.087 E42.94893
G1 X64.971 Y82.421 E42.96064
G1 X64.911 Y82.764 E42.97222
G1 X64.9 Y83.113 E42.98383
G1 X64.946 Y83.466 E42.99567
G1 X65.041 Y83.804 E43.00735
G1 X65.184 Y84.124 E43.01901
G1 X65.375 Y84.42 E43.03073
G1 X65.608 Y84.683 E43.04241
G1 X65.88 Y84.913 E43.05426
G1 X66.276 Y85.141 E43.06946
G1 X66.614 Y85.264 E43.08142
G1 X66.958 Y85.332 E43.09308
G1 X67.312 Y85.35 E43.10487
G1 X67.663 Y85.315 E43.11661
G1 X68.006 Y85.226 E43.12839
G1 X68.416 Y85.043 E43.14333
G0 F6000 X68.22 Y84.692
;TYPE:WALL-OUTER
G1 F600 X68.466 Y84.524 E43.15323
G1 X68.68 Y84.326 E43.16293
G1 X68.861 Y84.099 E43.17259
G1 X69.008 Y83.844 E43.18238
G1 X69.114 Y83.571 E43.19212
G1 X69.178 Y83.288 E43.20177
G1 X69.199 Y82.907 E43.21446
G1 X69.161 Y82.614 E43.22429
G1 X69.082 Y82.333 E43.23399
G1 X68.963 Y82.067 E43.24369
G1 X68.805 Y81.822 E43.25338
G1 X68.61 Y81.602 E43.26316
