;FLAVOR:Marlin
;TIME:612
;Filament used: 0.133858m
;Layer height: 0.15
;MINX:99.22
;MINY:99.221
;MINZ:0.2
;MAXX:120.78
;MAXY:120.78
;MAXZ:11
;Generated with Cura_SteamEngine 4.9.0
M140 S60
M105
M190 S60
M104 S210
M105
M109 S210
M82 ;absolute extrusion mode
M201 X500.00 Y500.00 Z100.00 E5000.00 ;Setup machine max acceleration
M203 X500.00 Y500.00 Z10.00 E50.00 ;Setup machine max feedrate
M204 P500.00 R1000.00 T500.00 ;Setup Print/Retract/Travel acceleration
M205 X8.00 Y8.00 Z0.40 E5.00 ;Setup Jerk
M220 S100 ;Reset Feedrate
M221 S100 ;Reset Flowrate

G28 ;Home
G29 ;Auto Bed Leveling
M420 S1 Z2 ;Enable ABL using saved Mesh and Fade Height

G92 E0 ;Reset Extruder
G1 Z2.0 F3000 ;Move Z Axis up
G1 X10.1 Y20 Z0.28 F5000.0 ;Move to start position
G1 X10.1 Y200.0 Z0.28 F1500.0 E15 ;Draw the first line
G1 X10.4 Y200.0 Z0.28 F5000.0 ;Move to side a little
G1 X10.4 Y20 Z0.28 F1500.0 E30 ;Draw the second line
G92 E0 ;Reset Extruder
G1 Z2.0 F3000 ;Move Z Axis up
G92 E0
G92 E0
G1 F2700 E-5
;LAYER_COUNT:73
;LAYER:0
M107
G0 F6000 X102.228 Y102.509 Z0.2
;TYPE:SKIRT
G1 F2700 E0
G1 F600 X102.531 Y102.207 E0.01423
G1 X103.357 Y101.492 E0.05056
G1 X103.697 Y101.237 E0.0647
G1 X104.652 Y100.624 E0.10244
G1 X105.031 Y100.418 E0.11679
G1 X106.039 Y99.959 E0.15363
G1 X106.44 Y99.81 E0.16786
G1 X107.509 Y99.498 E0.2049
G1 X107.93 Y99.407 E0.21922
G1 X109.007 Y99.252 E0.25541
G1 X109.429 Y99.221 E0.26949
G1 X110.579 Y99.222 E0.30774
G1 X111.009 Y99.254 E0.32208
G1 X112.093 Y99.411 E0.35851
G1 X112.51 Y99.502 E0.3727
G1 X113.572 Y99.814 E0.40952
G1 X113.969 Y99.962 E0.42361
G1 X114.969 Y100.418 E0.46016
G1 X115.348 Y100.624 E0.47451
G1 X116.306 Y101.239 E0.51238
G1 X116.651 Y101.498 E0.52672
G1 X117.483 Y102.221 E0.56339
G1 X117.781 Y102.519 E0.5774
G1 X118.508 Y103.357 E0.6143
G1 X118.765 Y103.7 E0.62856
G1 X119.381 Y104.661 E0.66652
G1 X119.588 Y105.043 E0.68097
G1 X120.038 Y106.032 E0.71711
G1 X120.185 Y106.426 E0.7311
G1 X120.5 Y107.503 E0.76842
G1 X120.592 Y107.928 E0.78288
G1 X120.748 Y109.005 E0.81908
G1 X120.779 Y109.426 E0.83312
G1 X120.78 Y110.564 E0.87097
G1 X120.749 Y110.991 E0.88521
G1 X120.59 Y112.085 E0.92198
G1 X120.499 Y112.503 E0.93621
G1 X120.187 Y113.567 E0.97309
G1 X120.038 Y113.967 E0.98728
G1 X119.582 Y114.969 E1.0239
G1 X119.376 Y115.348 E1.03825
G1 X118.77 Y116.294 E1.07561
G1 X118.515 Y116.635 E1.08977
G1 X117.783 Y117.479 E1.12693
G1 X117.481 Y117.781 E1.14114
G1 X116.643 Y118.508 E1.17804
G1 X116.3 Y118.765 E1.19229
G1 X115.34 Y119.38 E1.23021
G1 X114.96 Y119.586 E1.24459
G1 X113.974 Y120.035 E1.28062
G1 X113.578 Y120.183 E1.29468
G1 X112.512 Y120.497 E1.33164
G1 X112.091 Y120.589 E1.34598
G1 X110.987 Y120.749 E1.38308
G1 X110.557 Y120.78 E1.39742
G1 X109.425 Y120.779 E1.43507
G1 X109.003 Y120.748 E1.44914
G1 X107.903 Y120.588 E1.48611
G1 X107.479 Y120.495 E1.50055
G1 X106.403 Y120.176 E1.53788
G1 X106.007 Y120.027 E1.55195
G1 X105.042 Y119.587 E1.58723
G1 X104.665 Y119.383 E1.60148
G1 X103.694 Y118.761 E1.63984
G1 X103.349 Y118.502 E1.65419
G1 X102.517 Y117.779 E1.69085
G1 X102.217 Y117.479 E1.70496
G1 X101.483 Y116.632 E1.74224
G1 X101.226 Y116.288 E1.75652
G1 X100.614 Y115.331 E1.7943
G1 X100.409 Y114.952 E1.80863
G1 X99.961 Y113.966 E1.84465
G1 X99.813 Y113.569 E1.85874
G1 X99.501 Y112.503 E1.89569
G1 X99.41 Y112.085 E1.90992
G1 X99.251 Y110.988 E1.94678
G1 X99.22 Y110.559 E1.96109
G1 X99.221 Y109.427 E1.99874
G1 X99.252 Y109.004 E2.01285
G1 X99.411 Y107.909 E2.04965
G1 X99.503 Y107.488 E2.06398
G1 X99.814 Y106.428 E2.10072
G1 X99.962 Y106.031 E2.11481
G1 X100.418 Y105.031 E2.15137
G1 X100.624 Y104.652 E2.16572
G1 X101.235 Y103.7 E2.20334
G1 X101.492 Y103.357 E2.2176
G1 X102.228 Y102.509 E2.25494
G0 F6000 X102.51 Y102.793
G1 F600 X102.813 Y102.491 E2.26917
G1 X103.597 Y101.812 E2.30367
G1 X103.937 Y101.557 E2.3178
G1 X104.843 Y100.975 E2.35362
G1 X105.222 Y100.769 E2.36797
G1 X106.179 Y100.334 E2.40293
G1 X106.58 Y100.185 E2.41716
G1 X107.594 Y99.889 E2.45229
G1 X108.015 Y99.798 E2.46662
G1 X109.036 Y99.651 E2.50093
G1 X109.458 Y99.62 E2.515
G1 X110.549 Y99.62 E2.55129
G1 X110.979 Y99.652 E2.56563
G1 X112.008 Y99.802 E2.60021
G1 X112.425 Y99.893 E2.61441
G1 X113.432 Y100.189 E2.64932
G1 X113.829 Y100.337 E2.66341
G1 X114.778 Y100.769 E2.69809
G1 X115.157 Y100.975 E2.71244
G1 X116.066 Y101.559 E2.74837
G1 X116.411 Y101.818 E2.76272
G1 X117.201 Y102.503 E2.7975
G1 X117.499 Y102.801 E2.81152
G1 X118.188 Y103.597 E2.84653
G1 X118.445 Y103.94 E2.86079
G1 X119.029 Y104.851 E2.89678
G1 X119.236 Y105.233 E2.91123
G1 X119.663 Y106.172 E2.94554
G1 X119.81 Y106.566 E2.95953
G1 X120.109 Y107.587 E2.99491
G1 X120.201 Y108.012 E3.00937
G1 X120.349 Y109.035 E3.04375
G1 X120.38 Y109.456 E3.05779
G1 X120.381 Y110.535 E3.09368
G1 X120.35 Y110.962 E3.10792
G1 X120.2 Y112 E3.1428
G1 X120.109 Y112.418 E3.15703
G1 X119.813 Y113.427 E3.19201
G1 X119.664 Y113.827 E3.2062
G1 X119.231 Y114.778 E3.24096
G1 X119.025 Y115.157 E3.2553
G1 X118.449 Y116.055 E3.29079
G1 X118.194 Y116.396 E3.30495
G1 X117.501 Y117.197 E3.34018
G1 X117.199 Y117.499 E3.35438
G1 X116.403 Y118.188 E3.3894
G1 X116.06 Y118.445 E3.40365
G1 X115.15 Y119.029 E3.43962
G1 X114.77 Y119.235 E3.45399
G1 X113.834 Y119.661 E3.4882
G1 X113.438 Y119.809 E3.50226
G1 X112.427 Y120.106 E3.53731
G1 X112.006 Y120.198 E3.55164
G1 X110.958 Y120.35 E3.58686
G1 X110.528 Y120.381 E3.6012
G1 X109.454 Y120.38 E3.63692
G1 X109.032 Y120.349 E3.65099
G1 X107.989 Y120.197 E3.68605
G1 X107.565 Y120.104 E3.70049
G1 X106.544 Y119.802 E3.7359
G1 X106.148 Y119.653 E3.74997
G1 X105.232 Y119.235 E3.78346
G1 X104.855 Y119.031 E3.79772
G1 X103.934 Y118.441 E3.8341
G1 X103.589 Y118.182 E3.84845
G1 X102.799 Y117.497 E3.88323
G1 X102.499 Y117.197 E3.89734
G1 X101.804 Y116.393 E3.93268
G1 X101.547 Y116.049 E3.94697
G1 X100.966 Y115.141 E3.98282
G1 X100.761 Y114.762 E3.99715
G1 X100.336 Y113.826 E4.03134
G1 X100.188 Y113.429 E4.04543
G1 X99.891 Y112.418 E4.08048
G1 X99.8 Y112 E4.09471
G1 X99.65 Y110.959 E4.12969
G1 X99.619 Y110.53 E4.144
G1 X99.62 Y109.456 E4.17972
G1 X99.651 Y109.033 E4.19382
G1 X99.802 Y107.994 E4.22874
G1 X99.894 Y107.573 E4.24308
G1 X100.189 Y106.568 E4.27791
G1 X100.337 Y106.171 E4.29201
G1 X100.769 Y105.222 E4.32669
G1 X100.975 Y104.843 E4.34103
G1 X101.555 Y103.94 E4.37673
G1 X101.812 Y103.597 E4.39098
G1 X102.51 Y102.793 E4.4264
G0 F6000 X102.792 Y103.076
G1 F600 X103.095 Y102.774 E4.44063
G1 X103.837 Y102.132 E4.47326
G1 X104.177 Y101.877 E4.4874
G1 X105.034 Y101.327 E4.52126
G1 X105.413 Y101.121 E4.53561
G1 X106.318 Y100.709 E4.56868
G1 X106.719 Y100.56 E4.58291
G1 X107.678 Y100.28 E4.61614
G1 X108.099 Y100.189 E4.63047
G1 X109.065 Y100.05 E4.66293
G1 X109.487 Y100.019 E4.677
G1 X110.519 Y100.019 E4.71133
G1 X110.949 Y100.051 E4.72567
G1 X111.922 Y100.193 E4.75837
G1 X112.339 Y100.284 E4.77257
G1 X113.292 Y100.564 E4.8056
G1 X113.689 Y100.712 E4.8197
G1 X114.587 Y101.121 E4.85252
G1 X114.966 Y101.327 E4.86686
G1 X115.826 Y101.879 E4.90085
G1 X116.171 Y102.138 E4.9152
G1 X116.918 Y102.786 E4.94809
G1 X117.216 Y103.084 E4.96211
G1 X117.868 Y103.837 E4.99524
G1 X118.125 Y104.18 E5.00949
G1 X118.677 Y105.042 E5.04354
G1 X118.884 Y105.424 E5.05799
G1 X119.288 Y106.312 E5.09044
G1 X119.435 Y106.706 E5.10442
G1 X119.719 Y107.672 E5.13791
G1 X119.811 Y108.097 E5.15237
G1 X119.95 Y109.064 E5.18487
G1 X119.981 Y109.485 E5.19891
G1 X119.982 Y110.506 E5.23287
G1 X119.951 Y110.933 E5.24711
G1 X119.809 Y111.915 E5.28011
G1 X119.718 Y112.333 E5.29434
G1 X119.438 Y113.287 E5.3274
G1 X119.289 Y113.687 E5.3416
G1 X118.879 Y114.587 E5.3745
G1 X118.673 Y114.966 E5.38884
G1 X118.129 Y115.815 E5.42238
G1 X117.874 Y116.156 E5.43654
G1 X117.218 Y116.914 E5.46988
G1 X116.916 Y117.216 E5.48409
G1 X116.163 Y117.868 E5.51722
G1 X115.82 Y118.125 E5.53147
G1 X114.959 Y118.677 E5.56549
G1 X114.579 Y118.883 E5.57987
G1 X113.694 Y119.286 E5.61221
G1 X113.298 Y119.434 E5.62627
G1 X112.341 Y119.716 E5.65945
G1 X111.92 Y119.808 E5.67379
G1 X110.929 Y119.951 E5.70709
G1 X110.499 Y119.982 E5.72143
G1 X109.483 Y119.981 E5.75522
G1 X109.061 Y119.95 E5.76929
G1 X108.074 Y119.806 E5.80247
G1 X107.65 Y119.713 E5.81691
G1 X106.685 Y119.428 E5.85037
G1 X106.289 Y119.279 E5.86445
G1 X105.423 Y118.883 E5.89612
G1 X105.046 Y118.679 E5.91037
G1 X104.174 Y118.121 E5.94481
G1 X103.829 Y117.862 E5.95916
G1 X103.082 Y117.214 E5.99205
G1 X102.782 Y116.914 E6.00616
G1 X102.124 Y116.154 E6.03959
G1 X101.867 Y115.81 E6.05387
G1 X101.318 Y114.95 E6.08781
G1 X101.113 Y114.571 E6.10214
G1 X100.711 Y113.686 E6.13447
G1 X100.563 Y113.289 E6.14856
G1 X100.282 Y112.333 E6.1817
G1 X100.191 Y111.915 E6.19593
G1 X100.049 Y110.931 E6.229
G1 X100.018 Y110.502 E6.24331
G1 X100.019 Y109.485 E6.27713
G1 X100.05 Y109.062 E6.29124
G1 X100.192 Y108.08 E6.32424
G1 X100.284 Y107.659 E6.33857
G1 X100.564 Y106.708 E6.37155
G1 X100.712 Y106.311 E6.38564
G1 X101.121 Y105.413 E6.41846
G1 X101.327 Y105.034 E6.4328
G1 X101.875 Y104.18 E6.46655
G1 X102.132 Y103.837 E6.48081
G1 X102.792 Y103.076 E6.51431
G0 F6000 X103.075 Y103.359
G1 F600 X103.378 Y103.057 E6.52854
G1 X104.077 Y102.452 E6.55929
G1 X104.417 Y102.197 E6.57342
G1 X105.225 Y101.678 E6.60537
G1 X105.604 Y101.472 E6.61971
G1 X106.457 Y101.084 E6.65088
G1 X106.858 Y100.935 E6.66511
G1 X107.763 Y100.671 E6.69646
G1 X108.184 Y100.58 E6.71079
G1 X109.094 Y100.449 E6.74137
G1 X109.516 Y100.418 E6.75544
G1 X110.49 Y100.418 E6.78784
G1 X110.92 Y100.45 E6.80218
G1 X111.837 Y100.584 E6.833
G1 X112.254 Y100.675 E6.8472
G1 X113.152 Y100.939 E6.87833
G1 X113.549 Y101.087 E6.89242
G1 X114.396 Y101.472 E6.92337
G1 X114.775 Y101.678 E6.93771
G1 X115.585 Y102.199 E6.96975
G1 X115.93 Y102.458 E6.98409
G1 X116.635 Y103.069 E7.01512
G1 X116.933 Y103.367 E7.02914
G1 X117.548 Y104.076 E7.06036
G1 X117.805 Y104.419 E7.07461
G1 X118.326 Y105.233 E7.10676
G1 X118.533 Y105.615 E7.12121
G1 X118.914 Y106.452 E7.1518
G1 X119.061 Y106.846 E7.16578
G1 X119.328 Y107.757 E7.19736
G1 X119.42 Y108.182 E7.21182
G1 X119.551 Y109.093 E7.24243
G1 X119.582 Y109.514 E7.25647
G1 X119.583 Y110.477 E7.2885
G1 X119.552 Y110.904 E7.30274
G1 X119.418 Y111.83 E7.33386
G1 X119.327 Y112.248 E7.34809
G1 X119.063 Y113.148 E7.37928
G1 X118.914 Y113.548 E7.39348
G1 X118.528 Y114.396 E7.42447
G1 X118.322 Y114.775 E7.43882
G1 X117.809 Y115.576 E7.47045
G1 X117.554 Y115.917 E7.48462
G1 X116.935 Y116.631 E7.51605
G1 X116.633 Y116.933 E7.53025
G1 X115.924 Y117.548 E7.56147
G1 X115.581 Y117.805 E7.57572
G1 X114.768 Y118.325 E7.60782
G1 X114.388 Y118.531 E7.6222
G1 X113.554 Y118.911 E7.65268
G1 X113.158 Y119.059 E7.66674
G1 X112.256 Y119.325 E7.69802
G1 X111.835 Y119.417 E7.71235
G1 X110.901 Y119.552 E7.74374
G1 X110.471 Y119.583 E7.75808
G1 X109.512 Y119.582 E7.78998
G1 X109.09 Y119.551 E7.80405
G1 X108.16 Y119.416 E7.83531
G1 X107.736 Y119.323 E7.84974
G1 X106.826 Y119.053 E7.88131
G1 X106.43 Y118.904 E7.89539
G1 X105.613 Y118.532 E7.92525
G1 X105.236 Y118.328 E7.9395
G1 X104.415 Y117.801 E7.97195
G1 X104.07 Y117.542 E7.9863
G1 X103.365 Y116.931 E8.01733
G1 X103.065 Y116.631 E8.03144
G1 X102.445 Y115.914 E8.06297
G1 X102.188 Y115.57 E8.07725
G1 X101.67 Y114.76 E8.10923
G1 X101.465 Y114.381 E8.12356
G1 X101.086 Y113.546 E8.15406
G1 X100.938 Y113.149 E8.16815
G1 X100.673 Y112.248 E8.19939
G1 X100.582 Y111.83 E8.21361
G1 X100.448 Y110.902 E8.2448
G1 X100.417 Y110.473 E8.25911
G1 X100.418 Y109.515 E8.29097
G1 X100.449 Y109.092 E8.30508
G1 X100.583 Y108.165 E8.33623
G1 X100.675 Y107.744 E8.35056
G1 X100.939 Y106.848 E8.38163
G1 X101.087 Y106.451 E8.39572
G1 X101.472 Y105.604 E8.42667
G1 X101.678 Y105.225 E8.44101
G1 X102.195 Y104.419 E8.47286
G1 X102.452 Y104.076 E8.48712
G1 X103.075 Y103.359 E8.51871
G0 F6000 X103.357 Y103.643
G1 F600 X103.66 Y103.341 E8.53294
G1 X104.317 Y102.772 E8.56185
G1 X104.657 Y102.517 E8.57598
G1 X105.416 Y102.03 E8.60598
G1 X105.795 Y101.824 E8.62032
G1 X106.597 Y101.459 E8.64963
G1 X106.998 Y101.31 E8.66386
G1 X107.847 Y101.062 E8.69328
G1 X108.268 Y100.971 E8.7076
G1 X109.124 Y100.848 E8.73636
G1 X109.546 Y100.817 E8.75044
G1 X110.46 Y100.817 E8.78084
G1 X110.89 Y100.849 E8.79518
G1 X111.752 Y100.975 E8.82415
G1 X112.169 Y101.066 E8.83835
G1 X113.013 Y101.314 E8.86761
G1 X113.41 Y101.462 E8.8817
G1 X114.205 Y101.824 E8.91075
G1 X114.584 Y102.03 E8.9251
G1 X115.345 Y102.519 E8.95519
G1 X115.69 Y102.778 E8.96954
G1 X116.352 Y103.352 E8.99868
G1 X116.65 Y103.65 E9.0127
G1 X117.228 Y104.316 E9.04203
G1 X117.485 Y104.659 E9.05628
G1 X117.974 Y105.423 E9.08645
G1 X118.181 Y105.805 E9.1009
G1 X118.539 Y106.592 E9.12966
G1 X118.686 Y106.986 E9.14365
G1 X118.937 Y107.841 E9.17328
G1 X119.029 Y108.266 E9.18775
G1 X119.152 Y109.123 E9.21654
G1 X119.183 Y109.544 E9.23058
G1 X119.184 Y110.448 E9.26065
G1 X119.153 Y110.875 E9.27489
G1 X119.027 Y111.745 E9.30413
G1 X118.936 Y112.163 E9.31836
G1 X118.688 Y113.008 E9.34765
G1 X118.539 Y113.408 E9.36184
G1 X118.176 Y114.205 E9.39097
G1 X117.97 Y114.584 E9.40532
G1 X117.488 Y115.336 E9.43503
G1 X117.233 Y115.677 E9.44919
G1 X116.652 Y116.348 E9.47871
G1 X116.35 Y116.65 E9.49292
G1 X115.684 Y117.228 E9.52225
G1 X115.341 Y117.485 E9.5365
G1 X114.578 Y117.974 E9.56664
G1 X114.198 Y118.18 E9.58102
G1 X113.414 Y118.537 E9.60967
G1 X113.018 Y118.685 E9.62373
G1 X112.171 Y118.934 E9.6531
G1 X111.75 Y119.026 E9.66743
G1 X110.872 Y119.153 E9.69694
G1 X110.442 Y119.184 E9.71127
G1 X109.542 Y119.183 E9.74121
G1 X109.12 Y119.152 E9.75528
G1 X108.246 Y119.025 E9.78466
G1 X107.822 Y118.932 E9.79909
G1 X106.967 Y118.679 E9.82875
G1 X106.571 Y118.53 E9.84282
G1 X105.803 Y118.18 E9.87089
G1 X105.426 Y117.976 E9.88515
G1 X104.655 Y117.481 E9.91563
G1 X104.31 Y117.222 E9.92997
G1 X103.648 Y116.648 E9.95912
G1 X103.348 Y116.348 E9.97323
G1 X102.765 Y115.675 E10.00284
G1 X102.508 Y115.331 E10.01712
G1 X102.022 Y114.57 E10.04716
G1 X101.817 Y114.191 E10.06149
G1 X101.461 Y113.407 E10.09013
G1 X101.313 Y113.01 E10.10422
G1 X101.064 Y112.163 E10.13358
G1 X100.973 Y111.745 E10.14781
G1 X100.847 Y110.873 E10.17711
G1 X100.816 Y110.444 E10.19142
G1 X100.817 Y109.544 E10.22135
G1 X100.848 Y109.121 E10.23546
G1 X100.974 Y108.25 E10.26473
G1 X101.066 Y107.829 E10.27906
G1 X101.314 Y106.987 E10.30826
G1 X101.462 Y106.59 E10.32235
G1 X101.824 Y105.795 E10.35141
G1 X102.03 Y105.416 E10.36575
G1 X102.515 Y104.659 E10.39565
G1 X102.772 Y104.316 E10.40991
G1 X103.357 Y103.643 E10.43957
G0 F6000 X103.64 Y103.926
G1 F600 X103.943 Y103.624 E10.4538
G1 X104.557 Y103.092 E10.48082
G1 X104.897 Y102.837 E10.49495
G1 X105.607 Y102.381 E10.52302
G1 X105.986 Y102.175 E10.53737
G1 X106.736 Y101.834 E10.56477
G1 X107.137 Y101.685 E10.579
G1 X107.932 Y101.453 E10.60654
G1 X108.353 Y101.362 E10.62087
G1 X109.153 Y101.247 E10.64775
G1 X109.575 Y101.216 E10.66182
G1 X110.43 Y101.216 E10.69026
G1 X110.86 Y101.248 E10.7046
G1 X111.667 Y101.365 E10.73172
G1 X112.084 Y101.456 E10.74592
G1 X112.873 Y101.688 E10.77327
G1 X113.27 Y101.836 E10.78736
G1 X114.014 Y102.175 E10.81456
G1 X114.393 Y102.381 E10.82891
G1 X115.105 Y102.839 E10.85706
G1 X115.45 Y103.098 E10.87141
G1 X116.069 Y103.635 E10.89867
G1 X116.367 Y103.933 E10.91268
G1 X116.908 Y104.556 E10.94013
G1 X117.165 Y104.899 E10.95438
G1 X117.622 Y105.614 E10.98261
G1 X117.829 Y105.996 E10.99706
G1 X118.164 Y106.732 E11.02395
G1 X118.311 Y107.126 E11.03794
G1 X118.546 Y107.926 E11.06567
G1 X118.638 Y108.351 E11.08014
G1 X118.753 Y109.152 E11.10705
G1 X118.784 Y109.573 E11.12109
G1 X118.785 Y110.419 E11.14923
G1 X118.754 Y110.846 E11.16347
G1 X118.636 Y111.66 E11.19082
G1 X118.545 Y112.078 E11.20505
G1 X118.313 Y112.869 E11.23247
G1 X118.164 Y113.269 E11.24667
G1 X117.825 Y114.014 E11.27389
G1 X117.619 Y114.393 E11.28824
G1 X117.168 Y115.096 E11.31602
G1 X116.913 Y115.437 E11.33018
G1 X116.369 Y116.065 E11.35781
G1 X116.067 Y116.367 E11.37202
G1 X115.444 Y116.908 E11.39946
G1 X115.101 Y117.165 E11.41372
G1 X114.387 Y117.622 E11.44191
G1 X114.007 Y117.828 E11.45629
G1 X113.274 Y118.162 E11.48308
G1 X112.878 Y118.31 E11.49714
G1 X112.085 Y118.543 E11.52463
G1 X111.664 Y118.635 E11.53897
G1 X110.843 Y118.754 E11.56656
G1 X110.413 Y118.785 E11.5809
G1 X109.571 Y118.784 E11.6089
