;FLAVOR:Marlin
;TIME:6670
;Filament used: 2.33246m
;Layer height: 0.15
;MINX:6.5
;MINY:90.955
;MINZ:0.2
;MAXX:213.5
;MAXY:129.063
;MAXZ:10.25
;Generated with Cura_SteamEngine 4.8.0
M140 S60
M105
M190 S60
M104 S210
M105
M109 S210
M82 ;absolute extrusion mode
M201 X500.00 Y500.00 Z100.00 E5000.00 ;Setup machine max acceleration
M203 X500.00 Y500.00 Z10.00 E50.00 ;Setup machine max feedrate
M204 P500.00 R1000.00 T500.00 ;Setup Print/Retract/Travel acceleration
M205 X8.00 Y8.00 Z0.40 E5.00 ;Setup Jerk
M220 S100 ;Reset Feedrate
M221 S100 ;Reset Flowrate

G28 ;Home
G29 ;Auto Bed Leveling
M420 S1 Z2 ;Enable ABL using saved Mesh and Fade Height

G92 E0 ;Reset Extruder
G1 Z2.0 F3000 ;Move Z Axis up
G1 X10.1 Y20 Z0.28 F5000.0 ;Move to start position
G1 X10.1 Y200.0 Z0.28 F1500.0 E15 ;Draw the first line
G1 X10.4 Y200.0 Z0.28 F5000.0 ;Move to side a little
G1 X10.4 Y20 Z0.28 F1500.0 E30 ;Draw the second line
G92 E0 ;Reset Extruder
G1 Z2.0 F3000 ;Move Z Axis up
G92 E0
G92 E0
G1 F2700 E-5
;LAYER_COUNT:69
;LAYER:0
M107
G0 F6000 X36.226 Y91.812 Z0.2
;TYPE:SKIRT
G1 F2700 E0
G1 F600 X37.105 Y91.486 E0.03118
G1 X38.01 Y91.236 E0.06241
G1 X38.932 Y91.065 E0.0936
G1 X39.865 Y90.972 E0.12478
G1 X40.841 Y90.961 E0.15725
G1 X41.821 Y90.993 E0.18986
G1 X42.037 Y91.002 E0.19705
G1 X46.55 Y91.239 E0.34736
G1 X48.354 Y91.36 E0.4075
G1 X49.153 Y91.425 E0.43416
G1 X50.348 Y91.496 E0.47397
G1 X59.866 Y91.995 E0.79098
G1 X62.474 Y92.095 E0.87779
G1 X64.652 Y92.121 E0.95023
G1 X102.582 Y92.121 E2.21179
G1 X104.587 Y92.15 E2.27848
G1 X104.8 Y92.149 E2.28557
G1 X105.072 Y92.155 E2.29462
G1 X107.609 Y92.146 E2.379
G1 X108.092 Y92.133 E2.39507
G1 X109.424 Y92.118 E2.43937
G1 X111.161 Y92.123 E2.49715
G1 X111.936 Y92.103 E2.52293
G1 X113.04 Y92.089 E2.55965
G1 X113.342 Y92.089 E2.5697
G1 X114.71 Y92.109 E2.6152
G1 X116.939 Y92.122 E2.68934
G1 X117.144 Y92.12 E2.69616
G1 X155.343 Y92.12 E3.96666
G1 X157.963 Y92.083 E4.05381
G1 X160.137 Y91.995 E4.12618
G1 X169.576 Y91.501 E4.44055
G1 X173.594 Y91.233 E4.57449
G1 X178.193 Y90.99 E4.72766
G1 X179.098 Y90.955 E4.75779
G1 X180.036 Y90.959 E4.78899
G1 X180.97 Y91.044 E4.82018
G1 X181.894 Y91.208 E4.85139
G1 X182.8 Y91.45 E4.88258
G1 X183.682 Y91.768 E4.91377
G1 X183.903 Y91.865 E4.92179
G1 X186.071 Y92.783 E5.0001
G1 X188.433 Y93.706 E5.08445
G1 X190.768 Y94.54 E5.16691
G1 X193.173 Y95.325 E5.25106
G1 X195.571 Y96.033 E5.33422
G1 X198.034 Y96.686 E5.41897
G1 X200.454 Y97.254 E5.50164
G1 X203.461 Y97.865 E5.6037
G1 X204.497 Y98.057 E5.63875
G1 X205.411 Y98.267 E5.66994
G1 X206.304 Y98.554 E5.70114
G1 X207.169 Y98.916 E5.73232
G1 X208 Y99.351 E5.76352
G1 X208.791 Y99.855 E5.79472
G1 X209.536 Y100.424 E5.82589
G1 X210.23 Y101.055 E5.85709
G1 X210.868 Y101.743 E5.8883
G1 X211.445 Y102.482 E5.91948
G1 X211.957 Y103.268 E5.95068
G1 X212.4 Y104.095 E5.98189
G1 X212.771 Y104.956 E6.01307
G1 X213.067 Y105.846 E6.04427
G1 X213.286 Y106.758 E6.07546
G1 X213.427 Y107.685 E6.10665
G1 X213.487 Y108.564 E6.13595
G1 X213.496 Y108.885 E6.14663
G1 X213.5 Y109.193 E6.15688
G1 X213.499 Y111.512 E6.23401
G1 X213.489 Y112.217 E6.25746
G1 X213.472 Y112.683 E6.27297
G1 X213.455 Y112.983 E6.28296
G1 X213.426 Y113.381 E6.29623
G1 X213.381 Y113.864 E6.31237
G1 X213.198 Y115.08 E6.35327
G1 X213.149 Y115.316 E6.36128
G1 X213.042 Y115.782 E6.37719
G1 X212.913 Y116.291 E6.39465
G1 X212.548 Y117.456 E6.43526
G1 X212.447 Y117.725 E6.44481
G1 X212.24 Y118.236 E6.46315
G1 X212.03 Y118.72 E6.4807
G1 X211.487 Y119.805 E6.52105
G1 X211.376 Y119.999 E6.52849
G1 X211.121 Y120.422 E6.54492
G1 X210.829 Y120.883 E6.56307
G1 X210.108 Y121.89 E6.60426
G1 X209.952 Y122.084 E6.61254
G1 X209.657 Y122.436 E6.62781
G1 X209.306 Y122.837 E6.64554
G1 X208.375 Y123.779 E6.68959
G1 X208.19 Y123.945 E6.69786
G1 X207.872 Y124.22 E6.71184
G1 X207.459 Y124.563 E6.7297
G1 X206.433 Y125.319 E6.77208
G1 X206.321 Y125.394 E6.77657
G1 X205.84 Y125.695 E6.79544
G1 X205.362 Y125.978 E6.81392
G1 X204.237 Y126.56 E6.85604
G1 X203.997 Y126.667 E6.86478
G1 X203.563 Y126.849 E6.88044
G1 X203.08 Y127.04 E6.89771
G1 X201.91 Y127.429 E6.93872
G1 X201.681 Y127.491 E6.94661
G1 X201.227 Y127.603 E6.96216
G1 X200.704 Y127.721 E6.98
G1 X199.471 Y127.927 E7.02157
G1 X199.204 Y127.956 E7.03051
G1 X198.72 Y127.997 E7.04666
G1 X198.19 Y128.031 E7.06433
G1 X197.795 Y128.05 E7.07748
G1 X197.503 Y128.057 E7.08719
G1 X196.932 Y128.063 E7.10619
G1 X180.188 Y128.063 E7.66309
G1 X177.563 Y128.1 E7.75041
G1 X175.356 Y128.189 E7.82388
G1 X174.775 Y128.218 E7.84322
G1 X172.931 Y128.288 E7.9046
G1 X172.656 Y128.309 E7.91377
G1 X170.966 Y128.363 E7.97001
G1 X159.76 Y128.949 E8.34323
G1 X158.863 Y128.984 E8.37309
G1 X158.586 Y128.991 E8.38231
G1 X157.496 Y129.005 E8.41856
G1 X127.451 Y129.006 E9.41786
G1 X124.012 Y129.062 E9.53226
G1 X123.135 Y129.063 E9.56143
G1 X122.28 Y129.052 E9.58987
G1 X121.421 Y129.006 E9.61848
G1 X120.916 Y128.957 E9.63536
G1 X118.759 Y128.712 E9.70756
G1 X116.274 Y128.502 E9.79051
G1 X113.745 Y128.36 E9.87475
G1 X111.22 Y128.289 E9.95877
G1 X108.695 Y128.289 E10.04275
G1 X106.21 Y128.36 E10.12543
G1 X103.691 Y128.504 E10.20935
G1 X101.19 Y128.718 E10.29284
G1 X99.182 Y128.946 E10.36006
G1 X98.701 Y128.995 E10.37614
G1 X97.747 Y129.051 E10.40792
G1 X96.835 Y129.063 E10.43826
G1 X96.282 Y129.062 E10.45665
G1 X94.585 Y129.038 E10.5131
G1 X94.087 Y129.042 E10.52966
G1 X92.368 Y129.006 E10.58685
G1 X62.424 Y129.004 E11.58279
G1 X61.557 Y128.99 E11.61163
G1 X60.012 Y128.937 E11.66305
G1 X59.812 Y128.928 E11.66971
G1 X48.902 Y128.355 E12.03308
G1 X47.195 Y128.282 E12.0899
G1 X44.999 Y128.208 E12.16298
G1 X44.644 Y128.191 E12.1748
G1 X42.011 Y128.089 E12.26244
G1 X39.833 Y128.063 E12.33489
G1 X23.051 Y128.062 E12.89306
G1 X22.345 Y128.052 E12.91655
G1 X21.877 Y128.035 E12.93212
G1 X21.578 Y128.018 E12.94208
G1 X21.165 Y127.987 E12.95586
G1 X20.679 Y127.941 E12.97209
G1 X19.471 Y127.758 E13.01273
G1 X19.236 Y127.709 E13.02072
G1 X18.752 Y127.597 E13.03724
G1 X18.221 Y127.461 E13.05547
G1 X17.083 Y127.103 E13.09515
G1 X16.854 Y127.017 E13.10328
G1 X16.361 Y126.818 E13.12097
G1 X15.863 Y126.603 E13.13901
G1 X14.698 Y126.016 E13.1824
G1 X14.5 Y125.901 E13.19001
G1 X14.144 Y125.685 E13.20386
G1 X13.684 Y125.394 E13.22197
G1 X12.681 Y124.678 E13.26295
G1 X12.509 Y124.54 E13.27029
G1 X12.133 Y124.224 E13.28662
G1 X11.705 Y123.848 E13.30557
G1 X10.803 Y122.958 E13.34772
G1 X10.644 Y122.782 E13.35561
G1 X10.339 Y122.43 E13.3711
G1 X9.994 Y122.014 E13.38907
G1 X9.264 Y121.026 E13.42993
G1 X9.119 Y120.805 E13.43872
G1 X8.855 Y120.383 E13.45528
G1 X8.594 Y119.943 E13.4723
G1 X8.025 Y118.847 E13.51337
G1 X7.921 Y118.616 E13.52179
G1 X7.721 Y118.144 E13.53884
G1 X7.519 Y117.633 E13.55712
G1 X7.123 Y116.432 E13.59918
G1 X7.062 Y116.204 E13.60703
G1 X6.955 Y115.769 E13.62193
G1 X6.839 Y115.252 E13.63955
G1 X6.637 Y114.036 E13.68055
G1 X6.608 Y113.77 E13.68945
G1 X6.566 Y113.285 E13.70564
G1 X6.532 Y112.757 E13.72324
G1 X6.513 Y112.359 E13.73649
G1 X6.506 Y112.056 E13.74657
G1 X6.5 Y111.451 E13.7667
G1 X6.501 Y109.372 E13.83584
G1 X6.511 Y108.707 E13.85796
G1 X6.565 Y107.77 E13.88918
G1 X6.699 Y106.842 E13.92037
G1 X6.911 Y105.928 E13.95157
G1 X7.2 Y105.036 E13.98276
G1 X7.565 Y104.172 E14.01396
G1 X8.001 Y103.342 E14.04514
G1 X8.507 Y102.552 E14.07634
G1 X9.078 Y101.808 E14.10754
G1 X9.71 Y101.115 E14.13873
G1 X10.399 Y100.479 E14.16992
G1 X11.14 Y99.904 E14.20111
G1 X11.927 Y99.394 E14.2323
G1 X12.755 Y98.953 E14.26351
G1 X13.617 Y98.584 E14.29469
G1 X14.508 Y98.29 E14.3259
G1 X15.281 Y98.1 E14.35237
G1 X15.629 Y98.03 E14.36418
G1 X17.995 Y97.587 E14.44424
G1 X20.43 Y97.059 E14.52711
G1 X22.831 Y96.467 E14.60936
G1 X25.328 Y95.776 E14.69553
G1 X27.709 Y95.043 E14.77839
G1 X30.097 Y94.235 E14.86224
G1 X32.454 Y93.361 E14.94585
G1 X34.781 Y92.423 E15.0293
G1 X35.144 Y92.266 E15.04245
G1 X36.226 Y91.812 E15.08148
G0 F6000 X36.381 Y92.181
G1 F600 X37.244 Y91.862 E15.11208
G1 X38.132 Y91.619 E15.1427
G1 X39.038 Y91.454 E15.17333
G1 X39.955 Y91.368 E15.20397
G1 X40.828 Y91.361 E15.233
G1 X42.016 Y91.401 E15.27254
G1 X46.524 Y91.638 E15.42268
G1 X48.165 Y91.747 E15.47738
G1 X49.099 Y91.822 E15.50855
G1 X50.401 Y91.9 E15.55193
G1 X59.829 Y92.394 E15.86594
G1 X62.454 Y92.495 E15.95331
G1 X64.647 Y92.521 E16.02625
G1 X102.576 Y92.521 E17.28778
G1 X104.696 Y92.552 E17.3583
G1 X104.791 Y92.549 E17.36146
G1 X105.065 Y92.555 E17.37057
G1 X107.622 Y92.546 E17.45562
G1 X108.097 Y92.533 E17.47142
G1 X109.423 Y92.518 E17.51553
G1 X111.171 Y92.523 E17.57367
G1 X111.941 Y92.503 E17.59929
G1 X113.045 Y92.489 E17.63601
G1 X113.336 Y92.489 E17.64569
G1 X114.701 Y92.509 E17.69109
G1 X116.94 Y92.522 E17.76556
G1 X117.147 Y92.52 E17.77245
G1 X155.349 Y92.52 E19.04305
G1 X157.985 Y92.483 E19.13074
G1 X160.174 Y92.394 E19.2036
G1 X169.625 Y91.899 E19.51838
G1 X173.62 Y91.632 E19.65155
G1 X178.214 Y91.39 E19.80455
G1 X179.113 Y91.355 E19.83448
G1 X180.034 Y91.36 E19.86511
G1 X180.951 Y91.445 E19.89574
G1 X181.856 Y91.609 E19.92633
G1 X182.745 Y91.852 E19.95699
G1 X183.743 Y92.242 E19.99262
G1 X183.747 Y92.233 E19.99295
G1 X185.906 Y93.147 E20.07093
G1 X188.301 Y94.083 E20.15645
G1 X190.646 Y94.921 E20.23928
G1 X193.041 Y95.702 E20.32307
G1 X195.493 Y96.427 E20.40811
G1 X197.921 Y97.07 E20.49165
G1 X200.38 Y97.647 E20.57566
G1 X203.364 Y98.253 E20.67693
G1 X204.424 Y98.45 E20.71279
G1 X205.321 Y98.657 E20.74341
G1 X206.197 Y98.941 E20.77404
G1 X207.045 Y99.3 E20.80467
G1 X207.858 Y99.731 E20.83527
G1 X208.631 Y100.232 E20.86591
G1 X209.358 Y100.797 E20.89653
G1 X210.033 Y101.423 E20.92715
G1 X210.65 Y102.106 E20.95777
G1 X211.207 Y102.839 E20.98839
G1 X211.697 Y103.618 E21.019
G1 X212.119 Y104.437 E21.04964
G1 X212.467 Y105.289 E21.08025
G1 X212.74 Y106.168 E21.11086
G1 X212.936 Y107.068 E21.1415
G1 X213.053 Y107.981 E21.17211
G1 X213.087 Y108.575 E21.1919
G1 X213.096 Y108.896 E21.20258
G1 X213.1 Y109.193 E21.21246
G1 X213.099 Y111.506 E21.28939
G1 X213.089 Y112.211 E21.31284
G1 X213.073 Y112.661 E21.32782
G1 X213.056 Y112.961 E21.33781
G1 X213.027 Y113.344 E21.35059
G1 X212.982 Y113.827 E21.36672
G1 X212.807 Y114.999 E21.40614
G1 X212.758 Y115.235 E21.41415
G1 X212.654 Y115.684 E21.42948
G1 X212.525 Y116.193 E21.44695
G1 X212.174 Y117.315 E21.48605
G1 X212.073 Y117.584 E21.4956
G1 X211.873 Y118.077 E21.5133
G1 X211.663 Y118.561 E21.53085
G1 X211.139 Y119.606 E21.56973
G1 X211.028 Y119.8 E21.57716
G1 X210.783 Y120.208 E21.59299
G1 X210.491 Y120.669 E21.61114
G1 X209.797 Y121.64 E21.65084
G1 X209.641 Y121.834 E21.65912
G1 X209.356 Y122.173 E21.67385
G1 X209.005 Y122.574 E21.69157
G1 X208.108 Y123.482 E21.73403
G1 X207.923 Y123.648 E21.74229
G1 X207.616 Y123.912 E21.75576
G1 X207.203 Y124.255 E21.77362
G1 X206.81 Y124.545 E21.78986
G1 X206.214 Y124.984 E21.81448
G1 X206.043 Y125.098 E21.82132
G1 X205.636 Y125.351 E21.83725
G1 X205.158 Y125.634 E21.85573
G1 X204.074 Y126.194 E21.89631
G1 X203.834 Y126.301 E21.90505
G1 X203.416 Y126.477 E21.92014
G1 X202.933 Y126.668 E21.93741
G1 X201.805 Y127.043 E21.97695
G1 X201.576 Y127.105 E21.98484
G1 X201.139 Y127.213 E21.99981
G1 X200.616 Y127.331 E22.01764
G1 X199.428 Y127.529 E22.0577
G1 X199.161 Y127.558 E22.06663
G1 X198.695 Y127.598 E22.08219
G1 X198.165 Y127.632 E22.09985
G1 X197.78 Y127.65 E22.11267
G1 X197.498 Y127.657 E22.12206
G1 X196.932 Y127.663 E22.14088
G1 X180.182 Y127.663 E22.69799
G1 X177.542 Y127.7 E22.7858
G1 X175.406 Y127.786 E22.85691
G1 X174.76 Y127.818 E22.87842
G1 X173.086 Y127.882 E22.93414
G1 X172.643 Y127.91 E22.9489
G1 X170.885 Y127.966 E23.0074
G1 X159.744 Y128.549 E23.37846
G1 X158.847 Y128.584 E23.40832
G1 X158.581 Y128.591 E23.41717
G1 X157.496 Y128.605 E23.45326
G1 X127.445 Y128.606 E24.45276
G1 X124.006 Y128.662 E24.56715
G1 X123.135 Y128.663 E24.59612
G1 X122.286 Y128.652 E24.62436
G1 X121.458 Y128.608 E24.65194
G1 X121.178 Y128.582 E24.66129
G1 X120.961 Y128.559 E24.66855
G1 X118.801 Y128.314 E24.74085
G1 X116.297 Y128.102 E24.82444
G1 X113.778 Y127.96 E24.90835
G1 X111.231 Y127.889 E24.9931
G1 X108.719 Y127.889 E25.07665
G1 X106.175 Y127.962 E25.1613
G1 X103.635 Y128.107 E25.24591
G1 X101.147 Y128.32 E25.32897
G1 X99.141 Y128.548 E25.39612
G1 X98.66 Y128.597 E25.4122
G1 X97.741 Y128.651 E25.44282
G1 X96.835 Y128.663 E25.47295
G1 X96.288 Y128.662 E25.49115
G1 X94.31 Y128.634 E25.55694
G1 X94.095 Y128.642 E25.5641
G1 X92.376 Y128.606 E25.62128
G1 X62.43 Y128.604 E26.61729
G1 X61.786 Y128.595 E26.63871
G1 X61.571 Y128.59 E26.64587
G1 X60.026 Y128.537 E26.69728
G1 X48.94 Y127.956 E27.06651
G1 X47.223 Y127.883 E27.12367
G1 X45.013 Y127.808 E27.19722
G1 X44.615 Y127.789 E27.21047
G1 X42.03 Y127.689 E27.29651
G1 X39.838 Y127.663 E27.36942
G1 X23.057 Y127.662 E27.92756
G1 X22.351 Y127.652 E27.95105
G1 X21.899 Y127.636 E27.96609
G1 X21.6 Y127.619 E27.97605
G1 X21.203 Y127.589 E27.98929
G1 X20.717 Y127.543 E28.00553
G1 X19.552 Y127.367 E28.04472
G1 X19.317 Y127.318 E28.0527
G1 X18.851 Y127.21 E28.06861
G1 X18.32 Y127.074 E28.08684
G1 X17.223 Y126.728 E28.1251
G1 X16.994 Y126.642 E28.13324
G1 X16.52 Y126.451 E28.15023
G1 X16.022 Y126.236 E28.16827
G1 X14.899 Y125.67 E28.2101
G1 X14.701 Y125.555 E28.21772
G1 X14.358 Y125.347 E28.23106
G1 X13.898 Y125.056 E28.24916
G1 X12.932 Y124.366 E28.28865
G1 X12.76 Y124.228 E28.29598
G1 X12.397 Y123.923 E28.31175
G1 X11.969 Y123.547 E28.3307
G1 X11.099 Y122.69 E28.37132
G1 X10.94 Y122.514 E28.37921
G1 X10.647 Y122.175 E28.39411
G1 X10.302 Y121.759 E28.41208
G1 X9.598 Y120.807 E28.45147
G1 X9.453 Y120.586 E28.46026
G1 X9.199 Y120.179 E28.47621
G1 X8.938 Y119.739 E28.49323
G1 X8.389 Y118.683 E28.53281
G1 X8.285 Y118.452 E28.54124
G1 X8.093 Y117.997 E28.55767
G1 X7.891 Y117.486 E28.57594
G1 X7.509 Y116.329 E28.61647
G1 X7.448 Y116.101 E28.62432
G1 X7.345 Y115.682 E28.63867
G1 X7.229 Y115.165 E28.65629
G1 X7.034 Y113.993 E28.69581
G1 X7.005 Y113.727 E28.70471
G1 X6.965 Y113.259 E28.72033
G1 X6.931 Y112.731 E28.73793
G1 X6.913 Y112.344 E28.75081
G1 X6.906 Y112.051 E28.76056
G1 X6.9 Y111.451 E28.78052
G1 X6.901 Y109.378 E28.84947
G1 X6.911 Y108.713 E28.87159
G1 X6.965 Y107.794 E28.90221
G1 X7.098 Y106.883 E28.93283
G1 X7.31 Y105.987 E28.96345
G1 X7.599 Y105.112 E28.9941
G1 X7.963 Y104.267 E29.0247
G1 X8.398 Y103.456 E29.05531
G1 X8.903 Y102.685 E29.08596
G1 X9.472 Y101.962 E29.11657
G1 X10.102 Y101.29 E29.1472
G1 X10.788 Y100.676 E29.17782
G1 X11.524 Y100.124 E29.20842
G1 X12.306 Y99.637 E29.23906
G1 X13.127 Y99.221 E29.26968
G1 X13.981 Y98.877 E29.3003
G1 X14.861 Y98.608 E29.3309
G1 X15.362 Y98.492 E29.34801
G1 X15.703 Y98.423 E29.35958
G1 X18.048 Y97.984 E29.43893
G1 X20.538 Y97.444 E29.52367
G1 X22.961 Y96.847 E29.60667
G1 X25.415 Y96.168 E29.69136
G1 X27.84 Y95.421 E29.77575
G1 X30.227 Y94.613 E29.85957
G1 X32.606 Y93.731 E29.94396
G1 X34.928 Y92.795 E30.02723
G1 X35.299 Y92.635 E30.04067
G1 X36.381 Y92.181 E30.07969
G0 F6000 X36.535 Y92.549
G1 F600 X37.383 Y92.237 E30.10975
G1 X38.255 Y92.001 E30.13979
G1 X39.144 Y91.843 E30.16982
G1 X40.043 Y91.764 E30.19984
G1 X40.815 Y91.76 E30.22552
G1 X41.795 Y91.792 E30.25813
G1 X46.354 Y92.029 E30.40997
G1 X48.138 Y92.146 E30.46943
G1 X49.041 Y92.219 E30.49956
G1 X50.355 Y92.298 E30.54335
G1 X59.792 Y92.792 E30.85765
G1 X62.472 Y92.895 E30.94685
G1 X64.643 Y92.921 E31.01907
G1 X102.57 Y92.921 E32.28052
G1 X104.659 Y92.952 E32.35001
G1 X104.781 Y92.949 E32.35407
G1 X105.056 Y92.955 E32.36322
G1 X107.636 Y92.945 E32.44903
G1 X108.102 Y92.933 E32.46454
G1 X109.422 Y92.918 E32.50844
G1 X111.181 Y92.923 E32.56695
G1 X111.946 Y92.903 E32.5924
G1 X113.05 Y92.889 E32.62912
G1 X113.33 Y92.889 E32.63844
G1 X114.693 Y92.909 E32.68377
G1 X116.941 Y92.922 E32.75854
G1 X117.15 Y92.92 E32.7655
G1 X155.355 Y92.92 E34.0362
G1 X157.968 Y92.883 E34.12312
G1 X160.212 Y92.792 E34.19781
G1 X169.673 Y92.297 E34.51292
G1 X173.788 Y92.023 E34.65009
G1 X178.386 Y91.782 E34.80323
G1 X179.128 Y91.754 E34.82792
G1 X180.031 Y91.76 E34.85796
G1 X180.93 Y91.846 E34.888
G1 X181.818 Y92.011 E34.91804
G1 X182.688 Y92.254 E34.94808
G1 X183.587 Y92.609 E34.98023
G1 X183.591 Y92.601 E34.98052
G1 X185.784 Y93.529 E35.05973
G1 X188.157 Y94.456 E35.14446
G1 X190.492 Y95.291 E35.22694
