;FLAVOR:Marlin
;TIME:13130
;Filament used: 6.83649m
;Layer height: 0.15
;MINX:71.874
;MINY:81.631
;MINZ:0.24
;MAXX:148.165
;MAXY:146.859
;MAXZ:65.915
;Generated with Cura_SteamEngine 4.10.0
M140 S60
M105
M190 S60
M104 S210
M105
M109 S210
M82 ;absolute extrusion mode
M201 X500.00 Y500.00 Z100.00 E5000.00 ;Setup machine max acceleration
M203 X500.00 Y500.00 Z10.00 E50.00 ;Setup machine max feedrate
M204 P500.00 R1000.00 T500.00 ;Setup Print/Retract/Travel acceleration
M205 X8.00 Y8.00 Z0.40 E5.00 ;Setup Jerk
M220 S100 ;Reset Feedrate
M221 S100 ;Reset Flowrate

G28 ;Home
G29 ;Auto Bed Leveling
M420 S1 Z2 ;Enable ABL using saved Mesh and Fade Height

G92 E0 ;Reset Extruder
G1 Z2.0 F3000 ;Move Z Axis up
G1 X10.1 Y20 Z0.28 F5000.0 ;Move to start position
G1 X10.1 Y200.0 Z0.28 F1500.0 E15 ;Draw the first line
G1 X10.4 Y200.0 Z0.28 F5000.0 ;Move to side a little
G1 X10.4 Y20 Z0.28 F1500.0 E30 ;Draw the second line
G92 E0 ;Reset Extruder
G1 Z2.0 F3000 ;Move Z Axis up
G92 E0
G92 E0
G1 F2700 E-5
;LAYER_COUNT:433
;LAYER:-6
M107
G0 F9000 X77.427 Y86.731 Z0.24
;TYPE:SUPPORT-INTERFACE
G1 F2700 E0
G1 F1125 X78.098 Y86.128 E0.07201
G1 X78.214 Y86.032 E0.08403
G1 X78.926 Y85.482 E0.15585
G1 X79.085 Y85.369 E0.17142
G1 X79.823 Y84.879 E0.24213
G1 X79.949 Y84.803 E0.25388
G1 X80.743 Y84.357 E0.32657
G1 X80.893 Y84.279 E0.34007
G1 X81.708 Y83.896 E0.41195
G1 X81.851 Y83.836 E0.42433
G1 X82.71 Y83.507 E0.49776
G1 X82.86 Y83.455 E0.51043
G1 X83.71 Y83.2 E0.58127
G1 X83.883 Y83.153 E0.59558
G1 X84.778 Y82.953 E0.66878
G1 X84.908 Y82.93 E0.67932
G1 X85.813 Y82.796 E0.75235
G1 X85.982 Y82.778 E0.76592
G1 X86.871 Y82.712 E0.83708
G1 X87.055 Y82.703 E0.85178
G1 X87.56 Y82.695 E0.8921
G1 X132.503 Y82.696 E4.47964
G1 X133.504 Y82.732 E4.5596
G1 X133.627 Y82.741 E4.56944
G1 X134.544 Y82.843 E4.64309
G1 X134.719 Y82.868 E4.6572
G1 X135.608 Y83.032 E4.72936
G1 X135.731 Y83.06 E4.73943
G1 X136.625 Y83.294 E4.8132
G1 X136.788 Y83.343 E4.82679
G1 X137.63 Y83.629 E4.89777
G1 X137.796 Y83.693 E4.91197
G1 X138.599 Y84.034 E4.98161
G1 X138.788 Y84.122 E4.99825
G1 X139.582 Y84.53 E5.06951
G1 X139.699 Y84.597 E5.08028
G1 X140.478 Y85.071 E5.15307
G1 X140.629 Y85.171 E5.16752
G1 X141.343 Y85.682 E5.23761
G1 X141.491 Y85.795 E5.25247
G1 X142.182 Y86.371 E5.32428
G1 X142.295 Y86.472 E5.33638
G1 X142.944 Y87.097 E5.4083
G1 X143.064 Y87.222 E5.42213
G1 X143.667 Y87.893 E5.49415
G1 X143.763 Y88.009 E5.50617
G1 X144.322 Y88.733 E5.57918
G1 X144.416 Y88.864 E5.59205
G1 X144.916 Y89.618 E5.66427
G1 X144.992 Y89.744 E5.67602
G1 X145.438 Y90.538 E5.74871
G1 X145.516 Y90.688 E5.76221
G1 X145.899 Y91.503 E5.83409
G1 X145.959 Y91.646 E5.84647
G1 X146.288 Y92.505 E5.91989
G1 X146.34 Y92.655 E5.93257
G1 X146.595 Y93.505 E6.00341
G1 X146.642 Y93.678 E6.01772
G1 X146.84 Y94.564 E6.09018
G1 X146.865 Y94.703 E6.10146
G1 X146.998 Y95.602 E6.174
G1 X147.016 Y95.764 E6.18701
G1 X147.083 Y96.666 E6.25921
G1 X147.092 Y96.85 E6.27392
G1 X147.1 Y97.351 E6.31391
G1 X147.1 Y108.684 E7.21856
G1 X147.062 Y109.754 E7.30403
G1 X146.839 Y112.869 E7.55332
G1 X146.827 Y113.002 E7.56398
G1 X146.724 Y113.941 E7.63938
G1 X146.706 Y114.068 E7.64962
G1 X146.53 Y115.035 E7.72808
G1 X145.861 Y118.112 E7.97944
G1 X145.616 Y119.076 E8.05883
G1 X145.559 Y119.272 E8.07513
G1 X145.288 Y120.081 E8.14323
G1 X145.249 Y120.193 E8.1527
G1 X144.167 Y123.091 E8.39963
G1 X144.116 Y123.219 E8.41063
G1 X143.761 Y124.074 E8.48453
G1 X143.703 Y124.199 E8.49553
G1 X143.299 Y125.006 E8.56757
G1 X143.246 Y125.107 E8.57667
G1 X141.775 Y127.799 E8.82155
G1 X141.727 Y127.883 E8.82927
G1 X141.239 Y128.703 E8.90544
G1 X141.133 Y128.868 E8.92109
G1 X140.636 Y129.581 E8.99047
G1 X140.582 Y129.656 E8.99785
G1 X138.746 Y132.109 E9.24243
G1 X138.648 Y132.236 E9.25524
G1 X138.085 Y132.932 E9.32669
G1 X137.945 Y133.094 E9.34379
G1 X137.345 Y133.738 E9.41405
G1 X135.098 Y135.984 E9.66765
G1 X135.009 Y136.07 E9.67753
G1 X134.341 Y136.691 E9.75034
G1 X134.208 Y136.806 E9.76437
G1 X133.444 Y137.42 E9.84261
G1 X130.897 Y139.324 E10.09645
G1 X130.095 Y139.88 E10.17435
G1 X129.964 Y139.964 E10.18677
G1 X129.142 Y140.451 E10.26304
G1 X126.313 Y141.994 E10.52027
G1 X125.452 Y142.423 E10.59706
G1 X125.317 Y142.484 E10.60888
G1 X124.416 Y142.856 E10.68669
G1 X121.431 Y143.969 E10.94099
G1 X120.485 Y144.283 E11.02056
G1 X120.359 Y144.32 E11.03104
G1 X119.48 Y144.543 E11.10343
G1 X119.357 Y144.572 E11.11352
G1 X116.251 Y145.245 E11.3672
G1 X115.311 Y145.413 E11.44343
G1 X115.177 Y145.432 E11.45423
G1 X114.202 Y145.534 E11.53248
G1 X111.13 Y145.755 E11.77834
G1 X110.985 Y145.762 E11.78993
G1 X110.049 Y145.795 E11.86469
G1 X109.908 Y145.795 E11.87594
G1 X108.986 Y145.762 E11.94959
G1 X105.824 Y145.537 E12.20263
G1 X105.715 Y145.527 E12.21137
G1 X104.776 Y145.425 E12.28676
G1 X104.616 Y145.402 E12.29967
G1 X103.651 Y145.226 E12.37797
G1 X100.604 Y144.564 E12.62687
G1 X99.631 Y144.317 E12.707
G1 X99.435 Y144.259 E12.72332
G1 X98.506 Y143.947 E12.80154
G1 X95.519 Y142.832 E13.05605
G1 X94.636 Y142.465 E13.13238
G1 X94.49 Y142.398 E13.1452
G1 X93.62 Y141.959 E13.22299
G1 X90.898 Y140.472 E13.47058
G1 X90.791 Y140.411 E13.48041
G1 X89.978 Y139.927 E13.55594
G1 X89.866 Y139.855 E13.56657
G1 X89.074 Y139.305 E13.64354
G1 X86.498 Y137.375 E13.90048
G1 X85.772 Y136.789 E13.97495
G1 X85.601 Y136.64 E13.99306
G1 X84.908 Y135.991 E14.06885
G1 X82.709 Y133.791 E14.31714
G1 X82.624 Y133.702 E14.32697
G1 X81.998 Y133.029 E14.40034
G1 X81.892 Y132.906 E14.4133
G1 X81.304 Y132.177 E14.48806
G1 X79.374 Y129.595 E14.74538
G1 X78.818 Y128.793 E14.82328
G1 X78.727 Y128.651 E14.83674
G1 X78.247 Y127.84 E14.91197
G1 X76.732 Y125.065 E15.16434
G1 X76.272 Y124.145 E15.24645
G1 X76.201 Y123.987 E15.26028
G1 X75.839 Y123.107 E15.33624
G1 X74.728 Y120.129 E15.58996
G1 X74.414 Y119.18 E15.66975
G1 X74.374 Y119.043 E15.68114
G1 X74.143 Y118.131 E15.75624
G1 X73.47 Y115.04 E16.00876
G1 X73.288 Y114.026 E16.09099
G1 X73.262 Y113.844 E16.10567
G1 X73.171 Y112.987 E16.17446
G1 X72.94 Y109.784 E16.4308
G1 X72.9 Y108.698 E16.51755
G1 X72.9 Y97.309 E17.42667
G1 X72.936 Y96.303 E17.50703
G1 X72.946 Y96.168 E17.51783
G1 X73.048 Y95.251 E17.59148
G1 X73.073 Y95.076 E17.60559
G1 X73.235 Y94.198 E17.67686
G1 X73.265 Y94.064 E17.68782
G1 X73.496 Y93.179 E17.76083
G1 X73.548 Y93.007 E17.77518
G1 X73.834 Y92.165 E17.84616
G1 X73.898 Y91.999 E17.86036
G1 X74.239 Y91.196 E17.93
G1 X74.32 Y91.021 E17.9454
G1 X74.735 Y90.213 E18.0179
G1 X74.802 Y90.096 E18.02867
G1 X75.276 Y89.317 E18.10146
G1 X75.376 Y89.166 E18.11591
G1 X75.887 Y88.452 E18.186
G1 X76 Y88.304 E18.20086
G1 X76.576 Y87.613 E18.27267
G1 X76.677 Y87.5 E18.28477
G1 X77.302 Y86.851 E18.35669
G1 X77.427 Y86.731 E18.37052
G0 F9000 X76.8 Y87.372
G1 F1125 X76.8 Y125.189 E21.38924
G0 F9000 X78.4 Y128.098
G1 F1125 X78.4 Y85.888 E24.75863
G0 F9000 X80 Y84.774
G1 F1125 X80 Y130.432 E28.40325
G0 F9000 X81.6 Y132.543
G1 F1125 X81.6 Y83.946 E32.28247
G0 F9000 X83.2 Y83.353
G1 F1125 X83.2 Y134.282 E36.34784
G0 F9000 X84.8 Y135.882
G1 F1125 X84.8 Y82.949 E40.57318
G0 F9000 X86.4 Y82.746
G1 F1125 X86.4 Y137.295 E44.92752
G0 F9000 X88 Y138.5
G1 F1125 X88 Y82.696 E49.38204
G0 F9000 X89.6 Y82.696
G1 F1125 X89.6 Y139.67 E53.92995
G0 F9000 X91.2 Y140.636
G1 F1125 X91.2 Y82.696 E58.55497
G0 F9000 X92.8 Y82.696
G1 F1125 X92.8 Y141.511 E63.24984
G0 F9000 X94.4 Y142.352
G1 F1125 X94.4 Y82.696 E68.01184
G0 F9000 X96 Y82.696
G1 F1125 X96 Y143.011 E72.82644
G0 F9000 X97.6 Y143.608
G1 F1125 X97.6 Y82.696 E77.6887
G0 F9000 X99.2 Y82.696
G1 F1125 X99.2 Y144.18 E82.59662
G0 F9000 X100.8 Y144.606
G1 F1125 X100.8 Y82.696 E87.53854
G0 F9000 X102.4 Y82.696
G1 F1125 X102.4 Y144.954 E92.50824
G0 F9000 X104 Y145.289
G1 F1125 X104 Y82.696 E97.50469
G0 F9000 X105.6 Y82.696
G1 F1125 X105.6 Y145.514 E102.51909
G0 F9000 X107.2 Y145.634
G1 F1125 X107.2 Y82.696 E107.54308
G0 F9000 X108.8 Y82.696
G1 F1125 X108.8 Y145.748 E112.57616
G0 F9000 X110.4 Y145.783
G1 F1125 X110.4 Y82.696 E117.61204
G0 F9000 X112 Y82.696
G1 F1125 X112 Y145.693 E122.64073
G0 F9000 X113.6 Y145.578
G1 F1125 X113.6 Y82.696 E127.66024
G0 F9000 X115.2 Y82.696
G1 F1125 X115.2 Y145.429 E132.66786
G0 F9000 X116.8 Y145.127
G1 F1125 X116.8 Y82.696 E137.65137
G0 F9000 X118.4 Y82.696
G1 F1125 X118.4 Y144.78 E142.60719
G0 F9000 X120 Y144.412
G1 F1125 X120 Y82.696 E147.53363
G0 F9000 X121.6 Y82.696
G1 F1125 X121.6 Y143.906 E152.41967
G0 F9000 X123.2 Y143.31
G1 F1125 X123.2 Y82.696 E157.25814
G0 F9000 X124.8 Y82.696
G1 F1125 X124.8 Y142.698 E162.04776
G0 F9000 X126.4 Y141.947
G1 F1125 X126.4 Y82.696 E166.77743
G0 F9000 X128 Y82.696
G1 F1125 X128 Y141.074 E171.43742
G0 F9000 X129.6 Y140.18
G1 F1125 X129.6 Y82.696 E176.02604
G0 F9000 X131.2 Y82.696
G1 F1125 X131.2 Y139.098 E180.52829
G0 F9000 X132.8 Y137.902
G1 F1125 X132.8 Y82.707 E184.93419
G0 F9000 X134.4 Y82.827
G1 F1125 X134.4 Y136.637 E189.22954
G0 F9000 X136 Y135.083
G1 F1125 X136 Y83.131 E193.37657
G0 F9000 X137.6 Y83.619
G1 F1125 X137.6 Y133.465 E197.3555
G0 F9000 X139.2 Y131.503
G1 F1125 X139.2 Y84.334 E201.12073
G0 F9000 X140.8 Y85.294
G1 F1125 X140.8 Y129.346 E204.63715
G0 F9000 X142.4 Y126.656
G1 F1125 X142.4 Y86.574 E207.83667
G0 F9000 X144 Y88.316
G1 F1125 X144 Y123.499 E210.64513
G1 F2700 E205.64513
G0 F9000 X145.159 Y123.478
G0 X146.576 Y119.586
G0 X145.6 Y119.132
G1 F2700 E210.64513
G1 F1125 X145.6 Y90.867 E212.90137
G1 F2700 E207.90137
G0 F9000 X146.466 Y90.209
G0 X145.819 Y89.055
G0 X144.599 Y87.351
G0 X143.703 Y86.35
G0 X142.148 Y84.957
G0 X141.043 Y84.169
G0 X139.249 Y83.163
G0 X137.985 Y82.626
G0 X135.988 Y82.027
G0 X134.672 Y81.786
G0 X132.487 Y81.631
G0 X86.81 Y81.649
G0 X84.742 Y81.878
G0 X83.427 Y82.174
G0 X81.461 Y82.845
G0 X80.243 Y83.417
G0 X78.477 Y84.496
G0 X77.397 Y85.327
G0 X75.892 Y86.781
G0 X75.65 Y87.073
G0 X74.504 Y88.556
G0 X75.2 Y89.441
G1 F2700 E212.90137
G1 F1125 X75.2 Y121.394 E215.45199
G1 F2700 E210.45199
G0 F9000 X74.203 Y121.765
G0 X73.349 Y119.33
G0 X72.56 Y115.863
G0 X73.6 Y115.637
G1 F2700 E215.45199
G1 F1125 X73.6 Y92.853 E217.27071
G1 F2700 E212.27071
G0 F300 X73.6 Y92.853 Z0.465
G0 F9000 X72.473 Y92.885
G0 X72.021 Y94.912
G0 X71.874 Y96.238
G0 X71.874 Y109.767
G0 X72.238 Y114.201
G0 X73.349 Y119.33
G0 X74.876 Y123.568
G0 X75.795 Y125.569
G0 X77.936 Y129.389
G0 X81.062 Y133.574
G0 X81.892 Y132.905
;TIME_ELAPSED:158.586564
;LAYER:-5
;TYPE:SUPPORT
G1 F2700 E217.27071
G1 F1125 X81.998 Y133.028 E217.28286
G1 X82.624 Y133.701 E217.35164
G1 X82.708 Y133.79 E217.3608
G1 X84.907 Y135.99 E217.59358
G1 X85.6 Y136.639 E217.66463
G1 X85.772 Y136.788 E217.68166
G1 X86.314 Y137.226 E217.73381
G1 X81.467 Y132.379 E218.24679
G1 X81.303 Y132.175 E218.26637
G1 X79.374 Y129.594 E218.50751
G1 X78.818 Y128.792 E218.58054
G1 X78.727 Y128.65 E218.59316
G1 X78.247 Y127.839 E218.66369
G1 X78.132 Y127.629 E218.6816
G1 X91.065 Y140.562 E220.05034
G1 X93.62 Y141.958 E220.26823
G1 X94.135 Y142.218 E220.3114
G1 X76.482 Y124.566 E222.17962
G1 X76.272 Y124.144 E222.21489
G1 X76.201 Y123.986 E222.22786
G1 X75.839 Y123.106 E222.29907
G1 X75.482 Y122.151 E222.37536
G1 X96.544 Y143.213 E224.60442
G1 X98.506 Y143.946 E224.76116
G1 X98.784 Y144.039 E224.7831
G1 X74.655 Y119.91 E227.33674
G1 X74.413 Y119.179 E227.39437
G1 X74.374 Y119.042 E227.40503
G1 X74.142 Y118.13 E227.47545
G1 X74.101 Y117.942 E227.48985
G1 X100.754 Y144.595 E230.31062
G1 X102.561 Y144.988 E230.44901
G1 X73.708 Y116.134 E233.50266
G1 X73.469 Y115.039 E233.58654
G1 X73.347 Y114.359 E233.63824
G1 X104.338 Y145.35 E236.91811
G1 X104.615 Y145.401 E236.93919
G1 X104.775 Y145.424 E236.95129
G1 X105.714 Y145.526 E237.02197
G1 X105.824 Y145.536 E237.03024
G1 X105.947 Y145.545 E237.03947
G1 X73.153 Y112.751 E240.51016
G1 X73.044 Y111.227 E240.6245
G1 X107.469 Y145.653 E244.26785
G1 X108.986 Y145.761 E244.38167
G1 X108.992 Y145.761 E244.38212
G1 X72.936 Y109.706 E248.19798
G1 X72.899 Y108.697 E248.27354
G1 X72.899 Y108.255 E248.30662
G1 X110.426 Y145.781 E252.27816
G1 X110.984 Y145.761 E252.31995
G1 X111.13 Y145.754 E252.33089
G1 X111.767 Y145.708 E252.37868
G1 X72.899 Y106.841 E256.49215
G1 X72.899 Y105.426 E256.59804
G1 X113.086 Y145.613 E260.85116
G1 X114.201 Y145.533 E260.93481
G1 X114.399 Y145.512 E260.94971
G1 X72.899 Y104.012 E265.34179
G1 X72.899 Y102.598 E265.4476
G1 X115.652 Y145.35 E269.97223
G1 X116.251 Y145.243 E270.01777
G1 X116.833 Y145.117 E270.06233
G1 X72.899 Y101.184 E274.71195
G1 X72.899 Y99.769 E274.81784
G1 X117.995 Y144.865 E279.59049
G1 X119.157 Y144.613 E279.67947
G1 X72.899 Y98.355 E284.5751
G1 X72.899 Y97.307 E284.65353
G1 X72.912 Y96.954 E284.67996
G1 X120.293 Y144.335 E289.69444
G1 X120.359 Y144.319 E289.69952
G1 X120.485 Y144.282 E289.70935
G1 X121.362 Y143.99 E289.77852
G1 X73.005 Y95.632 E294.89635
G1 X73.048 Y95.25 E294.92511
G1 X73.073 Y95.075 E294.93834
G1 X73.195 Y94.408 E294.98909
G1 X122.395 Y143.608 E300.19608
G1 X123.425 Y143.224 E300.27834
G1 X73.471 Y93.27 E305.56513
G1 X73.496 Y93.178 E305.57226
G1 X73.548 Y93.006 E305.58571
G1 X73.82 Y92.205 E305.64901
G1 X124.454 Y142.839 E311.00776
G1 X125.316 Y142.482 E311.07759
G1 X125.452 Y142.422 E311.08871
G1 X74.234 Y91.205 E316.50922
G1 X74.239 Y91.195 E316.51005
G1 X74.319 Y91.02 E316.52445
G1 X74.707 Y90.263 E316.58811
G1 X126.392 Y141.948 E322.0581
G1 X127.308 Y141.45 E322.13612
G1 X75.236 Y89.379 E327.64701
G1 X75.275 Y89.316 E327.65255
G1 X75.375 Y89.165 E327.66611
G1 X75.818 Y88.546 E327.72307
G1 X128.223 Y140.951 E333.26925
G1 X129.138 Y140.451 E333.34729
G1 X76.449 Y87.763 E338.92347
G1 X76.576 Y87.612 E338.93824
G1 X76.676 Y87.499 E338.94953
G1 X77.129 Y87.028 E338.99844
G1 X130.024 Y139.923 E344.59648
G1 X130.094 Y139.879 E344.60266
G1 X130.862 Y139.347 E344.67258
G1 X77.858 Y86.343 E350.28216
G1 X78.097 Y86.127 E350.30627
G1 X78.213 Y86.031 E350.31753
G1 X78.635 Y85.706 E350.35739
G1 X131.672 Y138.743 E355.97046
G1 X132.481 Y138.138 E356.04606
G1 X79.461 Y85.118 E361.65733
G1 X79.822 Y84.878 E361.68978
G1 X79.949 Y84.802 E361.70085
G1 X80.34 Y84.583 E361.73439
G1 X133.29 Y137.532 E367.3382
G1 X133.443 Y137.419 E367.35243
G1 X134.079 Y136.907 E367.41353
G1 X81.272 Y84.1 E373.00226
G1 X81.707 Y83.895 E373.03825
G1 X81.851 Y83.835 E373.04992
G1 X82.263 Y83.677 E373.08295
G1 X134.824 Y136.238 E378.64564
G1 X135.008 Y136.069 E378.66434
G1 X135.097 Y135.982 E378.67365
G1 X135.54 Y135.54 E378.72048
G1 X83.317 Y83.317 E384.2474
G1 X83.709 Y83.2 E384.27802
G1 X83.882 Y83.152 E384.29145
G1 X84.442 Y83.028 E384.33438
G1 X136.247 Y134.833 E389.81706
G1 X136.954 Y134.126 E389.89188
G1 X85.649 Y82.82 E395.3217
G1 X85.812 Y82.795 E395.33404
G1 X85.981 Y82.778 E395.34676
G1 X86.87 Y82.712 E395.41347
G1 X86.951 Y82.708 E395.41954
G1 X137.651 Y133.409 E400.78533
G1 X137.944 Y133.093 E400.81758
G1 X138.083 Y132.931 E400.83355
G1 X138.31 Y132.653 E400.86041
G1 X88.352 Y82.695 E406.14762
G1 X89.766 Y82.695 E406.25344
G1 X138.931 Y131.86 E411.45672
G1 X139.537 Y131.052 E411.53231
G1 X91.18 Y82.695 E416.65008
G1 X92.594 Y82.695 E416.75589
G1 X140.142 Y130.243 E421.78805
G1 X140.581 Y129.656 E421.8429
G1 X140.635 Y129.58 E421.84988
G1 X140.742 Y129.428 E421.86379
G1 X94.009 Y82.695 E426.80969
G1 X95.423 Y82.695 E426.9155
G1 X141.31 Y128.582 E431.77187
G1 X141.726 Y127.883 E431.83274
G1 X141.774 Y127.798 E431.84004
G1 X141.833 Y127.691 E431.84919
G1 X96.837 Y82.695 E436.61126
G1 X98.251 Y82.695 E436.71707
G1 X142.333 Y126.777 E441.38241
G1 X142.833 Y125.862 E441.46044
G1 X99.665 Y82.695 E446.02899
G1 X101.08 Y82.695 E446.13488
G1 X143.329 Y124.945 E450.60628
G1 X143.702 Y124.199 E450.66869
G1 X143.759 Y124.073 E450.67904
G1 X143.793 Y123.994 E450.68548
G1 X102.494 Y82.695 E455.05628
G1 X103.908 Y82.695 E455.1621
G1 X144.203 Y122.99 E459.42664
G1 X144.588 Y121.961 E459.50886
G1 X105.322 Y82.695 E463.6645
G1 X106.737 Y82.695 E463.77039
G1 X144.973 Y120.931 E467.81703
G1 X145.248 Y120.192 E467.87604
G1 X145.287 Y120.08 E467.88491
G1 X145.35 Y119.894 E467.89961
G1 X108.151 Y82.695 E471.83649
G1 X109.565 Y82.695 E471.94231
G1 X145.682 Y118.812 E475.76469
G1 X145.86 Y118.112 E475.81874
G1 X145.956 Y117.672 E475.85244
G1 X110.98 Y82.696 E479.55406
G1 X112.394 Y82.696 E479.65988
