;FLAVOR:Marlin
;TIME:2123
;Filament used: 0.899986m
;Layer height: 0.15
;MINX:78.018
;MINY:81.1
;MINZ:0.2
;MAXX:141.984
;MAXY:138.987
;MAXZ:4.4
;Generated with Cura_SteamEngine 4.9.0
M140 S60
M105
M190 S60
M104 S210
M105
M109 S210
M82 ;absolute extrusion mode
M201 X500.00 Y500.00 Z100.00 E5000.00 ;Setup machine max acceleration
M203 X500.00 Y500.00 Z10.00 E50.00 ;Setup machine max feedrate
M204 P500.00 R1000.00 T500.00 ;Setup Print/Retract/Travel acceleration
M205 X8.00 Y8.00 Z0.40 E5.00 ;Setup Jerk
M220 S100 ;Reset Feedrate
M221 S100 ;Reset Flowrate

G28 ;Home
G29 ;Auto Bed Leveling
M420 S1 Z2 ;Enable ABL using saved Mesh and Fade Height

G92 E0 ;Reset Extruder
G1 Z2.0 F3000 ;Move Z Axis up
G1 X10.1 Y20 Z0.28 F5000.0 ;Move to start position
G1 X10.1 Y200.0 Z0.28 F1500.0 E15 ;Draw the first line
G1 X10.4 Y200.0 Z0.28 F5000.0 ;Move to side a little
G1 X10.4 Y20 Z0.28 F1500.0 E30 ;Draw the second line
G92 E0 ;Reset Extruder
G1 Z2.0 F3000 ;Move Z Axis up
G92 E0
G92 E0
G1 F2700 E-5
;LAYER_COUNT:29
;LAYER:0
M107
G0 F6000 X86.881 Y84.897 Z0.2
;TYPE:SKIRT
G1 F2700 E0
G1 F600 X87.353 Y84.415 E0.02244
G1 X88.037 Y83.773 E0.05364
G1 X88.773 Y83.192 E0.08483
G1 X89.556 Y82.676 E0.11602
G1 X90.381 Y82.229 E0.14722
G1 X91.24 Y81.853 E0.17841
G1 X92.128 Y81.552 E0.2096
G1 X93.039 Y81.328 E0.2408
G1 X93.965 Y81.182 E0.27198
G1 X94.854 Y81.117 E0.30163
G1 X95.333 Y81.104 E0.31756
G1 X95.633 Y81.101 E0.32754
G1 X103.287 Y81.1 E0.58212
G1 X104.172 Y81.111 E0.61155
G1 X104.493 Y81.12 E0.62223
G1 X105.578 Y81.168 E0.65836
G1 X106.24 Y81.206 E0.68041
G1 X108.738 Y81.277 E0.76353
G1 X111.262 Y81.279 E0.84748
G1 X113.826 Y81.207 E0.93279
G1 X115.449 Y81.125 E0.98684
G1 X115.992 Y81.106 E1.00491
G1 X116.33 Y81.101 E1.01615
G1 X124.242 Y81.102 E1.27931
G1 X124.945 Y81.112 E1.30269
G1 X125.882 Y81.165 E1.33391
G1 X126.81 Y81.298 E1.36509
G1 X127.724 Y81.51 E1.39629
G1 X128.616 Y81.798 E1.42747
G1 X129.481 Y82.162 E1.45868
G1 X130.311 Y82.598 E1.48987
G1 X131.102 Y83.103 E1.52108
G1 X131.846 Y83.673 E1.55225
G1 X132.506 Y84.272 E1.5819
G1 X132.635 Y84.399 E1.58792
G1 X132.839 Y84.606 E1.59759
G1 X133.182 Y84.962 E1.61403
G1 X133.339 Y85.128 E1.62163
G1 X133.815 Y85.643 E1.64495
G1 X134.241 Y86.132 E1.66652
G1 X134.776 Y86.785 E1.6946
G1 X135.302 Y87.446 E1.7227
G1 X135.602 Y87.833 E1.73898
G1 X136.011 Y88.397 E1.76215
G1 X136.709 Y89.426 E1.80351
G1 X136.848 Y89.635 E1.81186
G1 X137.099 Y90.027 E1.82734
G1 X137.492 Y90.654 E1.85195
G1 X137.811 Y91.196 E1.87287
G1 X137.971 Y91.487 E1.88391
G1 X138.111 Y91.749 E1.89379
G1 X138.57 Y92.64 E1.92713
G1 X138.978 Y93.461 E1.95762
G1 X139.241 Y94.029 E1.97844
G1 X139.376 Y94.345 E1.98987
G1 X139.494 Y94.635 E2.00028
G1 X139.92 Y95.718 E2.03899
G1 X140.183 Y96.415 E2.06377
G1 X140.394 Y97.03 E2.08539
G1 X140.497 Y97.361 E2.09692
G1 X140.578 Y97.633 E2.10636
G1 X140.899 Y98.771 E2.14569
G1 X141.088 Y99.48 E2.1701
G1 X141.231 Y100.086 E2.1908
G1 X141.305 Y100.444 E2.20296
G1 X141.364 Y100.748 E2.21326
G1 X141.557 Y101.843 E2.25024
G1 X141.683 Y102.619 E2.27639
G1 X141.765 Y103.237 E2.29713
G1 X141.803 Y103.6 E2.30927
G1 X141.832 Y103.916 E2.31982
G1 X141.909 Y104.935 E2.35381
G1 X141.961 Y105.776 E2.38184
G1 X141.982 Y106.383 E2.40204
G1 X141.984 Y106.717 E2.41315
G1 X141.981 Y107.043 E2.42399
G1 X141.951 Y108.26 E2.46448
G1 X141.924 Y108.967 E2.48801
G1 X141.879 Y109.629 E2.51008
G1 X141.835 Y110.074 E2.52495
G1 X141.804 Y110.348 E2.53412
G1 X141.669 Y111.425 E2.57023
G1 X141.569 Y112.144 E2.59437
G1 X141.47 Y112.737 E2.61437
G1 X141.404 Y113.075 E2.62582
G1 X141.334 Y113.407 E2.63711
G1 X141.056 Y114.624 E2.67863
G1 X140.895 Y115.283 E2.70119
G1 X140.74 Y115.849 E2.72071
G1 X140.648 Y116.154 E2.7313
G1 X140.548 Y116.468 E2.74226
G1 X140.155 Y117.641 E2.78341
G1 X139.925 Y118.299 E2.80659
G1 X139.663 Y118.975 E2.83071
G1 X139.439 Y119.497 E2.8496
G1 X139.04 Y120.384 E2.88195
G1 X138.651 Y121.219 E2.91259
G1 X138.382 Y121.758 E2.93262
G1 X138.236 Y122.031 E2.94292
G1 X138.065 Y122.338 E2.95461
G1 X137.44 Y123.419 E2.99614
G1 X137.085 Y124.013 E3.01915
G1 X136.772 Y124.506 E3.03858
G1 X136.567 Y124.811 E3.0508
G1 X136.369 Y125.096 E3.06234
G1 X135.677 Y126.058 E3.10176
G1 X135.246 Y126.639 E3.12582
G1 X134.874 Y127.112 E3.14583
G1 X134.649 Y127.383 E3.15755
G1 X134.438 Y127.63 E3.16835
G1 X133.739 Y128.423 E3.20351
G1 X133.162 Y129.058 E3.23205
G1 X132.758 Y129.479 E3.25145
G1 X132.517 Y129.717 E3.26272
G1 X132.273 Y129.95 E3.27394
G1 X131.393 Y130.766 E3.31386
G1 X130.859 Y131.247 E3.33776
G1 X130.402 Y131.637 E3.35774
G1 X130.123 Y131.862 E3.36966
G1 X129.858 Y132.069 E3.38085
G1 X128.936 Y132.766 E3.41929
G1 X128.345 Y133.201 E3.4437
G1 X127.837 Y133.553 E3.46425
G1 X127.549 Y133.741 E3.47569
G1 X127.274 Y133.915 E3.48652
G1 X126.412 Y134.442 E3.52012
G1 X125.648 Y134.895 E3.54966
G1 X125.119 Y135.189 E3.56979
G1 X124.819 Y135.345 E3.58104
G1 X124.527 Y135.492 E3.59191
G1 X123.37 Y136.049 E3.63462
G1 X122.777 Y136.323 E3.65635
G1 X122.174 Y136.58 E3.67815
G1 X121.768 Y136.739 E3.69265
G1 X121.523 Y136.831 E3.70136
G1 X120.497 Y137.204 E3.73767
G1 X119.808 Y137.445 E3.76194
G1 X119.153 Y137.651 E3.78478
G1 X118.84 Y137.739 E3.79559
G1 X118.575 Y137.81 E3.80472
G1 X117.424 Y138.102 E3.84421
G1 X116.744 Y138.266 E3.86748
G1 X116.115 Y138.399 E3.88886
G1 X115.793 Y138.457 E3.89974
G1 X115.489 Y138.507 E3.90999
G1 X114.236 Y138.695 E3.95213
G1 X113.576 Y138.784 E3.97428
G1 X112.933 Y138.852 E3.99579
G1 X112.482 Y138.886 E4.01083
G1 X112.205 Y138.903 E4.02006
G1 X111.134 Y138.956 E4.05573
G1 X110.389 Y138.983 E4.08052
G1 X109.756 Y138.987 E4.10158
G1 X109.428 Y138.98 E4.11249
G1 X109.118 Y138.97 E4.1228
G1 X108.049 Y138.917 E4.1584
G1 X107.204 Y138.863 E4.18657
G1 X106.599 Y138.808 E4.20677
G1 X106.307 Y138.773 E4.21655
G1 X105.986 Y138.73 E4.22732
G1 X104.945 Y138.574 E4.26233
G1 X104.025 Y138.422 E4.29335
G1 X103.417 Y138.303 E4.31395
G1 X103.07 Y138.225 E4.32578
G1 X102.761 Y138.151 E4.33635
G1 X101.589 Y137.851 E4.37659
G1 X100.962 Y137.682 E4.39819
G1 X100.356 Y137.5 E4.41923
G1 X100.034 Y137.393 E4.43052
G1 X99.752 Y137.295 E4.44045
G1 X98.626 Y136.885 E4.4803
G1 X97.919 Y136.616 E4.50546
G1 X97.348 Y136.38 E4.52601
G1 X97.05 Y136.247 E4.53687
G1 X96.755 Y136.11 E4.54769
G1 X95.666 Y135.584 E4.58791
G1 X95.035 Y135.269 E4.61137
G1 X94.465 Y134.963 E4.63288
G1 X94.185 Y134.802 E4.64363
G1 X93.929 Y134.651 E4.65351
G1 X93.041 Y134.108 E4.68813
G1 X92.296 Y133.638 E4.71743
G1 X91.775 Y133.289 E4.73829
G1 X91.527 Y133.112 E4.74842
G1 X91.278 Y132.929 E4.7587
G1 X90.275 Y132.168 E4.80057
G1 X89.73 Y131.742 E4.82358
G1 X89.273 Y131.364 E4.84331
G1 X89.03 Y131.152 E4.85403
G1 X88.781 Y130.929 E4.86515
G1 X88.01 Y130.214 E4.90012
G1 X87.354 Y129.587 E4.9303
G1 X86.925 Y129.154 E4.95058
G1 X86.693 Y128.906 E4.96187
G1 X86.471 Y128.661 E4.97287
G1 X85.677 Y127.758 E5.01286
G1 X85.219 Y127.222 E5.03631
G1 X84.852 Y126.769 E5.0557
G1 X84.645 Y126.499 E5.06702
G1 X84.441 Y126.223 E5.07843
G1 X83.724 Y125.224 E5.11933
G1 X83.335 Y124.666 E5.14196
G1 X82.977 Y124.118 E5.16373
G1 X82.786 Y123.806 E5.17589
G1 X82.64 Y123.56 E5.18541
G1 X82.056 Y122.545 E5.22436
G1 X81.704 Y121.914 E5.24839
G1 X81.408 Y121.346 E5.26969
G1 X81.206 Y120.925 E5.28522
G1 X81.087 Y120.666 E5.2947
G1 X80.641 Y119.669 E5.33103
G1 X80.352 Y119 E5.35527
G1 X80.138 Y118.467 E5.37437
G1 X80.037 Y118.195 E5.38402
G1 X79.92 Y117.865 E5.39567
G1 X79.511 Y116.641 E5.43859
G1 X79.31 Y116.01 E5.46062
G1 X79.139 Y115.416 E5.48118
G1 X79.047 Y115.059 E5.49344
G1 X78.973 Y114.753 E5.50391
G1 X78.713 Y113.605 E5.54306
G1 X78.572 Y112.945 E5.56551
G1 X78.459 Y112.331 E5.58627
G1 X78.402 Y111.963 E5.59866
G1 X78.355 Y111.63 E5.60984
G1 X78.208 Y110.431 E5.65002
G1 X78.132 Y109.735 E5.67331
G1 X78.083 Y109.129 E5.69353
G1 X78.067 Y108.83 E5.70349
G1 X78.054 Y108.518 E5.71387
G1 X78.025 Y107.309 E5.75409
G1 X78.018 Y106.56 E5.77901
G1 X78.029 Y105.974 E5.7985
G1 X78.044 Y105.633 E5.80985
G1 X78.065 Y105.283 E5.82152
G1 X78.157 Y104.086 E5.86145
G1 X78.222 Y103.367 E5.88546
G1 X78.293 Y102.762 E5.90572
G1 X78.338 Y102.455 E5.91604
G1 X78.392 Y102.124 E5.92719
G1 X78.6 Y100.96 E5.96652
G1 X78.733 Y100.259 E5.99025
G1 X78.886 Y99.57 E6.01373
G1 X78.977 Y99.216 E6.02588
G1 X79.043 Y98.972 E6.03429
G1 X79.316 Y98.003 E6.06777
G1 X79.579 Y97.12 E6.09842
G1 X79.783 Y96.503 E6.12003
G1 X79.904 Y96.171 E6.13178
G1 X80.006 Y95.903 E6.14132
G1 X80.455 Y94.768 E6.18192
G1 X80.706 Y94.158 E6.20386
G1 X80.956 Y93.594 E6.22438
G1 X81.091 Y93.312 E6.23478
G1 X81.225 Y93.042 E6.2448
G1 X81.721 Y92.075 E6.28095
G1 X82.117 Y91.329 E6.30904
G1 X82.442 Y90.759 E6.33086
G1 X82.638 Y90.438 E6.34337
G1 X82.792 Y90.192 E6.35303
G1 X83.441 Y89.192 E6.39268
G1 X83.818 Y88.628 E6.41524
G1 X84.156 Y88.15 E6.43471
G1 X84.394 Y87.832 E6.44792
G1 X84.611 Y87.551 E6.45973
G1 X85.263 Y86.736 E6.49444
G1 X85.803 Y86.083 E6.52263
G1 X86.183 Y85.647 E6.54186
G1 X86.647 Y85.143 E6.56465
G1 X86.881 Y84.897 E6.57594
G0 F6000 X87.167 Y85.177
G1 F600 X87.639 Y84.695 E6.59838
G1 X88.311 Y84.065 E6.62902
G1 X89.035 Y83.497 E6.65962
G1 X89.806 Y82.993 E6.69026
G1 X90.617 Y82.559 E6.72085
G1 X91.463 Y82.196 E6.75147
G1 X92.338 Y81.908 E6.78211
G1 X93.234 Y81.697 E6.81273
G1 X94.145 Y81.565 E6.84334
G1 X94.867 Y81.517 E6.86741
G1 X95.338 Y81.504 E6.88308
G1 X95.633 Y81.501 E6.89289
G1 X103.287 Y81.5 E7.14747
G1 X104.166 Y81.511 E7.1767
G1 X104.476 Y81.52 E7.18702
G1 X105.555 Y81.567 E7.22294
G1 X106.206 Y81.604 E7.24463
G1 X108.761 Y81.677 E7.32964
G1 X111.273 Y81.679 E7.41319
G1 X113.857 Y81.607 E7.49917
G1 X115.469 Y81.525 E7.55285
G1 X115.679 Y81.516 E7.55985
G1 X116.004 Y81.506 E7.57066
G1 X116.33 Y81.501 E7.5815
G1 X124.237 Y81.502 E7.84449
G1 X124.94 Y81.512 E7.86788
G1 X125.859 Y81.565 E7.89849
G1 X126.77 Y81.698 E7.92911
G1 X127.666 Y81.909 E7.95973
G1 X128.54 Y82.197 E7.99034
G1 X129.387 Y82.56 E8.02099
G1 X130.198 Y82.995 E8.0516
G1 X130.969 Y83.499 E8.08223
G1 X131.693 Y84.067 E8.11284
G1 X132.226 Y84.557 E8.13692
G1 X132.355 Y84.684 E8.14294
G1 X132.551 Y84.883 E8.15223
G1 X132.894 Y85.239 E8.16867
G1 X133.045 Y85.399 E8.17599
G1 X133.521 Y85.914 E8.19932
G1 X133.932 Y86.386 E8.22013
G1 X134.463 Y87.035 E8.24802
G1 X134.986 Y87.691 E8.27593
G1 X135.286 Y88.078 E8.29221
G1 X135.68 Y88.622 E8.31455
G1 X136.378 Y89.651 E8.35591
G1 X136.512 Y89.852 E8.36394
G1 X136.761 Y90.239 E8.37925
G1 X137.154 Y90.866 E8.40386
G1 X137.461 Y91.389 E8.42403
G1 X137.621 Y91.68 E8.43508
G1 X137.755 Y91.933 E8.4446
G1 X138.286 Y92.966 E8.48323
G1 X138.62 Y93.639 E8.50822
G1 X138.873 Y94.187 E8.52829
G1 X139.008 Y94.503 E8.53972
G1 X139.122 Y94.781 E8.54972
G1 X139.545 Y95.859 E8.58823
G1 X139.808 Y96.556 E8.61301
G1 X140.012 Y97.148 E8.63384
G1 X140.115 Y97.479 E8.64537
G1 X140.193 Y97.742 E8.65449
G1 X140.512 Y98.874 E8.69361
G1 X140.701 Y99.583 E8.71801
G1 X140.84 Y100.167 E8.73798
G1 X140.914 Y100.525 E8.75014
G1 X140.97 Y100.818 E8.76006
G1 X141.162 Y101.907 E8.79684
G1 X141.288 Y102.683 E8.82299
G1 X141.367 Y103.278 E8.84295
G1 X141.405 Y103.641 E8.85509
G1 X141.433 Y103.946 E8.86528
G1 X141.52 Y105.115 E8.90426
G1 X141.562 Y105.8 E8.92709
G1 X141.582 Y106.386 E8.94659
G1 X141.584 Y106.72 E8.9577
G1 X141.581 Y107.034 E8.96815
G1 X141.551 Y108.245 E9.00844
G1 X141.524 Y108.952 E9.03197
G1 X141.481 Y109.59 E9.05324
G1 X141.437 Y110.035 E9.06811
G1 X141.407 Y110.298 E9.07691
G1 X141.273 Y111.37 E9.11285
G1 X141.173 Y112.089 E9.13699
G1 X141.078 Y112.66 E9.15624
G1 X141.012 Y112.998 E9.1677
G1 X140.944 Y113.319 E9.17861
G1 X140.706 Y114.365 E9.21429
G1 X140.506 Y115.188 E9.24246
G1 X140.357 Y115.733 E9.26125
G1 X140.265 Y116.038 E9.27185
G1 X140.169 Y116.341 E9.28242
G1 X139.777 Y117.509 E9.3234
G1 X139.547 Y118.167 E9.34658
G1 X139.295 Y118.818 E9.3698
G1 X139.074 Y119.333 E9.38844
G1 X138.615 Y120.351 E9.42558
G1 X138.289 Y121.05 E9.45123
G1 X138.029 Y121.569 E9.47054
G1 X137.883 Y121.842 E9.48084
G1 X137.719 Y122.138 E9.49209
G1 X137.097 Y123.214 E9.53343
G1 X136.742 Y123.808 E9.55644
G1 X136.44 Y124.283 E9.57517
G1 X136.235 Y124.588 E9.58739
G1 X136.045 Y124.863 E9.59851
G1 X135.449 Y125.692 E9.63246
G1 X134.924 Y126.4 E9.66178
G1 X134.566 Y126.856 E9.68106
G1 X134.341 Y127.127 E9.69278
G1 X134.138 Y127.365 E9.70318
G1 X133.325 Y128.286 E9.74404
G1 X132.867 Y128.789 E9.76667
G1 X132.477 Y129.194 E9.78537
G1 X132.236 Y129.432 E9.79663
G1 X132.001 Y129.657 E9.80745
G1 X131.125 Y130.469 E9.84718
G1 X130.591 Y130.95 E9.87109
G1 X130.151 Y131.325 E9.89031
G1 X129.872 Y131.55 E9.90224
G1 X129.617 Y131.75 E9.91301
G1 X128.698 Y132.444 E9.95132
G1 X128.107 Y132.879 E9.97572
G1 X127.618 Y133.218 E9.99551
G1 X127.33 Y133.406 E10.00695
G1 X127.065 Y133.574 E10.01739
G1 X126.074 Y134.178 E10.05599
G1 X125.444 Y134.551 E10.08034
G1 X124.934 Y134.834 E10.09974
G1 X124.634 Y134.99 E10.11099
G1 X124.353 Y135.132 E10.12146
G1 X123.365 Y135.609 E10.15795
G1 X122.609 Y135.959 E10.18566
G1 X122.028 Y136.207 E10.20667
G1 X121.622 Y136.366 E10.22117
G1 X121.386 Y136.456 E10.22957
G1 X120.365 Y136.827 E10.2657
G1 X119.676 Y137.068 E10.28998
G1 X119.045 Y137.266 E10.31198
G1 X118.732 Y137.354 E10.32279
G1 X118.477 Y137.423 E10.33158
G1 X117.33 Y137.714 E10.37093
G1 X116.65 Y137.878 E10.3942
G1 X116.044 Y138.005 E10.41479
G1 X115.722 Y138.063 E10.42568
G1 X115.429 Y138.112 E10.43556
G1 X114.183 Y138.299 E10.47746
G1 X113.523 Y138.388 E10.49961
G1 X112.903 Y138.453 E10.52035
G1 X112.452 Y138.487 E10.53539
G1 X112.185 Y138.504 E10.54429
G1 X111.12 Y138.556 E10.57975
G1 X110.375 Y138.583 E10.60455
G1 X109.765 Y138.588 E10.62484
G1 X109.437 Y138.581 E10.63575
G1 X109.138 Y138.57 E10.6457
G1 X107.916 Y138.508 E10.6864
G1 X107.23 Y138.464 E10.70926
G1 X106.646 Y138.411 E10.72876
G1 X106.354 Y138.376 E10.73855
G1 X106.045 Y138.334 E10.74892
G1 X104.837 Y138.152 E10.78955
G1 X104.091 Y138.028 E10.8147
G1 X103.504 Y137.913 E10.8346
G1 X103.157 Y137.835 E10.84643
G1 X102.86 Y137.763 E10.85659
G1 X101.693 Y137.465 E10.89665
G1 X101.066 Y137.296 E10.91825
G1 X100.482 Y137.12 E10.93854
G1 X100.16 Y137.013 E10.94982
G1 X99.889 Y136.919 E10.95936
G1 X98.924 Y136.569 E10.9935
G1 X98.062 Y136.242 E11.02417
G1 X97.511 Y136.015 E11.04399
G1 X97.213 Y135.882 E11.05484
G1 X96.929 Y135.75 E11.06526
G1 X95.845 Y135.226 E11.1053
G1 X95.214 Y134.911 E11.12876
G1 X94.664 Y134.616 E11.14952
G1 X94.384 Y134.455 E11.16026
G1 X94.138 Y134.309 E11.16978
G1 X93.124 Y133.688 E11.20932
G1 X92.509 Y133.3 E11.23351
G1 X92.007 Y132.963 E11.25362
G1 X91.759 Y132.786 E11.26375
G1 X91.52 Y132.61 E11.27362
G1 X90.521 Y131.852 E11.31533
G1 X89.976 Y131.426 E11.33834
G1 X89.535 Y131.062 E11.35736
G1 X89.292 Y130.85 E11.36809
G1 X89.053 Y130.635 E11.37878
G1 X88.162 Y129.807 E11.41923
G1 X87.63 Y129.298 E11.44372
G1 X87.217 Y128.88 E11.46327
G1 X86.985 Y128.632 E11.47456
G1 X86.771 Y128.396 E11.48516
G1 X85.981 Y127.498 E11.52494
G1 X85.523 Y126.962 E11.54839
G1 X85.17 Y126.525 E11.56707
G1 X84.963 Y126.255 E11.57839
G1 X84.765 Y125.989 E11.58942
G1 X84.052 Y124.995 E11.6301
G1 X83.663 Y124.437 E11.65273
G1 X83.319 Y123.909 E11.67369
G1 X83.128 Y123.597 E11.68585
G1 X82.987 Y123.36 E11.69503
G1 X82.405 Y122.35 E11.7338
G1 X82.053 Y121.719 E11.75783
G1 X81.768 Y121.172 E11.77834
G1 X81.569 Y120.757 E11.79365
G1 X81.452 Y120.502 E11.80298
G1 X81.008 Y119.511 E11.8391
G1 X80.719 Y118.842 E11.86334
G1 X80.513 Y118.328 E11.88176
G1 X80.412 Y118.056 E11.89141
G1 X80.3 Y117.738 E11.90262
G1 X79.892 Y116.519 E11.94537
G1 X79.691 Y115.888 E11.9674
G1 X79.526 Y115.316 E11.9872
G1 X79.434 Y114.959 E11.99946
G1 X79.363 Y114.665 E12.00952
G1 X79.104 Y113.522 E12.0485
G1 X78.963 Y112.862 E12.07095
G1 X78.854 Y112.27 E12.09097
G1 X78.797 Y111.902 E12.10336
G1 X78.752 Y111.581 E12.11414
G1 X78.623 Y110.539 E12.14906
G1 X78.53 Y109.692 E12.1774
G1 X78.482 Y109.107 E12.19692
G1 X78.466 Y108.808 E12.20688
G1 X78.454 Y108.508 E12.21687
G1 X78.425 Y107.305 E12.25689
G1 X78.418 Y106.556 E12.2818
G1 X78.428 Y105.991 E12.3006
G1 X78.443 Y105.65 E12.31195
G1 X78.463 Y105.313 E12.32318
G1 X78.555 Y104.122 E12.36291
G1 X78.62 Y103.403 E12.38692
G1 X78.689 Y102.82 E12.40645
