;FLAVOR:Marlin
;TIME:4104
;Filament used: 1.98243m
;Layer height: 0.15
;MINX:81.5
;MINY:65
;MINZ:0.2
;MAXX:138.5
;MAXY:155
;MAXZ:3.95
;Generated with Cura_SteamEngine 4.11.0
M140 S60
M105
M190 S60
M104 S210
M105
M109 S210
M82 ;absolute extrusion mode
M201 X500.00 Y500.00 Z100.00 E5000.00 ;Setup machine max acceleration
M203 X500.00 Y500.00 Z10.00 E50.00 ;Setup machine max feedrate
M204 P500.00 R1000.00 T500.00 ;Setup Print/Retract/Travel acceleration
M205 X8.00 Y8.00 Z0.40 E5.00 ;Setup Jerk
M220 S100 ;Reset Feedrate
M221 S100 ;Reset Flowrate

G28 ;Home
G29 ;Auto Bed Leveling
M420 S1 Z2 ;Enable ABL using saved Mesh and Fade Height

G92 E0 ;Reset Extruder
G1 Z2.0 F3000 ;Move Z Axis up
G1 X10.1 Y20 Z0.28 F5000.0 ;Move to start position
G1 X10.1 Y200.0 Z0.28 F1500.0 E15 ;Draw the first line
G1 X10.4 Y200.0 Z0.28 F5000.0 ;Move to side a little
G1 X10.4 Y20 Z0.28 F1500.0 E30 ;Draw the second line
G92 E0 ;Reset Extruder
G1 Z2.0 F3000 ;Move Z Axis up
G92 E0
G92 E0
G1 F2700 E-5
;LAYER_COUNT:26
;LAYER:0
M107
G0 F6000 X84.066 Y68.958 Z0.2
;TYPE:SKIRT
G1 F2700 E0
G1 F600 X84.698 Y68.264 E0.03122
G1 X85.386 Y67.627 E0.0624
G1 X86.126 Y67.051 E0.09359
G1 X86.912 Y66.539 E0.12479
G1 X87.739 Y66.097 E0.15598
G1 X88.601 Y65.727 E0.18718
G1 X89.491 Y65.431 E0.21838
G1 X90.403 Y65.213 E0.24957
G1 X91.33 Y65.072 E0.28075
G1 X92.201 Y65.013 E0.30979
G1 X92.522 Y65.004 E0.32047
G1 X92.83 Y65 E0.33071
G1 X126.793 Y65 E1.46033
G1 X127.649 Y65.011 E1.4888
G1 X128.585 Y65.065 E1.51998
G1 X129.513 Y65.197 E1.55116
G1 X130.427 Y65.409 E1.58237
G1 X131.319 Y65.698 E1.61355
G1 X132.184 Y66.061 E1.64475
G1 X133.014 Y66.497 E1.67594
G1 X133.805 Y67.002 E1.70715
G1 X134.549 Y67.573 E1.73834
G1 X135.242 Y68.205 E1.76954
G1 X135.879 Y68.893 E1.80072
G1 X136.454 Y69.634 E1.83192
G1 X136.965 Y70.42 E1.8631
G1 X137.407 Y71.248 E1.89432
G1 X137.776 Y72.11 E1.92551
G1 X138.071 Y73 E1.95669
G1 X138.289 Y73.912 E1.98788
G1 X138.429 Y74.84 E2.01909
G1 X138.487 Y75.701 E2.04779
G1 X138.496 Y76.021 E2.05844
G1 X138.5 Y76.33 E2.06872
G1 X138.499 Y143.4 E4.29948
G1 X138.49 Y144.127 E4.32366
G1 X138.439 Y145.064 E4.35487
G1 X138.307 Y145.992 E4.38605
G1 X138.098 Y146.906 E4.41723
G1 X137.811 Y147.799 E4.44843
G1 X137.449 Y148.665 E4.47965
G1 X137.015 Y149.496 E4.51083
G1 X136.511 Y150.287 E4.54202
G1 X135.942 Y151.032 E4.5732
G1 X135.311 Y151.727 E4.60442
G1 X134.624 Y152.365 E4.63561
G1 X133.885 Y152.942 E4.66679
G1 X133.099 Y153.454 E4.69799
G1 X132.273 Y153.897 E4.72917
G1 X131.411 Y154.269 E4.76039
G1 X130.522 Y154.565 E4.79156
G1 X129.61 Y154.785 E4.82276
G1 X128.683 Y154.926 E4.85395
G1 X127.799 Y154.987 E4.88342
G1 X127.478 Y154.996 E4.8941
G1 X127.17 Y155 E4.90434
G1 X93.065 Y154.999 E6.03868
G1 X92.367 Y154.99 E6.0619
G1 X91.431 Y154.938 E6.09308
G1 X90.502 Y154.806 E6.12429
G1 X89.588 Y154.596 E6.15548
G1 X88.695 Y154.309 E6.18668
G1 X87.83 Y153.946 E6.21788
G1 X86.999 Y153.512 E6.24906
G1 X86.208 Y153.008 E6.28025
G1 X85.463 Y152.438 E6.31145
G1 X84.769 Y151.807 E6.34265
G1 X84.132 Y151.12 E6.37381
G1 X83.555 Y150.38 E6.40502
G1 X83.043 Y149.594 E6.43622
G1 X82.6 Y148.767 E6.46743
G1 X82.229 Y147.906 E6.49861
G1 X81.933 Y147.016 E6.5298
G1 X81.714 Y146.104 E6.561
G1 X81.573 Y145.177 E6.59219
G1 X81.513 Y144.288 E6.62182
G1 X81.504 Y143.955 E6.6329
G1 X81.5 Y143.658 E6.64278
G1 X81.501 Y76.525 E8.87563
G1 X81.51 Y75.86 E8.89775
G1 X81.563 Y74.924 E8.92893
G1 X81.695 Y73.995 E8.96014
G1 X81.906 Y73.081 E8.99134
G1 X82.194 Y72.189 E9.02252
G1 X82.557 Y71.324 E9.05372
G1 X82.992 Y70.493 E9.08492
G1 X83.496 Y69.703 E9.11608
G1 X84.066 Y68.958 E9.14728
G0 F6000 X84.461 Y69.111
G1 F600 X85.089 Y68.439 E9.17787
G1 X85.774 Y67.823 E9.20852
G1 X86.51 Y67.27 E9.23913
G1 X87.291 Y66.782 E9.26976
G1 X88.111 Y66.364 E9.30038
G1 X88.965 Y66.019 E9.33101
G1 X89.845 Y65.749 E9.36163
G1 X90.745 Y65.557 E9.39223
G1 X91.659 Y65.443 E9.42287
G1 X92.212 Y65.413 E9.44129
G1 X92.533 Y65.404 E9.45197
G1 X92.83 Y65.4 E9.46185
G1 X126.793 Y65.4 E10.59146
G1 X127.643 Y65.411 E10.61974
G1 X128.562 Y65.464 E10.65035
G1 X129.473 Y65.597 E10.68098
G1 X130.369 Y65.808 E10.71159
G1 X131.243 Y66.096 E10.7422
G1 X132.09 Y66.459 E10.77285
G1 X132.901 Y66.894 E10.80346
G1 X133.671 Y67.398 E10.83407
G1 X134.395 Y67.967 E10.86469
G1 X135.067 Y68.597 E10.89533
G1 X135.682 Y69.282 E10.92595
G1 X136.235 Y70.018 E10.95657
G1 X136.722 Y70.799 E10.98718
G1 X137.139 Y71.62 E11.01781
G1 X137.484 Y72.474 E11.04844
G1 X137.753 Y73.354 E11.07905
G1 X137.945 Y74.255 E11.10969
G1 X138.058 Y75.168 E11.14029
G1 X138.087 Y75.712 E11.1584
G1 X138.096 Y76.032 E11.16905
G1 X138.1 Y76.33 E11.17896
G1 X138.099 Y143.395 E13.40956
G1 X138.09 Y144.122 E13.43374
G1 X138.039 Y145.041 E13.46435
G1 X137.908 Y145.953 E13.495
G1 X137.698 Y146.849 E13.5256
G1 X137.412 Y147.724 E13.55622
G1 X137.051 Y148.571 E13.58684
G1 X136.617 Y149.383 E13.61747
G1 X136.115 Y150.155 E13.6481
G1 X135.547 Y150.88 E13.67873
G1 X134.919 Y151.553 E13.70934
G1 X134.235 Y152.169 E13.73996
G1 X133.5 Y152.723 E13.77057
G1 X132.72 Y153.212 E13.80119
G1 X131.9 Y153.631 E13.83182
G1 X131.047 Y153.977 E13.86244
G1 X130.167 Y154.248 E13.89306
G1 X129.267 Y154.441 E13.92368
G1 X128.353 Y154.556 E13.95432
G1 X127.788 Y154.587 E13.97314
G1 X127.467 Y154.596 E13.98382
G1 X127.17 Y154.6 E13.9937
G1 X93.07 Y154.599 E15.12787
G1 X92.372 Y154.59 E15.15108
G1 X91.453 Y154.538 E15.1817
G1 X90.542 Y154.407 E15.21231
G1 X89.646 Y154.197 E15.24292
G1 X88.771 Y153.91 E15.27355
G1 X87.924 Y153.548 E15.30418
G1 X87.112 Y153.114 E15.33481
G1 X86.341 Y152.612 E15.36541
G1 X85.616 Y152.044 E15.39604
G1 X84.943 Y151.415 E15.42668
G1 X84.328 Y150.731 E15.45727
G1 X83.774 Y149.996 E15.48788
G1 X83.286 Y149.215 E15.51851
G1 X82.867 Y148.395 E15.54914
G1 X82.521 Y147.542 E15.57976
G1 X82.251 Y146.662 E15.61037
G1 X82.058 Y145.761 E15.64102
G1 X81.944 Y144.848 E15.67162
G1 X81.913 Y144.277 E15.69064
G1 X81.904 Y143.944 E15.70172
G1 X81.9 Y143.658 E15.71124
G1 X81.901 Y76.531 E17.94389
G1 X81.91 Y75.866 E17.96601
G1 X81.962 Y74.946 E17.99666
G1 X82.094 Y74.035 E18.02727
G1 X82.305 Y73.139 E18.05789
G1 X82.592 Y72.264 E18.08852
G1 X82.955 Y71.418 E18.11914
G1 X83.389 Y70.606 E18.14976
G1 X83.892 Y69.835 E18.18038
G1 X84.461 Y69.111 E18.211
G0 F6000 X84.855 Y69.267
G1 F600 X85.481 Y68.617 E18.24102
G1 X86.162 Y68.024 E18.27105
G1 X86.894 Y67.494 E18.30111
G1 X87.669 Y67.031 E18.33114
G1 X88.482 Y66.638 E18.36117
G1 X89.327 Y66.318 E18.39122
G1 X90.196 Y66.075 E18.42124
G1 X91.084 Y65.909 E18.45128
G1 X92.223 Y65.813 E18.4893
G1 X92.544 Y65.804 E18.49998
G1 X92.83 Y65.8 E18.50949
G1 X126.793 Y65.8 E19.63911
G1 X127.637 Y65.811 E19.66718
G1 X128.539 Y65.864 E19.69723
G1 X129.432 Y65.996 E19.72726
G1 X130.31 Y66.207 E19.75729
G1 X131.166 Y66.495 E19.78733
G1 X131.993 Y66.857 E19.81736
G1 X132.785 Y67.292 E19.84741
G1 X133.536 Y67.794 E19.87746
G1 X134.239 Y68.361 E19.9075
G1 X134.889 Y68.988 E19.93753
G1 X135.481 Y69.67 E19.96757
G1 X136.011 Y70.401 E19.9976
G1 X136.473 Y71.177 E20.02764
G1 X136.866 Y71.99 E20.05767
G1 X137.184 Y72.835 E20.0877
G1 X137.427 Y73.705 E20.11775
G1 X137.592 Y74.593 E20.14779
G1 X137.687 Y75.723 E20.1855
G1 X137.696 Y76.043 E20.19615
G1 X137.7 Y76.33 E20.2057
G1 X137.699 Y143.39 E22.43612
G1 X137.69 Y144.117 E22.4603
G1 X137.639 Y145.019 E22.49035
G1 X137.508 Y145.913 E22.5204
G1 X137.299 Y146.791 E22.55042
G1 X137.013 Y147.648 E22.58047
G1 X136.652 Y148.476 E22.61052
G1 X136.22 Y149.268 E22.64052
G1 X135.719 Y150.02 E22.67058
G1 X135.153 Y150.724 E22.70062
G1 X134.528 Y151.375 E22.73064
G1 X133.847 Y151.969 E22.76069
G1 X133.116 Y152.5 E22.79074
G1 X132.342 Y152.964 E22.82076
G1 X131.529 Y153.358 E22.85081
G1 X130.685 Y153.678 E22.88083
G1 X129.815 Y153.923 E22.91089
G1 X128.928 Y154.089 E22.9409
G1 X127.777 Y154.187 E22.97932
G1 X127.456 Y154.196 E22.99
G1 X127.17 Y154.2 E22.99952
G1 X93.075 Y154.199 E24.13352
G1 X92.377 Y154.19 E24.15674
G1 X91.476 Y154.139 E24.18675
G1 X90.582 Y154.007 E24.21681
G1 X89.704 Y153.798 E24.24683
G1 X88.847 Y153.511 E24.27689
G1 X88.02 Y153.15 E24.3069
G1 X87.227 Y152.717 E24.33695
G1 X86.476 Y152.216 E24.36698
G1 X85.772 Y151.65 E24.39702
G1 X85.121 Y151.024 E24.42706
G1 X84.528 Y150.343 E24.4571
G1 X83.998 Y149.612 E24.48713
G1 X83.534 Y148.837 E24.51717
G1 X83.14 Y148.024 E24.54722
G1 X82.82 Y147.18 E24.57724
G1 X82.576 Y146.31 E24.60729
G1 X82.41 Y145.422 E24.63734
G1 X82.313 Y144.267 E24.67589
G1 X82.304 Y143.934 E24.68697
G1 X82.3 Y143.658 E24.69615
G1 X82.301 Y76.536 E26.92864
G1 X82.31 Y75.871 E26.95076
G1 X82.362 Y74.969 E26.98081
G1 X82.494 Y74.076 E27.01083
G1 X82.704 Y73.198 E27.04086
G1 X82.991 Y72.341 E27.07092
G1 X83.353 Y71.514 E27.10094
G1 X83.786 Y70.722 E27.13097
G1 X84.288 Y69.971 E27.16101
G1 X84.855 Y69.267 E27.19108
G1 F2700 E22.19108
;MESH:Wakeup_Transmitter_Lid.stl
G0 F6000 X121.596 Y81.227
G0 X120.173 Y81.573
G0 X121.224 Y82.57
G0 X122.234 Y83.188
;TYPE:WALL-INNER
G1 F2700 E27.19108
G1 F600 X122.766 Y83.188 E27.20877
G1 X123.281 Y83.061 E27.22641
G1 X123.751 Y82.815 E27.24406
G1 X124.151 Y82.462 E27.2618
G1 X124.452 Y82.025 E27.27945
G1 X124.641 Y81.527 E27.29717
G1 X124.704 Y81 E27.31482
G1 X124.641 Y80.473 E27.33247
G1 X124.452 Y79.975 E27.35019
G1 X124.151 Y79.538 E27.36784
G1 X123.751 Y79.185 E27.38558
G1 X123.281 Y78.939 E27.40323
G1 X122.766 Y78.812 E27.42087
G1 X122.234 Y78.812 E27.43856
G1 X121.719 Y78.939 E27.4562
G1 X121.249 Y79.185 E27.47385
G1 X120.849 Y79.538 E27.49159
G1 X120.548 Y79.975 E27.50924
G1 X120.359 Y80.473 E27.52696
G1 X120.296 Y81 E27.54461
G1 X120.359 Y81.527 E27.56226
G1 X120.548 Y82.025 E27.57998
G1 X120.849 Y82.462 E27.59763
G1 X121.249 Y82.815 E27.61537
G1 X121.719 Y83.061 E27.63302
G1 X122.234 Y83.188 E27.65066
G0 F6000 X122.283 Y82.788
;TYPE:WALL-OUTER
G1 F600 X122.717 Y82.788 E27.66509
G1 X123.138 Y82.684 E27.67952
G1 X123.523 Y82.483 E27.69396
G1 X123.849 Y82.195 E27.70843
G1 X124.095 Y81.838 E27.72285
G1 X124.25 Y81.431 E27.73733
G1 X124.301 Y81 E27.75177
G1 X124.25 Y80.569 E27.7662
G1 X124.095 Y80.162 E27.78069
G1 X123.849 Y79.805 E27.79511
G1 X123.523 Y79.517 E27.80958
G1 X123.138 Y79.316 E27.82402
G1 X122.717 Y79.212 E27.83845
G1 X122.283 Y79.212 E27.85288
G1 X121.862 Y79.316 E27.86731
G1 X121.477 Y79.517 E27.88175
G1 X121.151 Y79.805 E27.89622
G1 X120.905 Y80.162 E27.91064
G1 X120.75 Y80.569 E27.92512
G1 X120.699 Y81 E27.93956
G1 X120.75 Y81.431 E27.95399
G1 X120.905 Y81.838 E27.96848
G1 X121.151 Y82.195 E27.9829
G1 X121.477 Y82.483 E27.99737
G1 X121.862 Y82.684 E28.01181
G1 X122.283 Y82.788 E28.02624
G0 F6000 X122.23 Y83.224
G1 F2700 E23.02624
G0 F6000 X121.14 Y82.973
G0 X121.969 Y81.765
G0 X98.325 Y81.434
G0 X99.622 Y82.114
G0 X97.766 Y83.188
;TYPE:WALL-INNER
G1 F2700 E28.02624
G1 F600 X98.281 Y83.061 E28.04388
G1 X98.751 Y82.815 E28.06152
G1 X99.151 Y82.462 E28.07927
G1 X99.452 Y82.025 E28.09691
G1 X99.641 Y81.527 E28.11463
G1 X99.704 Y81 E28.13228
G1 X99.641 Y80.473 E28.14994
G1 X99.452 Y79.975 E28.16765
G1 X99.151 Y79.538 E28.1853
G1 X98.751 Y79.185 E28.20305
G1 X98.281 Y78.939 E28.22069
G1 X97.766 Y78.812 E28.23833
G1 X97.234 Y78.812 E28.25603
G1 X96.719 Y78.939 E28.27367
G1 X96.249 Y79.185 E28.29131
G1 X95.849 Y79.538 E28.30906
G1 X95.548 Y79.975 E28.32671
G1 X95.359 Y80.473 E28.34442
G1 X95.296 Y81 E28.36207
G1 X95.359 Y81.527 E28.37973
G1 X95.548 Y82.025 E28.39744
G1 X95.849 Y82.462 E28.41509
G1 X96.249 Y82.815 E28.43284
G1 X96.719 Y83.061 E28.45048
G1 X97.234 Y83.188 E28.46812
G1 X97.766 Y83.188 E28.48582
G0 F6000 X97.717 Y82.788
;TYPE:WALL-OUTER
G1 F600 X98.138 Y82.684 E28.50024
G1 X98.523 Y82.483 E28.51469
G1 X98.849 Y82.195 E28.52915
G1 X99.095 Y81.838 E28.54357
G1 X99.25 Y81.431 E28.55806
G1 X99.301 Y81 E28.57249
G1 X99.25 Y80.569 E28.58693
G1 X99.095 Y80.162 E28.60141
G1 X98.849 Y79.805 E28.61583
G1 X98.523 Y79.517 E28.6303
G1 X98.138 Y79.316 E28.64475
G1 X97.717 Y79.212 E28.65917
G1 X97.283 Y79.212 E28.67361
G1 X96.862 Y79.316 E28.68803
G1 X96.477 Y79.517 E28.70247
G1 X96.151 Y79.805 E28.71694
G1 X95.905 Y80.162 E28.73136
G1 X95.75 Y80.569 E28.74585
G1 X95.699 Y81 E28.76028
G1 X95.75 Y81.431 E28.77472
G1 X95.905 Y81.838 E28.7892
G1 X96.151 Y82.195 E28.80362
G1 X96.477 Y82.483 E28.81809
G1 X96.862 Y82.684 E28.83254
G1 X97.283 Y82.788 E28.84696
G1 X97.717 Y82.788 E28.86139
G0 F6000 X97.77 Y83.224
G1 F2700 E23.86139
G0 F6000 X97.613 Y81.924
G0 X97.613 Y138.076
G0 X97.766 Y136.622
G0 X99.029 Y137.645
G0 X99.308 Y138.05
G0 X99.484 Y138.512
G0 X99.542 Y139
G0 X99.484 Y139.488
G0 X99.308 Y139.95
G0 X99.029 Y140.355
G0 X98.82 Y140.539
G0 X97.766 Y141.188
;TYPE:WALL-INNER
G1 F2700 E28.86139
G1 F600 X98.281 Y141.061 E28.87904
G1 X98.751 Y140.815 E28.89668
G1 X99.151 Y140.462 E28.91442
G1 X99.452 Y140.025 E28.93207
G1 X99.641 Y139.527 E28.94979
G1 X99.704 Y139 E28.96744
G1 X99.641 Y138.473 E28.9851
G1 X99.452 Y137.975 E29.00281
G1 X99.151 Y137.538 E29.02046
G1 X98.751 Y137.185 E29.0382
G1 X98.281 Y136.939 E29.05585
G1 X97.766 Y136.812 E29.07349
G1 X97.234 Y136.812 E29.09119
G1 X96.719 Y136.939 E29.10883
G1 X96.249 Y137.185 E29.12647
G1 X95.849 Y137.538 E29.14422
G1 X95.548 Y137.975 E29.16186
G1 X95.359 Y138.473 E29.17958
G1 X95.296 Y139 E29.19723
G1 X95.359 Y139.527 E29.21489
G1 X95.548 Y140.025 E29.2326
G1 X95.849 Y140.462 E29.25025
G1 X96.249 Y140.815 E29.268
G1 X96.719 Y141.061 E29.28564
G1 X97.234 Y141.188 E29.30328
G1 X97.766 Y141.188 E29.32098
G0 F6000 X97.717 Y140.788
;TYPE:WALL-OUTER
G1 F600 X98.138 Y140.684 E29.3354
G1 X98.523 Y140.483 E29.34984
G1 X98.849 Y140.195 E29.36431
G1 X99.095 Y139.838 E29.37873
G1 X99.25 Y139.431 E29.39322
G1 X99.301 Y139 E29.40765
G1 X99.25 Y138.569 E29.42209
G1 X99.095 Y138.162 E29.43657
G1 X98.849 Y137.805 E29.45099
G1 X98.523 Y137.517 E29.46546
G1 X98.138 Y137.316 E29.47991
G1 X97.717 Y137.212 E29.49433
G1 X97.283 Y137.212 E29.50876
G1 X96.862 Y137.316 E29.52319
G1 X96.477 Y137.517 E29.53763
G1 X96.151 Y137.805 E29.5521
G1 X95.905 Y138.162 E29.56652
G1 X95.75 Y138.569 E29.58101
G1 X95.699 Y139 E29.59544
G1 X95.75 Y139.431 E29.60988
G1 X95.905 Y139.838 E29.62436
G1 X96.151 Y140.195 E29.63878
G1 X96.477 Y140.483 E29.65325
G1 X96.862 Y140.684 E29.6677
G1 X97.283 Y140.788 E29.68212
G1 X97.717 Y140.788 E29.69655
G0 F6000 X97.77 Y141.224
G1 F2700 E24.69655
G0 F6000 X98.659 Y140.681
G0 X99.029 Y140.355
G0 X99.308 Y139.95
G0 X99.484 Y139.488
G0 X99.542 Y139
G0 X99.484 Y138.512
G0 X99.342 Y138.139
G0 X98.349 Y136.759
G0 X97.829 Y138.13
G0 X102.593 Y125.204
G0 X102.075 Y126.575
G0 X103.143 Y126.516
;TYPE:WALL-INNER
G1 F2700 E29.69655
G1 F600 X103.635 Y126.395 E29.71341
G1 X104.083 Y126.16 E29.73023
G1 X104.465 Y125.823 E29.74717
G1 X104.752 Y125.405 E29.76404
G1 X104.933 Y124.93 E29.78095
G1 X104.993 Y124.427 E29.79779
G1 X104.933 Y123.924 E29.81464
G1 X104.752 Y123.449 E29.83155
G1 X104.465 Y123.031 E29.84841
G1 X104.083 Y122.695 E29.86533
G1 X103.636 Y122.46 E29.88213
G1 X103.143 Y122.338 E29.89902
G1 X102.635 Y122.338 E29.91592
G1 X102.142 Y122.46 E29.93281
G1 X101.695 Y122.695 E29.94961
G1 X101.313 Y123.031 E29.96653
G1 X101.026 Y123.45 E29.98342
G1 X100.846 Y123.923 E30.00025
G1 X100.785 Y124.427 E30.01714
G1 X100.846 Y124.931 E30.03402
G1 X101.026 Y125.404 E30.05086
G1 X101.313 Y125.823 E30.06775
G1 X101.695 Y126.16 E30.08469
G1 X102.143 Y126.395 E30.10152
G1 X102.635 Y126.516 E30.11837
G1 X103.143 Y126.516 E30.13526
G0 F6000 X103.094 Y126.116
;TYPE:WALL-OUTER
G1 F600 X103.492 Y126.018 E30.1489
G1 X103.855 Y125.828 E30.16252
G1 X104.163 Y125.556 E30.17619
G1 X104.395 Y125.218 E30.18983
G1 X104.542 Y124.834 E30.2035
G1 X104.59 Y124.427 E30.21713
G1 X104.542 Y124.02 E30.23076
G1 X104.395 Y123.636 E30.24444
G1 X104.163 Y123.298 E30.25808
G1 X103.855 Y123.027 E30.27172
G1 X103.493 Y122.837 E30.28532
G1 X103.094 Y122.738 E30.29899
G1 X102.684 Y122.738 E30.31263
G1 X102.285 Y122.837 E30.3263
G1 X101.923 Y123.027 E30.3399
G1 X101.615 Y123.298 E30.35354
G1 X101.383 Y123.637 E30.36721
G1 X101.237 Y124.02 E30.38084
G1 X101.188 Y124.427 E30.39447
G1 X101.237 Y124.834 E30.40811
G1 X101.383 Y125.217 E30.42174
G1 X101.615 Y125.556 E30.4354
G1 X101.923 Y125.828 E30.44907
G1 X102.286 Y126.018 E30.4627
