;FLAVOR:Marlin
;TIME:5662
;Filament used: 2.70395m
;Layer height: 0.15
;MINX:81.5
;MINY:16
;MINZ:0.2
;MAXX:138.5
;MAXY:204
;MAXZ:3.95
;Generated with Cura_SteamEngine 4.11.0
M140 S60
M105
M190 S60
M104 S210
M105
M109 S210
M82 ;absolute extrusion mode
M201 X500.00 Y500.00 Z100.00 E5000.00 ;Setup machine max acceleration
M203 X500.00 Y500.00 Z10.00 E50.00 ;Setup machine max feedrate
M204 P500.00 R1000.00 T500.00 ;Setup Print/Retract/Travel acceleration
M205 X8.00 Y8.00 Z0.40 E5.00 ;Setup Jerk
M220 S100 ;Reset Feedrate
M221 S100 ;Reset Flowrate

G28 ;Home
G29 ;Auto Bed Leveling
M420 S1 Z2 ;Enable ABL using saved Mesh and Fade Height

G92 E0 ;Reset Extruder
G1 Z2.0 F3000 ;Move Z Axis up
G1 X10.1 Y20 Z0.28 F5000.0 ;Move to start position
G1 X10.1 Y200.0 Z0.28 F1500.0 E15 ;Draw the first line
G1 X10.4 Y200.0 Z0.28 F5000.0 ;Move to side a little
G1 X10.4 Y20 Z0.28 F1500.0 E30 ;Draw the second line
G92 E0 ;Reset Extruder
G1 Z2.0 F3000 ;Move Z Axis up
G92 E0
G92 E0
G1 F2700 E-5
;LAYER_COUNT:26
;LAYER:0
M107
G0 F6000 X81.906 Y24.081 Z0.2
;TYPE:SKIRT
G1 F2700 E0
G1 F600 X82.194 Y23.189 E0.03118
G1 X82.557 Y22.324 E0.06238
G1 X82.992 Y21.493 E0.09357
G1 X83.496 Y20.703 E0.12474
G1 X84.066 Y19.958 E0.15594
G1 X84.698 Y19.264 E0.18716
G1 X85.386 Y18.627 E0.21835
G1 X86.126 Y18.051 E0.24953
G1 X86.912 Y17.539 E0.28073
G1 X87.739 Y17.097 E0.31192
G1 X88.601 Y16.727 E0.34312
G1 X89.491 Y16.431 E0.37432
G1 X90.403 Y16.213 E0.40551
G1 X91.33 Y16.072 E0.43669
G1 X92.201 Y16.013 E0.46573
G1 X92.522 Y16.004 E0.47641
G1 X92.83 Y16 E0.48665
G1 X126.793 Y16 E1.61627
G1 X127.649 Y16.011 E1.64474
G1 X128.585 Y16.065 E1.67592
G1 X129.513 Y16.197 E1.7071
G1 X130.427 Y16.409 E1.73831
G1 X131.319 Y16.698 E1.76949
G1 X132.184 Y17.061 E1.80069
G1 X133.014 Y17.497 E1.83188
G1 X133.805 Y18.002 E1.86309
G1 X134.549 Y18.573 E1.89428
G1 X135.242 Y19.205 E1.92548
G1 X135.879 Y19.893 E1.95666
G1 X136.454 Y20.634 E1.98786
G1 X136.965 Y21.42 E2.01904
G1 X137.407 Y22.248 E2.05026
G1 X137.776 Y23.11 E2.08145
G1 X138.071 Y24 E2.11263
G1 X138.289 Y24.912 E2.14382
G1 X138.429 Y25.84 E2.17503
G1 X138.487 Y26.701 E2.20374
G1 X138.496 Y27.021 E2.21438
G1 X138.5 Y27.33 E2.22466
G1 X138.499 Y94.427 E4.45632
G1 X138.489 Y95.148 E4.4803
G1 X138.436 Y96.084 E4.51148
G1 X138.303 Y97.012 E4.54266
G1 X138.092 Y97.926 E4.57386
G1 X137.804 Y98.819 E4.60507
G1 X137.318 Y99.936 E4.64558
G1 X136.744 Y101.077 E4.68807
G1 X136.711 Y101.156 E4.69091
G1 X135.815 Y102.967 E4.75812
G1 X134.758 Y105.268 E4.84234
G1 X133.779 Y107.567 E4.92545
G1 X132.845 Y109.942 E5.01033
G1 X132.005 Y112.274 E5.09277
G1 X131.207 Y114.703 E5.17781
G1 X130.497 Y117.085 E5.26048
G1 X129.852 Y119.5 E5.34361
G1 X129.261 Y121.99 E5.42873
G1 X128.752 Y124.442 E5.51202
G1 X128.313 Y126.91 E5.5954
G1 X127.941 Y129.409 E5.67943
G1 X127.641 Y131.899 E5.76285
G1 X127.412 Y134.403 E5.84648
G1 X127.251 Y136.934 E5.93083
G1 X127.165 Y139.41 E6.01323
G1 X127.148 Y141.978 E6.09865
G1 X127.202 Y144.465 E6.18138
G1 X127.327 Y146.985 E6.2653
G1 X127.521 Y149.46 E6.34787
G1 X127.795 Y152.021 E6.43354
G1 X128.13 Y154.489 E6.51638
G1 X128.539 Y156.975 E6.60017
G1 X129.017 Y159.443 E6.68379
G1 X129.446 Y161.392 E6.75016
G1 X129.708 Y162.526 E6.78887
G1 X129.88 Y163.448 E6.82007
G1 X129.985 Y164.667 E6.86076
G1 X129.995 Y164.995 E6.87168
G1 X130 Y165.33 E6.88282
G1 X129.999 Y192.4 E7.78317
G1 X129.99 Y193.127 E7.80735
G1 X129.939 Y194.064 E7.83856
G1 X129.807 Y194.992 E7.86974
G1 X129.598 Y195.906 E7.90092
G1 X129.311 Y196.799 E7.93212
G1 X128.949 Y197.665 E7.96334
G1 X128.515 Y198.496 E7.99452
G1 X128.011 Y199.287 E8.02572
G1 X127.442 Y200.032 E8.0569
G1 X126.811 Y200.727 E8.08812
G1 X126.124 Y201.365 E8.1193
G1 X125.385 Y201.942 E8.15049
G1 X124.599 Y202.454 E8.18169
G1 X123.773 Y202.897 E8.21286
G1 X122.911 Y203.269 E8.24409
G1 X122.022 Y203.565 E8.27525
G1 X121.11 Y203.785 E8.30645
G1 X120.183 Y203.926 E8.33764
G1 X119.299 Y203.987 E8.36711
G1 X118.978 Y203.996 E8.37779
G1 X118.67 Y204 E8.38804
G1 X101.565 Y203.999 E8.95695
G1 X100.867 Y203.99 E8.98017
G1 X99.931 Y203.938 E9.01135
G1 X99.002 Y203.806 E9.04256
G1 X98.088 Y203.596 E9.07375
G1 X97.195 Y203.309 E9.10495
G1 X96.33 Y202.946 E9.13615
G1 X95.499 Y202.512 E9.16733
G1 X94.708 Y202.008 E9.19853
G1 X93.963 Y201.438 E9.22973
G1 X93.269 Y200.807 E9.26092
G1 X92.632 Y200.12 E9.29208
G1 X92.055 Y199.38 E9.32329
G1 X91.543 Y198.594 E9.35449
G1 X91.1 Y197.767 E9.3857
G1 X90.729 Y196.906 E9.41688
G1 X90.433 Y196.016 E9.44808
G1 X90.214 Y195.104 E9.47927
G1 X90.073 Y194.177 E9.51046
G1 X90.013 Y193.288 E9.54009
G1 X90.004 Y192.955 E9.55117
G1 X90 Y192.658 E9.56105
G1 X90.001 Y165.536 E10.46313
G1 X90.012 Y164.83 E10.48662
G1 X90.067 Y163.893 E10.51784
G1 X90.242 Y162.758 E10.55603
G1 X90.305 Y162.465 E10.566
G1 X90.875 Y159.983 E10.6507
G1 X91.364 Y157.541 E10.73353
G1 X91.79 Y155.058 E10.81733
G1 X92.149 Y152.533 E10.90215
G1 X92.429 Y150.058 E10.985
G1 X92.641 Y147.57 E11.06805
G1 X92.783 Y145.033 E11.15256
G1 X92.854 Y142.509 E11.23654
G1 X92.854 Y139.984 E11.32052
G1 X92.782 Y137.489 E11.40354
G1 X92.641 Y134.987 E11.48689
G1 X92.426 Y132.473 E11.57081
G1 X92.138 Y129.942 E11.65554
G1 X91.789 Y127.494 E11.73778
G1 X91.36 Y124.996 E11.82208
G1 X90.862 Y122.516 E11.90621
G1 X90.302 Y120.086 E11.98915
G1 X89.661 Y117.623 E12.0738
G1 X88.97 Y115.247 E12.1561
G1 X88.177 Y112.782 E12.24223
G1 X87.354 Y110.449 E12.32451
G1 X86.459 Y108.131 E12.40715
G1 X85.468 Y105.762 E12.49256
G1 X84.442 Y103.491 E12.57545
G1 X83.306 Y101.156 E12.66181
G1 X82.723 Y100.019 E12.70431
G1 X82.331 Y99.167 E12.73551
G1 X82.012 Y98.285 E12.7667
G1 X81.771 Y97.379 E12.79788
G1 X81.607 Y96.455 E12.82909
G1 X81.515 Y95.333 E12.86654
G1 X81.505 Y95.005 E12.87745
G1 X81.5 Y94.67 E12.8886
G1 X81.501 Y27.525 E15.12185
G1 X81.51 Y26.86 E15.14397
G1 X81.563 Y25.924 E15.17515
G1 X81.695 Y24.995 E15.20636
G1 X81.906 Y24.081 E15.23756
G0 F6000 X82.305 Y24.139
G1 F600 X82.592 Y23.264 E15.26819
G1 X82.955 Y22.418 E15.2988
G1 X83.389 Y21.606 E15.32943
G1 X83.892 Y20.835 E15.36005
G1 X84.461 Y20.111 E15.39067
G1 X85.089 Y19.439 E15.42126
G1 X85.774 Y18.823 E15.4519
G1 X86.51 Y18.27 E15.48252
G1 X87.291 Y17.782 E15.51315
G1 X88.111 Y17.364 E15.54377
G1 X88.965 Y17.019 E15.5744
G1 X89.845 Y16.749 E15.60502
G1 X90.745 Y16.557 E15.63562
G1 X91.659 Y16.443 E15.66626
G1 X92.212 Y16.413 E15.68468
G1 X92.533 Y16.404 E15.69536
G1 X92.83 Y16.4 E15.70524
G1 X126.793 Y16.4 E16.83485
G1 X127.643 Y16.411 E16.86313
G1 X128.562 Y16.464 E16.89374
G1 X129.473 Y16.597 E16.92436
G1 X130.369 Y16.808 E16.95498
G1 X131.243 Y17.096 E16.98559
G1 X132.09 Y17.459 E17.01624
G1 X132.901 Y17.894 E17.04685
G1 X133.671 Y18.398 E17.07745
G1 X134.395 Y18.967 E17.10808
G1 X135.067 Y19.597 E17.13872
G1 X135.682 Y20.282 E17.16934
G1 X136.235 Y21.018 E17.19996
G1 X136.722 Y21.799 E17.23057
G1 X137.139 Y22.62 E17.2612
G1 X137.484 Y23.474 E17.29183
G1 X137.753 Y24.354 E17.32244
G1 X137.945 Y25.255 E17.35308
G1 X138.058 Y26.168 E17.38367
G1 X138.087 Y26.712 E17.40179
G1 X138.096 Y27.032 E17.41244
G1 X138.1 Y27.33 E17.42235
G1 X138.099 Y94.421 E19.65381
G1 X138.089 Y95.142 E19.67779
G1 X138.036 Y96.061 E19.70841
G1 X137.904 Y96.972 E19.73903
G1 X137.693 Y97.868 E19.76964
G1 X137.405 Y98.743 E19.80028
G1 X136.961 Y99.756 E19.83707
G1 X136.389 Y100.893 E19.8794
G1 X136.352 Y100.979 E19.88251
G1 X135.451 Y102.801 E19.95012
G1 X134.398 Y105.093 E20.03401
G1 X133.41 Y107.412 E20.11785
G1 X132.465 Y109.815 E20.20373
G1 X131.631 Y112.13 E20.28557
G1 X130.83 Y114.569 E20.37096
G1 X130.111 Y116.982 E20.4547
G1 X129.456 Y119.435 E20.53915
G1 X128.88 Y121.862 E20.62211
G1 X128.355 Y124.389 E20.70795
G1 X127.918 Y126.847 E20.79099
G1 X127.546 Y129.344 E20.87496
G1 X127.244 Y131.851 E20.95894
G1 X127.013 Y134.374 E21.04321
G1 X126.853 Y136.896 E21.12726
G1 X126.765 Y139.43 E21.21159
G1 X126.748 Y141.948 E21.29534
G1 X126.803 Y144.495 E21.38008
G1 X126.928 Y147 E21.4635
G1 X127.127 Y149.536 E21.5481
G1 X127.396 Y152.046 E21.63206
G1 X127.738 Y154.571 E21.71681
G1 X128.139 Y157.01 E21.79902
G1 X128.629 Y159.541 E21.88477
G1 X129.044 Y161.43 E21.94909
G1 X129.318 Y162.616 E21.98958
G1 X129.486 Y163.521 E22.0202
G1 X129.585 Y164.679 E22.05885
G1 X129.595 Y165.007 E22.06977
G1 X129.6 Y165.33 E22.08051
G1 X129.599 Y192.395 E22.9807
G1 X129.59 Y193.122 E23.00488
G1 X129.539 Y194.041 E23.03549
G1 X129.408 Y194.953 E23.06613
G1 X129.198 Y195.849 E23.09674
G1 X128.912 Y196.724 E23.12736
G1 X128.551 Y197.571 E23.15798
G1 X128.117 Y198.383 E23.18861
G1 X127.615 Y199.155 E23.21924
G1 X127.047 Y199.88 E23.24987
G1 X126.419 Y200.553 E23.28048
G1 X125.735 Y201.169 E23.3111
G1 X125 Y201.723 E23.34171
G1 X124.22 Y202.212 E23.37233
G1 X123.4 Y202.631 E23.40296
G1 X122.547 Y202.977 E23.43358
G1 X121.667 Y203.248 E23.4642
G1 X120.767 Y203.441 E23.49482
G1 X119.853 Y203.556 E23.52546
G1 X119.288 Y203.587 E23.54428
G1 X118.967 Y203.596 E23.55496
G1 X118.67 Y203.6 E23.56484
G1 X101.57 Y203.599 E24.13358
G1 X100.872 Y203.59 E24.1568
G1 X99.953 Y203.538 E24.18742
G1 X99.042 Y203.407 E24.21803
G1 X98.146 Y203.197 E24.24864
G1 X97.271 Y202.91 E24.27926
G1 X96.424 Y202.548 E24.3099
G1 X95.612 Y202.114 E24.34052
G1 X94.841 Y201.612 E24.37112
G1 X94.116 Y201.044 E24.40176
G1 X93.443 Y200.415 E24.43239
G1 X92.828 Y199.731 E24.46299
G1 X92.274 Y198.996 E24.4936
G1 X91.786 Y198.215 E24.52423
G1 X91.367 Y197.395 E24.55486
G1 X91.021 Y196.542 E24.58547
G1 X90.751 Y195.662 E24.61609
G1 X90.558 Y194.761 E24.64674
G1 X90.444 Y193.848 E24.67734
G1 X90.413 Y193.277 E24.69636
G1 X90.404 Y192.944 E24.70744
G1 X90.4 Y192.658 E24.71695
G1 X90.401 Y165.542 E25.61883
G1 X90.412 Y164.836 E25.64232
G1 X90.467 Y163.917 E25.67294
G1 X90.634 Y162.839 E25.70922
G1 X90.695 Y162.555 E25.71888
G1 X91.264 Y160.08 E25.80335
G1 X91.757 Y157.616 E25.88693
G1 X92.186 Y155.116 E25.97129
G1 X92.544 Y152.597 E26.05592
G1 X92.826 Y150.101 E26.13946
G1 X93.043 Y147.559 E26.22432
G1 X93.183 Y145.066 E26.30736
G1 X93.254 Y142.52 E26.39208
G1 X93.254 Y140.008 E26.47563
G1 X93.181 Y137.456 E26.56054
G1 X93.038 Y134.929 E26.64472
G1 X92.824 Y132.43 E26.72815
G1 X92.538 Y129.907 E26.8126
G1 X92.181 Y127.412 E26.89643
G1 X91.753 Y124.915 E26.98069
G1 X91.258 Y122.453 E27.06421
G1 X90.695 Y120.01 E27.1476
G1 X90.047 Y117.516 E27.2333
G1 X89.346 Y115.108 E27.31672
G1 X88.563 Y112.674 E27.40176
G1 X87.728 Y110.309 E27.48518
G1 X86.825 Y107.969 E27.5686
G1 X85.843 Y105.622 E27.65322
G1 X84.794 Y103.301 E27.73794
G1 X83.665 Y100.979 E27.82381
G1 X83.079 Y99.836 E27.86653
G1 X82.694 Y99 E27.89714
G1 X82.384 Y98.133 E27.92777
G1 X82.15 Y97.242 E27.95841
G1 X81.995 Y96.335 E27.98901
G1 X81.915 Y95.321 E28.02284
G1 X81.905 Y94.993 E28.03376
G1 X81.9 Y94.67 E28.0445
G1 X81.901 Y27.531 E30.27755
G1 X81.91 Y26.866 E30.29967
G1 X81.962 Y25.946 E30.33032
G1 X82.094 Y25.035 E30.36094
G1 X82.305 Y24.139 E30.39156
G0 F6000 X82.704 Y24.198
G1 F600 X82.991 Y23.341 E30.42162
G1 X83.353 Y22.514 E30.45164
G1 X83.786 Y21.722 E30.48166
G1 X84.288 Y20.971 E30.51171
G1 X84.855 Y20.267 E30.54177
G1 X85.481 Y19.617 E30.57179
G1 X86.162 Y19.024 E30.60182
G1 X86.894 Y18.494 E30.63188
G1 X87.669 Y18.031 E30.66191
G1 X88.482 Y17.638 E30.69194
G1 X89.327 Y17.318 E30.72199
G1 X90.196 Y17.075 E30.752
G1 X91.084 Y16.909 E30.78205
G1 X92.223 Y16.813 E30.82007
G1 X92.544 Y16.804 E30.83075
G1 X92.83 Y16.8 E30.84026
G1 X126.793 Y16.8 E31.96988
G1 X127.637 Y16.811 E31.99795
G1 X128.539 Y16.864 E32.028
G1 X129.432 Y16.996 E32.05803
G1 X130.31 Y17.207 E32.08806
G1 X131.166 Y17.495 E32.1181
G1 X131.993 Y17.857 E32.14813
G1 X132.785 Y18.292 E32.17818
G1 X133.536 Y18.794 E32.20822
G1 X134.239 Y19.361 E32.23826
G1 X134.889 Y19.988 E32.2683
G1 X135.481 Y20.67 E32.29834
G1 X136.011 Y21.401 E32.32837
G1 X136.473 Y22.177 E32.35841
G1 X136.866 Y22.99 E32.38844
G1 X137.184 Y23.835 E32.41847
G1 X137.427 Y24.705 E32.44852
G1 X137.592 Y25.593 E32.47856
G1 X137.687 Y26.723 E32.51627
G1 X137.696 Y27.043 E32.52692
G1 X137.7 Y27.33 E32.53647
G1 X137.699 Y94.415 E34.76772
G1 X137.689 Y95.136 E34.79171
G1 X137.637 Y96.038 E34.82176
G1 X137.504 Y96.931 E34.85178
G1 X137.294 Y97.81 E34.88184
G1 X137.007 Y98.666 E34.91187
G1 X136.603 Y99.576 E34.94499
G1 X136.053 Y100.67 E34.98571
G1 X135.994 Y100.801 E34.99049
G1 X135.093 Y102.622 E35.05807
G1 X134.03 Y104.936 E35.14276
G1 X133.028 Y107.288 E35.22779
G1 X132.099 Y109.651 E35.31224
G1 X131.255 Y111.995 E35.3951
G1 X130.45 Y114.445 E35.48088
G1 X129.73 Y116.86 E35.56469
G1 X129.066 Y119.345 E35.65025
G1 X128.485 Y121.794 E35.73396
G1 X127.963 Y124.309 E35.81939
G1 X127.528 Y126.755 E35.90202
G1 X127.147 Y129.308 E35.98788
G1 X126.843 Y131.834 E36.0725
G1 X126.616 Y134.316 E36.15539
G1 X126.453 Y136.889 E36.24114
G1 X126.365 Y139.414 E36.32518
G1 X126.348 Y141.954 E36.40966
G1 X126.403 Y144.523 E36.49512
G1 X126.528 Y147.016 E36.57815
G1 X126.728 Y149.573 E36.66345
G1 X126.996 Y152.075 E36.74715
G1 X127.341 Y154.618 E36.8325
G1 X127.751 Y157.114 E36.91663
G1 X128.242 Y159.648 E37.00248
G1 X128.654 Y161.52 E37.06623
G1 X128.928 Y162.706 E37.10672
G1 X129.092 Y163.594 E37.13675
G1 X129.185 Y164.691 E37.17337
G1 X129.195 Y165.019 E37.18428
G1 X129.2 Y165.33 E37.19463
G1 X129.199 Y192.39 E38.09465
G1 X129.19 Y193.117 E38.11883
G1 X129.139 Y194.019 E38.14888
G1 X129.008 Y194.913 E38.17893
G1 X128.799 Y195.791 E38.20895
G1 X128.513 Y196.648 E38.239
G1 X128.152 Y197.476 E38.26904
G1 X127.72 Y198.268 E38.29905
G1 X127.219 Y199.02 E38.3291
G1 X126.653 Y199.724 E38.35915
G1 X126.028 Y200.375 E38.38916
G1 X125.347 Y200.969 E38.41922
G1 X124.616 Y201.5 E38.44927
G1 X123.842 Y201.964 E38.47928
G1 X123.029 Y202.358 E38.50933
G1 X122.185 Y202.678 E38.53935
G1 X121.315 Y202.923 E38.56942
G1 X120.428 Y203.089 E38.59943
G1 X119.277 Y203.187 E38.63785
G1 X118.956 Y203.196 E38.64853
G1 X118.67 Y203.2 E38.65804
G1 X101.575 Y203.199 E39.22663
G1 X100.877 Y203.19 E39.24984
G1 X99.976 Y203.139 E39.27986
G1 X99.082 Y203.007 E39.30992
G1 X98.204 Y202.798 E39.33993
G1 X97.347 Y202.511 E39.36999
G1 X96.52 Y202.15 E39.40001
G1 X95.727 Y201.717 E39.43006
G1 X94.976 Y201.216 E39.46008
G1 X94.272 Y200.65 E39.49013
G1 X93.621 Y200.024 E39.52017
G1 X93.028 Y199.343 E39.5502
G1 X92.498 Y198.612 E39.58023
G1 X92.034 Y197.837 E39.61028
G1 X91.64 Y197.024 E39.64032
G1 X91.32 Y196.18 E39.67035
G1 X91.076 Y195.31 E39.7004
G1 X90.91 Y194.422 E39.73044
G1 X90.813 Y193.267 E39.769
G1 X90.804 Y192.934 E39.78008
G1 X90.8 Y192.658 E39.78926
G1 X90.801 Y165.548 E40.69094
G1 X90.812 Y164.842 E40.71442
G1 X90.866 Y163.941 E40.74444
G1 X91.025 Y162.921 E40.77878
G1 X91.085 Y162.644 E40.78821
G1 X91.652 Y160.176 E40.87243
G1 X92.157 Y157.655 E40.95794
G1 X92.584 Y155.163 E41.04204
G1 X92.939 Y152.667 E41.12589
G1 X93.224 Y150.144 E41.21034
G1 X93.44 Y147.614 E41.29479
G1 X93.583 Y145.065 E41.37971
G1 X93.654 Y142.531 E41.46402
G1 X93.654 Y139.996 E41.54834
G1 X93.581 Y137.457 E41.63282
G1 X93.437 Y134.909 E41.7177
G1 X93.221 Y132.387 E41.80189
G1 X92.932 Y129.838 E41.88721
G1 X92.578 Y127.359 E41.9705
G1 X92.147 Y124.847 E42.05527
G1 X91.645 Y122.349 E42.14002
G1 X91.086 Y119.925 E42.22275
G1 X90.432 Y117.409 E42.30922
G1 X89.728 Y114.989 E42.39304
G1 X88.945 Y112.556 E42.47805
G1 X88.102 Y110.168 E42.56228
G1 X87.196 Y107.819 E42.64602
G1 X86.2 Y105.439 E42.73183
G1 X85.161 Y103.14 E42.81574
G1 X84.034 Y100.822 E42.90147
G1 X83.435 Y99.654 E42.94513
G1 X83.058 Y98.833 E42.97518
G1 X82.756 Y97.982 E43.00521
G1 X82.53 Y97.107 E43.03527
G1 X82.383 Y96.216 E43.0653
G1 X82.315 Y95.309 E43.09555
G1 X82.305 Y94.981 E43.10647
G1 X82.3 Y94.67 E43.11681
G1 X82.301 Y27.536 E45.3497
G1 X82.31 Y26.871 E45.37182
G1 X82.362 Y25.969 E45.40187
G1 X82.494 Y25.076 E45.43189
G1 X82.704 Y24.198 E45.46192
G1 F2700 E40.46192
;MESH:Wakeup_Transmitter_Lid.stl
G0 F6000 X96.62 Y31.682
G0 X95.251 Y31.181
G0 X95.579 Y32.692
G0 X95.874 Y33.232
G0 X96.31 Y33.657
G0 X96.749 Y33.881
G0 X97.78 Y34.185
;TYPE:WALL-INNER
G1 F2700 E45.46192
G1 F600 X98.194 Y34.091 E45.47604
G1 X98.504 Y33.959 E45.48725
G1 X98.785 Y33.787 E45.4982
G1 X99.037 Y33.575 E45.50916
G1 X99.255 Y33.329 E45.52009
G1 X99.432 Y33.053 E45.531
