;FLAVOR:Marlin
;TIME:5465
;Filament used: 2.62581m
;Layer height: 0.15
;MINX:81.5
;MINY:26
;MINZ:0.2
;MAXX:138.5
;MAXY:194
;MAXZ:3.95
;Generated with Cura_SteamEngine 4.11.0
M140 S60
M105
M190 S60
M104 S210
M105
M109 S210
M82 ;absolute extrusion mode
M201 X500.00 Y500.00 Z100.00 E5000.00 ;Setup machine max acceleration
M203 X500.00 Y500.00 Z10.00 E50.00 ;Setup machine max feedrate
M204 P500.00 R1000.00 T500.00 ;Setup Print/Retract/Travel acceleration
M205 X8.00 Y8.00 Z0.40 E5.00 ;Setup Jerk
M220 S100 ;Reset Feedrate
M221 S100 ;Reset Flowrate

G28 ;Home
G29 ;Auto Bed Leveling
M420 S1 Z2 ;Enable ABL using saved Mesh and Fade Height

G92 E0 ;Reset Extruder
G1 Z2.0 F3000 ;Move Z Axis up
G1 X10.1 Y20 Z0.28 F5000.0 ;Move to start position
G1 X10.1 Y200.0 Z0.28 F1500.0 E15 ;Draw the first line
G1 X10.4 Y200.0 Z0.28 F5000.0 ;Move to side a little
G1 X10.4 Y20 Z0.28 F1500.0 E30 ;Draw the second line
G92 E0 ;Reset Extruder
G1 Z2.0 F3000 ;Move Z Axis up
G92 E0
G92 E0
G1 F2700 E-5
;LAYER_COUNT:26
;LAYER:0
M107
G0 F6000 X82.194 Y33.189 Z0.2
;TYPE:SKIRT
G1 F2700 E0
G1 F600 X82.557 Y32.324 E0.0312
G1 X82.992 Y31.493 E0.0624
G1 X83.496 Y30.703 E0.09356
G1 X84.066 Y29.958 E0.12476
G1 X84.698 Y29.264 E0.15598
G1 X85.386 Y28.627 E0.18717
G1 X86.126 Y28.051 E0.21836
G1 X86.912 Y27.539 E0.24956
G1 X87.739 Y27.097 E0.28075
G1 X88.601 Y26.727 E0.31195
G1 X89.491 Y26.431 E0.34314
G1 X90.403 Y26.213 E0.37433
G1 X91.33 Y26.072 E0.40552
G1 X92.201 Y26.013 E0.43455
G1 X92.522 Y26.004 E0.44523
G1 X92.83 Y26 E0.45548
G1 X126.793 Y26 E1.58509
G1 X127.649 Y26.011 E1.61357
G1 X128.585 Y26.065 E1.64475
G1 X129.513 Y26.197 E1.67592
G1 X130.427 Y26.409 E1.70713
G1 X131.319 Y26.698 E1.73832
G1 X132.184 Y27.061 E1.76952
G1 X133.014 Y27.497 E1.8007
G1 X133.805 Y28.002 E1.83191
G1 X134.549 Y28.573 E1.86311
G1 X135.242 Y29.205 E1.8943
G1 X135.879 Y29.893 E1.92549
G1 X136.454 Y30.634 E1.95668
G1 X136.965 Y31.42 E1.98787
G1 X137.407 Y32.248 E2.01908
G1 X137.776 Y33.11 E2.05027
G1 X138.071 Y34 E2.08145
G1 X138.289 Y34.912 E2.11264
G1 X138.429 Y35.84 E2.14386
G1 X138.487 Y36.701 E2.17256
G1 X138.496 Y37.021 E2.18321
G1 X138.5 Y37.33 E2.19348
G1 X138.499 Y104.426 E4.42511
G1 X138.489 Y105.15 E4.44919
G1 X138.436 Y106.086 E4.48037
G1 X138.304 Y107.015 E4.51158
G1 X138.092 Y107.929 E4.54279
G1 X137.804 Y108.821 E4.57396
G1 X137.577 Y109.385 E4.59418
G1 X137.083 Y110.52 E4.63535
G1 X136.998 Y110.734 E4.64301
G1 X136.73 Y111.339 E4.66502
G1 X135.771 Y113.672 E4.74892
G1 X134.907 Y115.972 E4.83064
G1 X134.07 Y118.395 E4.9159
G1 X133.327 Y120.763 E4.99844
G1 X132.629 Y123.229 E5.08368
G1 X132.024 Y125.622 E5.16578
G1 X131.461 Y128.14 E5.2516
G1 X130.995 Y130.568 E5.33383
G1 X130.589 Y133.038 E5.41708
G1 X130.246 Y135.568 E5.502
G1 X129.985 Y138.028 E5.58428
G1 X129.787 Y140.559 E5.66872
G1 X129.663 Y143.077 E5.75257
G1 X129.609 Y145.603 E5.8366
G1 X129.626 Y148.124 E5.92045
G1 X129.713 Y150.596 E6.00272
G1 X129.939 Y153.931 E6.1139
G1 X129.951 Y154.069 E6.11851
G1 X129.985 Y154.667 E6.13843
G1 X129.995 Y154.997 E6.14941
G1 X130 Y155.33 E6.16049
G1 X129.999 Y182.415 E7.06134
G1 X129.989 Y183.142 E7.08552
G1 X129.936 Y184.079 E7.11673
G1 X129.804 Y185.007 E7.14791
G1 X129.593 Y185.921 E7.17911
G1 X129.304 Y186.813 E7.2103
G1 X128.941 Y187.678 E7.2415
G1 X128.506 Y188.509 E7.27269
G1 X128.001 Y189.299 E7.30388
G1 X127.431 Y190.044 E7.33508
G1 X126.8 Y190.738 E7.36628
G1 X126.111 Y191.375 E7.39749
G1 X125.371 Y191.951 E7.42868
G1 X124.585 Y192.462 E7.45986
G1 X123.758 Y192.904 E7.49104
G1 X122.896 Y193.274 E7.52224
G1 X122.006 Y193.569 E7.55343
G1 X121.094 Y193.788 E7.58463
G1 X120.167 Y193.928 E7.61581
G1 X119.299 Y193.987 E7.64474
G1 X118.979 Y193.996 E7.65539
G1 X118.67 Y194 E7.66567
G1 X101.565 Y193.999 E8.23458
G1 X100.867 Y193.99 E8.2578
G1 X99.931 Y193.938 E8.28898
G1 X99.002 Y193.806 E8.32019
G1 X98.088 Y193.596 E8.35138
G1 X97.195 Y193.309 E8.38258
G1 X96.33 Y192.946 E8.41378
G1 X95.499 Y192.512 E8.44496
G1 X94.708 Y192.008 E8.47616
G1 X93.963 Y191.438 E8.50736
G1 X93.269 Y190.807 E8.53855
G1 X92.632 Y190.12 E8.56971
G1 X92.055 Y189.38 E8.60092
G1 X91.543 Y188.594 E8.63212
G1 X91.1 Y187.767 E8.66333
G1 X90.729 Y186.906 E8.69451
G1 X90.433 Y186.016 E8.72571
G1 X90.214 Y185.104 E8.7569
G1 X90.073 Y184.177 E8.78809
G1 X90.013 Y183.288 E8.81772
G1 X90.004 Y182.955 E8.8288
G1 X90 Y182.658 E8.83868
G1 X90.001 Y155.549 E9.74033
G1 X90.011 Y154.852 E9.76352
G1 X90.038 Y154.232 E9.78416
G1 X90.134 Y152.882 E9.82917
G1 X90.176 Y152.382 E9.84586
G1 X90.315 Y149.874 E9.9294
G1 X90.384 Y147.354 E10.01325
G1 X90.38 Y144.83 E10.0972
G1 X90.307 Y142.34 E10.18005
G1 X90.16 Y139.787 E10.26511
G1 X89.947 Y137.314 E10.34766
G1 X89.657 Y134.799 E10.43187
G1 X89.302 Y132.315 E10.51533
G1 X88.869 Y129.808 E10.59994
G1 X88.381 Y127.388 E10.68205
G1 X87.81 Y124.924 E10.76618
G1 X87.166 Y122.46 E10.85088
G1 X86.463 Y120.05 E10.93438
G1 X85.688 Y117.648 E11.01833
G1 X84.857 Y115.303 E11.10107
G1 X83.954 Y112.969 E11.18431
G1 X82.396 Y109.322 E11.31622
G1 X82.064 Y108.445 E11.34741
G1 X81.723 Y107.147 E11.39204
G1 X81.578 Y106.221 E11.42322
G1 X81.513 Y105.299 E11.45396
G1 X81.504 Y104.979 E11.46461
G1 X81.5 Y104.67 E11.47488
G1 X81.501 Y37.525 E13.70814
G1 X81.51 Y36.86 E13.73026
G1 X81.563 Y35.924 E13.76144
G1 X81.695 Y34.995 E13.79265
G1 X81.906 Y34.081 E13.82385
G1 X82.194 Y33.189 E13.85502
G0 F6000 X82.592 Y33.264
G1 F600 X82.955 Y32.418 E13.88564
G1 X83.389 Y31.606 E13.91626
G1 X83.892 Y30.835 E13.94688
G1 X84.461 Y30.111 E13.97751
G1 X85.089 Y29.439 E14.0081
G1 X85.774 Y28.823 E14.03874
G1 X86.51 Y28.27 E14.06936
G1 X87.291 Y27.782 E14.09999
G1 X88.111 Y27.364 E14.1306
G1 X88.965 Y27.019 E14.16124
G1 X89.845 Y26.749 E14.19185
G1 X90.745 Y26.557 E14.22246
G1 X91.659 Y26.443 E14.2531
G1 X92.212 Y26.413 E14.27152
G1 X92.533 Y26.404 E14.2822
G1 X92.83 Y26.4 E14.29208
G1 X126.793 Y26.4 E15.42169
G1 X127.643 Y26.411 E15.44996
G1 X128.562 Y26.464 E15.48058
G1 X129.473 Y26.597 E15.5112
G1 X130.369 Y26.808 E15.54182
G1 X131.243 Y27.096 E15.57242
G1 X132.09 Y27.459 E15.60307
G1 X132.901 Y27.894 E15.63368
G1 X133.671 Y28.398 E15.66429
G1 X134.395 Y28.967 E15.69492
G1 X135.067 Y29.597 E15.72556
G1 X135.682 Y30.282 E15.75617
G1 X136.235 Y31.018 E15.78679
G1 X136.722 Y31.799 E15.81741
G1 X137.139 Y32.62 E15.84803
G1 X137.484 Y33.474 E15.87867
G1 X137.753 Y34.354 E15.90927
G1 X137.945 Y35.255 E15.93991
G1 X138.058 Y36.168 E15.97051
G1 X138.087 Y36.712 E15.98863
G1 X138.096 Y37.032 E15.99928
G1 X138.1 Y37.33 E16.00919
G1 X138.099 Y104.42 E18.24061
G1 X138.089 Y105.144 E18.2647
G1 X138.036 Y106.064 E18.29535
G1 X137.904 Y106.975 E18.32596
G1 X137.693 Y107.871 E18.35658
G1 X137.406 Y108.745 E18.38717
G1 X137.21 Y109.226 E18.40445
G1 X136.778 Y110.22 E18.4405
G1 X136.632 Y110.572 E18.45317
G1 X136.366 Y111.173 E18.47503
G1 X135.403 Y113.516 E18.55929
G1 X134.518 Y115.87 E18.64293
G1 X133.704 Y118.229 E18.72593
G1 X132.937 Y120.672 E18.8111
G1 X132.252 Y123.094 E18.89481
G1 X131.624 Y125.577 E18.98
G1 X131.078 Y128.017 E19.06316
G1 X130.602 Y130.493 E19.14702
G1 X130.186 Y133.026 E19.2324
G1 X129.854 Y135.478 E19.31469
G1 X129.584 Y138.022 E19.39978
G1 X129.387 Y140.544 E19.48392
G1 X129.263 Y143.048 E19.56731
G1 X129.209 Y145.597 E19.65211
G1 X129.226 Y148.141 E19.73672
G1 X129.313 Y150.607 E19.81879
G1 X129.552 Y154.103 E19.93534
G1 X129.585 Y154.679 E19.95453
G1 X129.595 Y155.009 E19.96551
G1 X129.6 Y155.33 E19.97619
G1 X129.599 Y182.41 E20.87687
G1 X129.589 Y183.137 E20.90105
G1 X129.536 Y184.056 E20.93167
G1 X129.404 Y184.967 E20.96229
G1 X129.193 Y185.863 E20.9929
G1 X128.906 Y186.738 E21.02353
G1 X128.543 Y187.584 E21.05415
G1 X128.109 Y188.396 E21.08477
G1 X127.605 Y189.167 E21.11541
G1 X127.037 Y189.891 E21.14602
G1 X126.408 Y190.563 E21.17663
G1 X125.723 Y191.178 E21.20725
G1 X124.987 Y191.731 E21.23787
G1 X124.206 Y192.219 E21.2685
G1 X123.386 Y192.637 E21.29911
G1 X122.532 Y192.982 E21.32975
G1 X121.652 Y193.251 E21.36035
G1 X120.751 Y193.444 E21.391
G1 X119.838 Y193.557 E21.4216
G1 X119.288 Y193.587 E21.43992
G1 X118.968 Y193.596 E21.45057
G1 X118.67 Y193.6 E21.46048
G1 X101.57 Y193.599 E22.02923
G1 X100.872 Y193.59 E22.05244
G1 X99.953 Y193.538 E22.08306
G1 X99.042 Y193.407 E22.11367
G1 X98.146 Y193.197 E22.14428
G1 X97.271 Y192.91 E22.17491
G1 X96.424 Y192.548 E22.20554
G1 X95.612 Y192.114 E22.23617
G1 X94.841 Y191.612 E22.26677
G1 X94.116 Y191.044 E22.2974
G1 X93.443 Y190.415 E22.32804
G1 X92.828 Y189.731 E22.35863
G1 X92.274 Y188.996 E22.38924
G1 X91.786 Y188.215 E22.41987
G1 X91.367 Y187.395 E22.4505
G1 X91.021 Y186.542 E22.48112
G1 X90.751 Y185.662 E22.51173
G1 X90.558 Y184.761 E22.54238
G1 X90.444 Y183.848 E22.57298
G1 X90.413 Y183.277 E22.592
G1 X90.404 Y182.944 E22.60308
G1 X90.4 Y182.658 E22.61259
G1 X90.401 Y155.555 E23.51404
G1 X90.411 Y154.858 E23.53723
G1 X90.437 Y154.26 E23.55714
G1 X90.533 Y152.915 E23.60199
G1 X90.573 Y152.435 E23.61801
G1 X90.715 Y149.874 E23.70332
G1 X90.784 Y147.364 E23.78683
G1 X90.78 Y144.817 E23.87154
G1 X90.706 Y142.305 E23.95513
G1 X90.562 Y139.798 E24.03865
G1 X90.344 Y137.27 E24.12304
G1 X90.053 Y134.737 E24.20785
G1 X89.697 Y132.257 E24.29118
G1 X89.262 Y129.733 E24.37636
G1 X88.77 Y127.291 E24.45922
G1 X88.201 Y124.838 E24.54297
G1 X87.552 Y122.352 E24.62843
G1 X86.842 Y119.921 E24.71266
G1 X86.073 Y117.539 E24.79591
G1 X85.226 Y115.15 E24.88022
G1 X84.336 Y112.846 E24.96237
G1 X82.763 Y109.165 E25.09551
G1 X82.439 Y108.303 E25.12613
G1 X82.115 Y107.069 E25.16857
G1 X81.974 Y106.159 E25.1992
G1 X81.913 Y105.288 E25.22824
G1 X81.904 Y104.968 E25.23888
G1 X81.9 Y104.67 E25.2488
G1 X81.901 Y37.531 E27.48185
G1 X81.91 Y36.866 E27.50397
G1 X81.962 Y35.946 E27.53462
G1 X82.094 Y35.035 E27.56523
G1 X82.305 Y34.139 E27.59585
G1 X82.592 Y33.264 E27.62648
G0 F6000 X82.991 Y33.341
G1 F600 X83.353 Y32.514 E27.6565
G1 X83.786 Y31.722 E27.68653
G1 X84.288 Y30.971 E27.71657
G1 X84.855 Y30.267 E27.74664
G1 X85.481 Y29.617 E27.77665
G1 X86.162 Y29.024 E27.80668
G1 X86.894 Y28.494 E27.83674
G1 X87.669 Y28.031 E27.86677
G1 X88.482 Y27.638 E27.8968
G1 X89.327 Y27.318 E27.92686
G1 X90.196 Y27.075 E27.95687
G1 X91.084 Y26.909 E27.98691
G1 X92.223 Y26.813 E28.02493
G1 X92.544 Y26.804 E28.03561
G1 X92.83 Y26.8 E28.04513
G1 X126.793 Y26.8 E29.17474
G1 X127.637 Y26.811 E29.20281
G1 X128.539 Y26.864 E29.23287
G1 X129.432 Y26.996 E29.26289
G1 X130.31 Y27.207 E29.29292
G1 X131.166 Y27.495 E29.32296
G1 X131.993 Y27.857 E29.35299
G1 X132.785 Y28.292 E29.38304
G1 X133.536 Y28.794 E29.41309
G1 X134.239 Y29.361 E29.44313
G1 X134.889 Y29.988 E29.47316
G1 X135.481 Y30.67 E29.5032
G1 X136.011 Y31.401 E29.53323
G1 X136.473 Y32.177 E29.56327
G1 X136.866 Y32.99 E29.59331
G1 X137.184 Y33.835 E29.62333
G1 X137.427 Y34.705 E29.65338
G1 X137.592 Y35.593 E29.68342
G1 X137.687 Y36.723 E29.72114
G1 X137.696 Y37.043 E29.73178
G1 X137.7 Y37.33 E29.74133
G1 X137.699 Y104.415 E31.97259
G1 X137.689 Y105.139 E31.99667
G1 X137.637 Y106.04 E32.02669
G1 X137.505 Y106.934 E32.05674
G1 X137.294 Y107.812 E32.08678
G1 X136.844 Y109.066 E32.13109
G1 X136.312 Y110.289 E32.17545
G1 X136.266 Y110.41 E32.17975
G1 X136.001 Y111.008 E32.20151
G1 X135.035 Y113.361 E32.28611
G1 X134.138 Y115.747 E32.37089
G1 X133.32 Y118.116 E32.45425
G1 X132.556 Y120.548 E32.53903
G1 X131.865 Y122.993 E32.62354
G1 X131.24 Y125.463 E32.70828
G1 X130.683 Y127.952 E32.79311
G1 X130.207 Y130.431 E32.87707
G1 X129.794 Y132.944 E32.96178
G1 X129.455 Y135.449 E33.04585
G1 X129.185 Y137.985 E33.13068
G1 X128.99 Y140.492 E33.21431
G1 X128.863 Y143.056 E33.29969
G1 X128.809 Y145.591 E33.38403
G1 X128.826 Y148.123 E33.46824
G1 X128.915 Y150.648 E33.55228
G1 X129.153 Y154.137 E33.66859
G1 X129.185 Y154.691 E33.68705
G1 X129.195 Y155.021 E33.69803
G1 X129.2 Y155.33 E33.70831
G1 X129.199 Y182.404 E34.60879
G1 X129.189 Y183.131 E34.63298
G1 X129.137 Y184.033 E34.66303
G1 X129.005 Y184.926 E34.69305
G1 X128.794 Y185.805 E34.72312
G1 X128.507 Y186.661 E34.75315
G1 X128.145 Y187.488 E34.78317
G1 X127.711 Y188.28 E34.81321
G1 X127.209 Y189.031 E34.84325
G1 X126.643 Y189.734 E34.87327
G1 X126.016 Y190.385 E34.90333
G1 X125.335 Y190.977 E34.93335
G1 X124.604 Y191.507 E34.96338
G1 X123.828 Y191.97 E34.99343
G1 X123.015 Y192.363 E35.02347
G1 X122.17 Y192.683 E35.05352
G1 X121.301 Y192.926 E35.08353
G1 X120.413 Y193.091 E35.11357
G1 X119.277 Y193.187 E35.15149
G1 X118.957 Y193.196 E35.16214
G1 X118.67 Y193.2 E35.17168
G1 X101.575 Y193.199 E35.74027
G1 X100.877 Y193.19 E35.76348
G1 X99.976 Y193.139 E35.7935
G1 X99.082 Y193.007 E35.82356
G1 X98.204 Y192.798 E35.85357
G1 X97.347 Y192.511 E35.88363
G1 X96.52 Y192.15 E35.91365
G1 X95.727 Y191.717 E35.9437
G1 X94.976 Y191.216 E35.97372
G1 X94.272 Y190.65 E36.00377
G1 X93.621 Y190.024 E36.03381
G1 X93.028 Y189.343 E36.06384
G1 X92.498 Y188.612 E36.09387
G1 X92.034 Y187.837 E36.12391
G1 X91.64 Y187.024 E36.15396
G1 X91.32 Y186.18 E36.18399
G1 X91.076 Y185.31 E36.21404
G1 X90.91 Y184.422 E36.24408
G1 X90.813 Y183.267 E36.28264
G1 X90.804 Y182.934 E36.29371
G1 X90.8 Y182.658 E36.3029
G1 X90.801 Y155.561 E37.20415
G1 X90.811 Y154.864 E37.22733
G1 X90.836 Y154.289 E37.24647
G1 X90.931 Y152.949 E37.29115
G1 X90.975 Y152.421 E37.30878
G1 X91.115 Y149.907 E37.39252
G1 X91.184 Y147.374 E37.4768
G1 X91.18 Y144.84 E37.56108
G1 X91.105 Y142.271 E37.64656
G1 X90.959 Y139.741 E37.73085
G1 X90.742 Y137.223 E37.81491
G1 X90.452 Y134.706 E37.89918
G1 X90.089 Y132.169 E37.98442
G1 X89.661 Y129.692 E38.06803
G1 X89.165 Y127.227 E38.15166
G1 X88.583 Y124.718 E38.23732
G1 X87.937 Y122.244 E38.32237
G1 X87.23 Y119.823 E38.40625
G1 X86.444 Y117.388 E38.49136
G1 X85.605 Y115.021 E38.57488
G1 X84.703 Y112.688 E38.65808
G1 X83.131 Y109.008 E38.79117
G1 X82.814 Y108.162 E38.82122
G1 X82.507 Y106.99 E38.86152
G1 X82.369 Y106.098 E38.89154
G1 X82.313 Y105.277 E38.91891
G1 X82.304 Y104.957 E38.92956
G1 X82.3 Y104.67 E38.9391
G1 X82.301 Y37.536 E41.17199
G1 X82.31 Y36.871 E41.19411
G1 X82.362 Y35.969 E41.22416
G1 X82.494 Y35.076 E41.25418
G1 X82.704 Y34.198 E41.28421
G1 X82.991 Y33.341 E41.31427
G1 F2700 E36.31427
;MESH:Wakeup_Transmitter_Lid.stl
G0 F6000 X96.593 Y41.771
G0 X95.156 Y41.527
G0 X95.709 Y42.976
G0 X96.076 Y43.46
G0 X96.573 Y43.818
G0 X97.78 Y44.185
;TYPE:WALL-INNER
G1 F2700 E41.31427
G1 F600 X98.194 Y44.091 E41.32839
G1 X98.504 Y43.959 E41.33959
G1 X98.785 Y43.787 E41.35055
G1 X99.037 Y43.575 E41.36151
G1 X99.255 Y43.329 E41.37244
G1 X99.432 Y43.053 E41.38334
G1 X99.569 Y42.752 E41.39434
G1 X99.657 Y42.434 E41.40532
G1 X99.699 Y42.104 E41.41638
G1 X99.679 Y41.676 E41.43063
G1 X99.573 Y41.255 E41.44507
G1 X99.432 Y40.947 E41.45634
G1 X99.255 Y40.671 E41.46724
G1 X99.035 Y40.422 E41.47829
G1 X98.785 Y40.214 E41.48911
G1 X98.501 Y40.039 E41.50021
G1 X98.199 Y39.913 E41.51109
G1 X97.883 Y39.832 E41.52194
G1 X97.555 Y39.799 E41.5329
G1 X97.222 Y39.816 E41.544
G1 X96.807 Y39.909 E41.55814
G1 X96.495 Y40.041 E41.56941
G1 X96.216 Y40.212 E41.58029
G1 X95.963 Y40.425 E41.59129
G1 X95.745 Y40.671 E41.60222
G1 X95.568 Y40.947 E41.61313
G1 X95.431 Y41.247 E41.6241
G1 X95.343 Y41.565 E41.63507
G1 X95.301 Y41.896 E41.64617
G1 X95.321 Y42.324 E41.66042
G1 X95.427 Y42.745 E41.67486
G1 X95.568 Y43.053 E41.68613
G1 X95.745 Y43.329 E41.69703
G1 X95.963 Y43.575 E41.70797
G1 X96.216 Y43.788 E41.71896
G1 X96.499 Y43.961 E41.73
G1 X96.801 Y44.087 E41.74088
G1 X97.119 Y44.168 E41.7518
G1 X97.444 Y44.201 E41.76266
G1 X97.78 Y44.185 E41.77385
G0 F6000 X97.726 Y43.787
;TYPE:WALL-OUTER
G1 F600 X98.071 Y43.709 E41.78561
G1 X98.32 Y43.603 E41.79461
G1 X98.55 Y43.462 E41.80359
G1 X98.757 Y43.288 E41.81258
G1 X98.935 Y43.087 E41.82151
G1 X99.08 Y42.861 E41.83044
G1 X99.192 Y42.615 E41.83943
G1 X99.264 Y42.355 E41.8484
G1 X99.298 Y42.088 E41.85736
G1 X99.281 Y41.735 E41.86911
G1 X99.194 Y41.388 E41.88101
G1 X99.08 Y41.139 E41.89012
G1 X98.935 Y40.913 E41.89905
G1 X98.755 Y40.71 E41.90807
G1 X98.551 Y40.539 E41.91693
G1 X98.318 Y40.396 E41.92602
G1 X98.072 Y40.293 E41.93489
G1 X97.813 Y40.227 E41.94378
G1 X97.545 Y40.2 E41.95274
G1 X97.276 Y40.214 E41.9617
G1 X96.93 Y40.291 E41.97349
G1 X96.679 Y40.398 E41.98256
