;FLAVOR:Marlin
;TIME:8273
;Filament used: 4.96564m
;Layer height: 0.15
;MINX:76.835
;MINY:22.336
;MINZ:0.24
;MAXX:143.165
;MAXY:197.665
;MAXZ:4.865
;Generated with Cura_SteamEngine 4.11.0
M140 S60
M105
M190 S60
M104 S210
M105
M109 S210
M82 ;absolute extrusion mode
M201 X500.00 Y500.00 Z100.00 E5000.00 ;Setup machine max acceleration
M203 X500.00 Y500.00 Z10.00 E50.00 ;Setup machine max feedrate
M204 P500.00 R1000.00 T500.00 ;Setup Print/Retract/Travel acceleration
M205 X8.00 Y8.00 Z0.40 E5.00 ;Setup Jerk
M220 S100 ;Reset Feedrate
M221 S100 ;Reset Flowrate

G28 ;Home
G29 ;Auto Bed Leveling
M420 S1 Z2 ;Enable ABL using saved Mesh and Fade Height

G92 E0 ;Reset Extruder
G1 Z2.0 F3000 ;Move Z Axis up
G1 X10.1 Y20 Z0.28 F5000.0 ;Move to start position
G1 X10.1 Y200.0 Z0.28 F1500.0 E15 ;Draw the first line
G1 X10.4 Y200.0 Z0.28 F5000.0 ;Move to side a little
G1 X10.4 Y20 Z0.28 F1500.0 E30 ;Draw the second line
G92 E0 ;Reset Extruder
G1 Z2.0 F3000 ;Move Z Axis up
G92 E0
G92 E0
G1 F2700 E-5
;LAYER_COUNT:26
;LAYER:-6
M107
G0 F9000 X78.898 Y32.704 Z0.24
;TYPE:SUPPORT-INTERFACE
G1 F2700 E0
G1 F1125 X79.239 Y31.901 E0.06964
G1 X79.32 Y31.726 E0.08503
G1 X79.735 Y30.918 E0.15754
G1 X79.802 Y30.801 E0.1683
G1 X80.276 Y30.022 E0.24109
G1 X80.376 Y29.871 E0.25555
G1 X80.887 Y29.157 E0.32564
G1 X81 Y29.009 E0.3405
G1 X81.576 Y28.318 E0.41231
G1 X81.677 Y28.205 E0.42441
G1 X82.302 Y27.556 E0.49633
G1 X82.427 Y27.436 E0.51016
G1 X83.098 Y26.833 E0.58217
G1 X83.214 Y26.737 E0.59419
G1 X83.926 Y26.187 E0.66601
G1 X84.085 Y26.074 E0.68158
G1 X84.823 Y25.584 E0.75229
G1 X84.949 Y25.508 E0.76404
G1 X85.743 Y25.062 E0.83674
G1 X85.893 Y24.984 E0.85023
G1 X86.708 Y24.601 E0.92211
G1 X86.851 Y24.541 E0.93449
G1 X87.71 Y24.212 E1.00792
G1 X87.86 Y24.16 E1.02059
G1 X88.71 Y23.905 E1.09143
G1 X88.883 Y23.858 E1.10574
G1 X89.778 Y23.658 E1.17895
G1 X89.908 Y23.635 E1.18948
G1 X90.813 Y23.501 E1.26251
G1 X90.982 Y23.483 E1.27608
G1 X91.871 Y23.417 E1.34724
G1 X92.055 Y23.408 E1.36194
G1 X92.56 Y23.4 E1.40226
G1 X127.503 Y23.401 E4.19156
G1 X128.504 Y23.437 E4.27152
G1 X128.627 Y23.446 E4.28136
G1 X129.544 Y23.548 E4.35501
G1 X129.719 Y23.573 E4.36912
G1 X130.608 Y23.737 E4.44128
G1 X130.731 Y23.765 E4.45135
G1 X131.625 Y23.999 E4.52512
G1 X131.788 Y24.048 E4.53871
G1 X132.63 Y24.334 E4.60969
G1 X132.796 Y24.398 E4.62389
G1 X133.599 Y24.739 E4.69353
G1 X133.788 Y24.827 E4.71017
G1 X134.582 Y25.235 E4.78143
G1 X134.699 Y25.302 E4.79219
G1 X135.478 Y25.776 E4.86498
G1 X135.629 Y25.876 E4.87944
G1 X136.343 Y26.387 E4.94953
G1 X136.491 Y26.5 E4.96439
G1 X137.182 Y27.076 E5.0362
G1 X137.295 Y27.177 E5.0483
G1 X137.944 Y27.802 E5.12022
G1 X138.064 Y27.927 E5.13405
G1 X138.667 Y28.598 E5.20607
G1 X138.763 Y28.714 E5.21809
G1 X139.322 Y29.438 E5.2911
G1 X139.416 Y29.569 E5.30397
G1 X139.916 Y30.323 E5.37619
G1 X139.992 Y30.449 E5.38793
G1 X140.438 Y31.243 E5.46063
G1 X140.516 Y31.393 E5.47413
G1 X140.899 Y32.208 E5.54601
G1 X140.959 Y32.351 E5.55839
G1 X141.288 Y33.21 E5.63181
G1 X141.34 Y33.36 E5.64449
G1 X141.595 Y34.21 E5.71532
G1 X141.642 Y34.383 E5.72963
G1 X141.84 Y35.269 E5.8021
G1 X141.865 Y35.408 E5.81338
G1 X141.998 Y36.307 E5.88592
G1 X142.016 Y36.469 E5.89893
G1 X142.083 Y37.371 E5.97113
G1 X142.092 Y37.555 E5.98584
G1 X142.1 Y38.056 E6.02583
G1 X142.1 Y105.986 E11.4483
G1 X142.064 Y106.992 E11.52865
G1 X142.054 Y107.127 E11.53946
G1 X141.952 Y108.044 E11.61311
G1 X141.927 Y108.219 E11.62722
G1 X141.765 Y109.097 E11.69849
G1 X141.735 Y109.231 E11.70945
G1 X141.504 Y110.116 E11.78246
G1 X141.452 Y110.288 E11.79681
G1 X141.176 Y111.1 E11.86527
G1 X141.096 Y111.309 E11.88313
G1 X140.761 Y112.099 E11.95163
G1 X140.68 Y112.274 E11.96702
G1 X140.265 Y113.082 E12.03953
G1 X140.198 Y113.199 E12.05029
G1 X139.724 Y113.978 E12.12308
G1 X139.624 Y114.129 E12.13754
G1 X139.113 Y114.843 E12.20762
G1 X139 Y114.991 E12.22249
G1 X138.424 Y115.682 E12.2943
G1 X138.323 Y115.795 E12.30639
G1 X137.698 Y116.444 E12.37832
G1 X137.573 Y116.564 E12.39215
G1 X136.903 Y117.166 E12.46405
G1 X136.786 Y117.263 E12.47618
G1 X136.074 Y117.813 E12.548
G1 X135.915 Y117.926 E12.56357
G1 X135.177 Y118.416 E12.63428
G1 X135.051 Y118.492 E12.64603
G1 X134.257 Y118.938 E12.71872
G1 X134.106 Y119.016 E12.73229
G1 X133.292 Y119.399 E12.8041
G1 X133.149 Y119.459 E12.81648
G1 X132.29 Y119.788 E12.8899
G1 X132.14 Y119.84 E12.90258
G1 X131.29 Y120.095 E12.97342
G1 X131.113 Y120.142 E12.98803
G1 X130.805 Y120.212 E13.01325
G1 X130.161 Y120.4 E13.0668
G1 X129.535 Y120.672 E13.12128
G1 X128.949 Y121.021 E13.17573
G1 X128.411 Y121.443 E13.23031
G1 X127.93 Y121.927 E13.28478
G1 X127.515 Y122.469 E13.33927
G1 X127.172 Y123.06 E13.39381
G1 X126.905 Y123.688 E13.44829
G1 X126.719 Y124.345 E13.50279
G1 X126.619 Y125.016 E13.55695
G1 X126.6 Y125.47 E13.59322
G1 X126.6 Y138.824 E14.65919
G1 X126.642 Y139.492 E14.71262
G1 X126.771 Y140.163 E14.76716
G1 X126.984 Y140.812 E14.82169
G1 X127.276 Y141.429 E14.87618
G1 X127.644 Y142.004 E14.93067
G1 X128.082 Y142.527 E14.98512
G1 X128.529 Y142.948 E15.03414
G1 X128.795 Y143.177 E15.06216
G1 X129.444 Y143.802 E15.13408
G1 X129.564 Y143.927 E15.14791
G1 X130.167 Y144.598 E15.21993
G1 X130.263 Y144.714 E15.23194
G1 X130.822 Y145.438 E15.30496
G1 X130.916 Y145.569 E15.31783
G1 X131.416 Y146.323 E15.39005
G1 X131.492 Y146.449 E15.40179
G1 X131.938 Y147.243 E15.47449
G1 X132.016 Y147.393 E15.48798
G1 X132.399 Y148.208 E15.55987
G1 X132.459 Y148.351 E15.57225
G1 X132.788 Y149.21 E15.64567
G1 X132.84 Y149.36 E15.65834
G1 X133.095 Y150.21 E15.72918
G1 X133.142 Y150.383 E15.74349
G1 X133.34 Y151.269 E15.81596
G1 X133.365 Y151.408 E15.82724
G1 X133.498 Y152.307 E15.89978
G1 X133.516 Y152.469 E15.91279
G1 X133.583 Y153.371 E15.98499
G1 X133.592 Y153.555 E15.9997
G1 X133.6 Y154.056 E16.03969
G1 X133.6 Y181.986 E18.26919
G1 X133.564 Y182.992 E18.34954
G1 X133.554 Y183.127 E18.36035
G1 X133.452 Y184.044 E18.434
G1 X133.427 Y184.219 E18.44811
G1 X133.265 Y185.097 E18.51938
G1 X133.235 Y185.231 E18.53034
G1 X133.004 Y186.116 E18.60335
G1 X132.952 Y186.288 E18.61769
G1 X132.676 Y187.1 E18.68615
G1 X132.596 Y187.309 E18.70402
G1 X132.261 Y188.099 E18.77251
G1 X132.18 Y188.274 E18.78791
G1 X131.765 Y189.082 E18.86041
G1 X131.698 Y189.199 E18.87118
G1 X131.224 Y189.978 E18.94397
G1 X131.124 Y190.129 E18.95842
G1 X130.613 Y190.843 E19.02851
G1 X130.5 Y190.991 E19.04337
G1 X129.924 Y191.682 E19.11518
G1 X129.823 Y191.795 E19.12728
G1 X129.198 Y192.444 E19.1992
G1 X129.073 Y192.564 E19.21304
G1 X128.403 Y193.166 E19.28493
G1 X128.286 Y193.263 E19.29707
G1 X127.574 Y193.813 E19.36888
G1 X127.415 Y193.926 E19.38445
G1 X126.677 Y194.416 E19.45517
G1 X126.551 Y194.492 E19.46691
G1 X125.757 Y194.938 E19.53961
G1 X125.606 Y195.016 E19.55318
G1 X124.792 Y195.399 E19.62499
G1 X124.649 Y195.459 E19.63736
G1 X123.79 Y195.788 E19.71079
G1 X123.64 Y195.84 E19.72346
G1 X122.79 Y196.095 E19.7943
G1 X122.617 Y196.142 E19.80861
G1 X121.722 Y196.342 E19.88182
G1 X121.592 Y196.365 E19.89235
G1 X120.687 Y196.499 E19.96538
G1 X120.519 Y196.517 E19.97887
G1 X119.629 Y196.583 E20.05011
G1 X119.445 Y196.592 E20.06481
G1 X118.94 Y196.6 E20.10513
G1 X100.997 Y196.599 E21.53742
G1 X99.996 Y196.563 E21.61737
G1 X99.873 Y196.554 E21.62722
G1 X98.956 Y196.452 E21.70087
G1 X98.781 Y196.427 E21.71498
G1 X97.892 Y196.263 E21.78714
G1 X97.769 Y196.235 E21.79721
G1 X96.875 Y196.001 E21.87098
G1 X96.712 Y195.952 E21.88457
G1 X95.87 Y195.666 E21.95555
G1 X95.704 Y195.602 E21.96975
G1 X94.901 Y195.261 E22.03939
G1 X94.712 Y195.173 E22.05603
G1 X93.918 Y194.765 E22.12729
G1 X93.801 Y194.698 E22.13805
G1 X93.022 Y194.224 E22.21084
G1 X92.871 Y194.124 E22.2253
G1 X92.157 Y193.613 E22.29539
G1 X92.009 Y193.5 E22.31025
G1 X91.318 Y192.924 E22.38206
G1 X91.205 Y192.823 E22.39416
G1 X90.556 Y192.198 E22.46608
G1 X90.436 Y192.073 E22.47991
G1 X89.833 Y191.402 E22.55192
G1 X89.736 Y191.284 E22.56412
G1 X89.178 Y190.562 E22.63696
G1 X89.074 Y190.415 E22.65133
G1 X88.581 Y189.672 E22.72251
G1 X88.508 Y189.551 E22.73379
G1 X88.056 Y188.746 E22.80748
G1 X87.984 Y188.607 E22.81998
G1 X87.587 Y187.761 E22.89458
G1 X87.541 Y187.649 E22.90424
G1 X87.212 Y186.79 E22.97767
G1 X87.155 Y186.625 E22.9916
G1 X86.905 Y185.79 E23.06118
G1 X86.858 Y185.617 E23.07549
G1 X86.657 Y184.716 E23.14918
G1 X86.635 Y184.592 E23.15923
G1 X86.5 Y183.678 E23.23298
G1 X86.483 Y183.518 E23.24583
G1 X86.417 Y182.626 E23.31723
G1 X86.408 Y182.445 E23.33169
G1 X86.4 Y181.944 E23.37169
G1 X86.4 Y154.014 E25.60118
G1 X86.436 Y153.008 E25.68154
G1 X86.446 Y152.873 E25.69234
G1 X86.548 Y151.956 E25.76599
G1 X86.573 Y151.781 E25.7801
G1 X86.735 Y150.903 E25.85137
G1 X86.765 Y150.769 E25.86233
G1 X86.996 Y149.884 E25.93535
G1 X87.048 Y149.712 E25.94969
G1 X87.334 Y148.87 E26.02067
G1 X87.398 Y148.704 E26.03487
G1 X87.739 Y147.901 E26.10451
G1 X87.82 Y147.726 E26.11991
G1 X88.235 Y146.918 E26.19241
G1 X88.302 Y146.801 E26.20318
G1 X88.776 Y146.022 E26.27597
G1 X88.876 Y145.871 E26.29042
G1 X89.387 Y145.157 E26.36051
G1 X89.5 Y145.009 E26.37537
G1 X90.076 Y144.318 E26.44718
G1 X90.177 Y144.205 E26.45928
G1 X90.802 Y143.555 E26.53126
G1 X90.928 Y143.434 E26.54521
G1 X91.613 Y142.82 E26.61864
G1 X92.084 Y142.341 E26.67226
G1 X92.497 Y141.798 E26.72672
G1 X92.838 Y141.207 E26.78118
G1 X93.103 Y140.577 E26.83574
G1 X93.285 Y139.92 E26.89016
G1 X93.383 Y139.248 E26.94437
G1 X93.4 Y138.815 E26.97896
G1 X93.4 Y125.471 E28.04414
G1 X93.358 Y124.803 E28.09756
G1 X93.229 Y124.132 E28.15211
G1 X93.016 Y123.483 E28.20663
G1 X92.724 Y122.866 E28.26112
G1 X92.356 Y122.291 E28.31562
G1 X91.918 Y121.767 E28.37013
G1 X91.418 Y121.303 E28.42458
G1 X90.862 Y120.904 E28.47921
G1 X90.262 Y120.58 E28.53364
G1 X89.703 Y120.364 E28.58148
G1 X89.706 Y120.349 E28.5827
G1 X88.375 Y120.001 E28.69252
G1 X88.212 Y119.952 E28.7061
G1 X87.37 Y119.666 E28.77709
G1 X87.204 Y119.602 E28.79129
G1 X86.401 Y119.261 E28.86093
G1 X86.212 Y119.173 E28.87757
G1 X85.418 Y118.765 E28.94883
G1 X85.301 Y118.698 E28.95959
G1 X84.522 Y118.224 E29.03238
G1 X84.371 Y118.124 E29.04684
G1 X83.657 Y117.613 E29.11692
G1 X83.509 Y117.5 E29.13179
G1 X82.818 Y116.924 E29.2036
G1 X82.705 Y116.823 E29.2157
G1 X82.056 Y116.198 E29.28762
G1 X81.936 Y116.073 E29.30145
G1 X81.333 Y115.402 E29.37346
G1 X81.236 Y115.284 E29.38566
G1 X80.678 Y114.562 E29.45849
G1 X80.574 Y114.415 E29.47287
G1 X80.081 Y113.672 E29.54405
G1 X80.008 Y113.551 E29.55533
G1 X79.556 Y112.746 E29.62902
G1 X79.484 Y112.607 E29.64152
G1 X79.087 Y111.761 E29.71612
G1 X79.041 Y111.649 E29.72578
G1 X78.712 Y110.79 E29.79921
G1 X78.655 Y110.625 E29.81314
G1 X78.405 Y109.79 E29.88272
G1 X78.358 Y109.617 E29.89703
G1 X78.157 Y108.716 E29.97072
G1 X78.135 Y108.592 E29.98077
G1 X78 Y107.678 E30.05452
G1 X77.983 Y107.518 E30.06737
G1 X77.917 Y106.626 E30.13876
G1 X77.908 Y106.445 E30.15323
G1 X77.9 Y105.944 E30.19323
G1 X77.9 Y38.014 E35.61569
G1 X77.936 Y37.008 E35.69605
G1 X77.946 Y36.873 E35.70685
G1 X78.048 Y35.956 E35.7805
G1 X78.073 Y35.781 E35.79461
G1 X78.235 Y34.903 E35.86588
G1 X78.265 Y34.769 E35.87684
G1 X78.496 Y33.884 E35.94986
G1 X78.548 Y33.712 E35.9642
G1 X78.834 Y32.87 E36.03518
G1 X78.898 Y32.704 E36.04938
G0 F9000 X78.4 Y34.251
G1 F1125 X78.4 Y109.771 E42.07772
G0 F9000 X80 Y113.536
G1 F1125 X80 Y30.475 E48.70801
G0 F9000 X81.6 Y28.291
G1 F1125 X81.6 Y115.699 E55.68529
G0 F9000 X83.2 Y117.242
G1 F1125 X83.2 Y26.748 E62.90891
G0 F9000 X84.8 Y25.599
G1 F1125 X84.8 Y118.393 E70.31613
G0 F9000 X86.4 Y119.26
G1 F1125 X86.4 Y24.745 E77.86073
G0 F9000 X88 Y24.118
G1 F1125 X88 Y119.879 E85.50478
G0 F9000 X89.6 Y120.321
G1 F1125 X89.6 Y23.697 E93.21773
G0 F9000 X91.2 Y23.466
G1 F1125 X91.2 Y121.146 E101.01497
G0 F9000 X92.8 Y123.026
G1 F1125 X92.8 Y23.401 E108.96747
G0 F9000 X94.4 Y23.401
G1 F1125 X94.4 Y195.012 E122.6662
G0 F9000 X96 Y195.71
G1 F1125 X96 Y23.401 E136.42065
G0 F9000 X97.6 Y23.401
G1 F1125 X97.6 Y196.19 E150.21341
G0 F9000 X99.2 Y196.479
G1 F1125 X99.2 Y23.401 E164.02925
G0 F9000 X100.8 Y23.401
G1 F1125 X100.8 Y196.591 E177.85402
G0 F9000 X102.4 Y196.599
G1 F1125 X102.4 Y23.401 E191.67944
G0 F9000 X104 Y23.401
G1 F1125 X104 Y196.599 E205.50485
G0 F9000 X105.6 Y196.599
G1 F1125 X105.6 Y23.401 E219.33026
G0 F9000 X107.2 Y23.401
G1 F1125 X107.2 Y196.599 E233.15568
G0 F9000 X108.8 Y196.599
G1 F1125 X108.8 Y23.401 E246.98109
G0 F9000 X110.4 Y23.401
G1 F1125 X110.4 Y196.599 E260.8065
G0 F9000 X112 Y196.599
G1 F1125 X112 Y23.401 E274.63192
G0 F9000 X113.6 Y23.401
G1 F1125 X113.6 Y196.599 E288.45733
G0 F9000 X115.2 Y196.599
G1 F1125 X115.2 Y23.401 E302.28274
G0 F9000 X116.8 Y23.401
G1 F1125 X116.8 Y196.599 E316.10816
G0 F9000 X118.4 Y196.599
G1 F1125 X118.4 Y23.401 E329.93357
G0 F9000 X120 Y23.401
G1 F1125 X120 Y196.556 E343.75555
G0 F9000 X121.6 Y196.364
G1 F1125 X121.6 Y23.401 E357.56221
G0 F9000 X123.2 Y23.401
G1 F1125 X123.2 Y195.972 E371.33757
G0 F9000 X124.8 Y195.396
G1 F1125 X124.8 Y23.401 E385.06695
G0 F9000 X126.4 Y23.401
G1 F1125 X126.4 Y194.577 E398.73096
G0 F9000 X128 Y193.484
G1 F1125 X128 Y142.43 E402.80631
G0 F9000 X129.6 Y143.968
G1 F1125 X129.6 Y192.027 E406.64259
G0 F9000 X131.2 Y190.015
G1 F1125 X131.2 Y145.998 E410.15622
G0 F9000 X132.8 Y149.245
G1 F1125 X132.8 Y186.736 E413.14891
G1 F2700 E408.14891
G0 F9000 X133.675 Y187.468
G0 X133.132 Y188.749
G0 X132.126 Y190.543
G0 X131.338 Y191.648
G0 X129.945 Y193.203
G0 X128.944 Y194.099
G0 X127.24 Y195.319
G0 X126.086 Y195.966
G0 X124.159 Y196.787
G0 X122.878 Y197.173
G0 X120.82 Y197.555
G0 X118.947 Y197.665
G0 X99.943 Y197.626
G0 X98.617 Y197.479
G0 X96.59 Y197.027
G0 X95.3 Y196.587
G0 X93.778 Y195.874
G0 X92.457 Y195.126
G0 X92.8 Y194.073
G1 F2700 E413.14891
G1 F1125 X92.8 Y141.272 E417.36372
G0 F9000 X91.2 Y143.19
G1 F1125 X91.2 Y192.818 E421.32524
G0 F9000 X89.6 Y191.108
G1 F1125 X89.6 Y144.889 E425.01464
G0 F9000 X88 Y147.375
G1 F1125 X88 Y188.637 E428.30835
G1 F2700 E423.30835
G0 F9000 X87.034 Y189.086
G0 X87.681 Y190.24
G0 X88.901 Y191.944
G0 X89.797 Y192.945
G0 X91.352 Y194.338
G0 X92.457 Y195.126
G0 X94.251 Y196.132
G0 X95.515 Y196.669
G0 X97.512 Y197.268
G0 X98.828 Y197.509
G0 X101.013 Y197.664
G0 X119.69 Y197.646
G0 X121.758 Y197.417
G0 X123.073 Y197.121
G0 X125.039 Y196.45
G0 X126.257 Y195.878
G0 X128.023 Y194.799
G0 X129.103 Y193.968
G0 X130.608 Y192.514
G0 X131.466 Y191.481
G0 X132.613 Y189.743
G0 X133.231 Y188.538
G0 X133.964 Y186.62
G0 X134.306 Y185.316
G0 X134.613 Y183.231
G0 X134.664 Y182.011
G0 X134.646 Y153.31
G0 X134.44 Y151.449
G0 X128.4 Y123.064
G0 X128 Y121.857
G1 F2700 E428.30835
G1 F1125 X128 Y23.419 E436.1661
G0 F9000 X129.6 Y23.556
G1 F1125 X129.6 Y120.644 E443.91608
G0 F9000 X131.2 Y120.119
G1 F1125 X131.2 Y23.888 E451.59765
G0 F9000 X132.8 Y24.4
G1 F1125 X132.8 Y119.593 E459.19637
G0 F9000 X134.4 Y118.858
G1 F1125 X134.4 Y25.142 E466.67719
G0 F9000 X136 Y26.142
G1 F1125 X136 Y117.866 E473.99899
G0 F9000 X137.6 Y116.539
G1 F1125 X137.6 Y27.471 E481.10879
G0 F9000 X139.2 Y29.28
G1 F1125 X139.2 Y114.722 E487.92914
G0 F9000 X140.8 Y112.008
G1 F1125 X140.8 Y31.998 E494.31588
G0 F300 X140.8 Y31.998 Z0.465
G0 F9000 X140.718 Y31.824
;TIME_ELAPSED:343.766064
;LAYER:-5
;TYPE:SUPPORT
G1 F1125 X133.664 Y24.769 E495.06248
G1 X133.787 Y24.826 E495.07263
G1 X134.581 Y25.234 E495.13943
G1 X134.698 Y25.301 E495.14952
G1 X135.477 Y25.775 E495.21776
G1 X135.628 Y25.875 E495.23131
G1 X136.342 Y26.387 E495.29706
G1 X136.49 Y26.5 E495.311
G1 X137.18 Y27.075 E495.37821
G1 X137.294 Y27.176 E495.38961
G1 X137.943 Y27.802 E495.45709
G1 X138.063 Y27.927 E495.47006
G1 X138.666 Y28.598 E495.53757
G1 X138.762 Y28.714 E495.54884
G1 X139.321 Y29.438 E495.61729
G1 X139.415 Y29.569 E495.62936
G1 X139.915 Y30.323 E495.69706
G1 X139.99 Y30.448 E495.70797
G1 X140.437 Y31.242 E495.77616
G1 X140.515 Y31.393 E495.78888
G1 F2700 E490.78888
G0 F9000 X141.378 Y30.743
G0 X140.296 Y28.972
G0 X139.468 Y27.897
G0 X138.014 Y26.392
G0 X136.981 Y25.534
G0 X135.574 Y24.606
G0 X134.249 Y23.868
G0 X133.664 Y24.769
G1 F2700 E495.78888
G1 F1125 X133.597 Y24.738 E495.7944
G1 X132.794 Y24.398 E495.85966
G1 X132.629 Y24.334 E495.8729
G1 X131.787 Y24.047 E495.93947
