;FLAVOR:Marlin
;TIME:5521
;Filament used: 2.62828m
;Layer height: 0.15
;MINX:81.5
;MINY:27
;MINZ:0.2
;MAXX:138.5
;MAXY:193
;MAXZ:3.95
;Generated with Cura_SteamEngine 4.11.0
M140 S60
M105
M190 S60
M104 S210
M105
M109 S210
M82 ;absolute extrusion mode
M201 X500.00 Y500.00 Z100.00 E5000.00 ;Setup machine max acceleration
M203 X500.00 Y500.00 Z10.00 E50.00 ;Setup machine max feedrate
M204 P500.00 R1000.00 T500.00 ;Setup Print/Retract/Travel acceleration
M205 X8.00 Y8.00 Z0.40 E5.00 ;Setup Jerk
M220 S100 ;Reset Feedrate
M221 S100 ;Reset Flowrate

G28 ;Home
G29 ;Auto Bed Leveling
M420 S1 Z2 ;Enable ABL using saved Mesh and Fade Height

G92 E0 ;Reset Extruder
G1 Z2.0 F3000 ;Move Z Axis up
G1 X10.1 Y20 Z0.28 F5000.0 ;Move to start position
G1 X10.1 Y200.0 Z0.28 F1500.0 E15 ;Draw the first line
G1 X10.4 Y200.0 Z0.28 F5000.0 ;Move to side a little
G1 X10.4 Y20 Z0.28 F1500.0 E30 ;Draw the second line
G92 E0 ;Reset Extruder
G1 Z2.0 F3000 ;Move Z Axis up
G92 E0
G92 E0
G1 F2700 E-5
;LAYER_COUNT:26
;LAYER:0
M107
G0 F6000 X82.194 Y34.189 Z0.2
;TYPE:SKIRT
G1 F2700 E0
G1 F600 X82.557 Y33.324 E0.0312
G1 X82.992 Y32.493 E0.0624
G1 X83.496 Y31.703 E0.09356
G1 X84.066 Y30.958 E0.12476
G1 X84.698 Y30.264 E0.15598
G1 X85.386 Y29.627 E0.18717
G1 X86.126 Y29.051 E0.21836
G1 X86.912 Y28.539 E0.24956
G1 X87.739 Y28.097 E0.28075
G1 X88.601 Y27.727 E0.31195
G1 X89.491 Y27.431 E0.34314
G1 X90.403 Y27.213 E0.37433
G1 X91.33 Y27.072 E0.40552
G1 X92.201 Y27.013 E0.43455
G1 X92.522 Y27.004 E0.44523
G1 X92.83 Y27 E0.45548
G1 X126.793 Y27 E1.58509
G1 X127.649 Y27.011 E1.61357
G1 X128.585 Y27.065 E1.64475
G1 X129.513 Y27.197 E1.67592
G1 X130.427 Y27.409 E1.70713
G1 X131.319 Y27.698 E1.73832
G1 X132.184 Y28.061 E1.76952
G1 X133.014 Y28.497 E1.8007
G1 X133.805 Y29.002 E1.83191
G1 X134.549 Y29.573 E1.86311
G1 X135.242 Y30.205 E1.8943
G1 X135.879 Y30.893 E1.92549
G1 X136.454 Y31.634 E1.95668
G1 X136.965 Y32.42 E1.98787
G1 X137.407 Y33.248 E2.01908
G1 X137.776 Y34.11 E2.05027
G1 X138.071 Y35 E2.08145
G1 X138.289 Y35.912 E2.11264
G1 X138.429 Y36.84 E2.14386
G1 X138.487 Y37.701 E2.17256
G1 X138.496 Y38.021 E2.18321
G1 X138.5 Y38.33 E2.19348
G1 X138.499 Y105.426 E4.42511
G1 X138.489 Y106.15 E4.44919
G1 X138.436 Y107.086 E4.48037
G1 X138.304 Y108.015 E4.51158
G1 X138.092 Y108.929 E4.54279
G1 X137.804 Y109.821 E4.57396
G1 X137.576 Y110.389 E4.59432
G1 X137.148 Y111.371 E4.62995
G1 X136.176 Y113.697 E4.71379
G1 X135.236 Y116.126 E4.80042
G1 X134.428 Y118.423 E4.88141
G1 X133.651 Y120.84 E4.96585
G1 X132.948 Y123.256 E5.04954
G1 X132.314 Y125.689 E5.13316
G1 X131.749 Y128.14 E5.21682
G1 X131.241 Y130.664 E5.30246
G1 X130.829 Y133.074 E5.38377
G1 X130.469 Y135.599 E5.46861
G1 X130.186 Y138.089 E5.55196
G1 X129.973 Y140.589 E5.63541
G1 X129.828 Y143.122 E5.71979
G1 X129.757 Y145.607 E5.80248
G1 X129.757 Y148.131 E5.88643
G1 X129.83 Y150.73 E5.97291
G1 X129.895 Y152.035 E6.01636
G1 X129.972 Y153.363 E6.06061
G1 X129.985 Y153.666 E6.07069
G1 X129.995 Y153.995 E6.08164
G1 X130 Y154.329 E6.09275
G1 X129.999 Y181.415 E6.99364
G1 X129.989 Y182.142 E7.01782
G1 X129.936 Y183.079 E7.04903
G1 X129.804 Y184.007 E7.08021
G1 X129.593 Y184.921 E7.11141
G1 X129.304 Y185.813 E7.14259
G1 X128.941 Y186.678 E7.1738
G1 X128.506 Y187.509 E7.20499
G1 X128.001 Y188.299 E7.23618
G1 X127.431 Y189.044 E7.26738
G1 X126.8 Y189.738 E7.29857
G1 X126.111 Y190.375 E7.32978
G1 X125.371 Y190.951 E7.36097
G1 X124.585 Y191.462 E7.39215
G1 X123.758 Y191.904 E7.42334
G1 X122.896 Y192.274 E7.45454
G1 X122.006 Y192.569 E7.48573
G1 X121.094 Y192.788 E7.51692
G1 X120.167 Y192.928 E7.54811
G1 X119.299 Y192.987 E7.57704
G1 X118.979 Y192.996 E7.58769
G1 X118.67 Y193 E7.59797
G1 X101.565 Y192.999 E8.16688
G1 X100.867 Y192.99 E8.1901
G1 X99.931 Y192.938 E8.22128
G1 X99.002 Y192.806 E8.25249
G1 X98.088 Y192.596 E8.28368
G1 X97.195 Y192.309 E8.31488
G1 X96.33 Y191.946 E8.34608
G1 X95.499 Y191.512 E8.37726
G1 X94.708 Y191.008 E8.40846
G1 X93.963 Y190.438 E8.43965
G1 X93.269 Y189.807 E8.47085
G1 X92.632 Y189.12 E8.50201
G1 X92.055 Y188.38 E8.53322
G1 X91.543 Y187.594 E8.56442
G1 X91.1 Y186.767 E8.59563
G1 X90.729 Y185.906 E8.62681
G1 X90.433 Y185.016 E8.658
G1 X90.214 Y184.104 E8.6892
G1 X90.073 Y183.177 E8.72039
G1 X90.013 Y182.288 E8.75002
G1 X90.004 Y181.955 E8.7611
G1 X90 Y181.658 E8.77098
G1 X90.001 Y154.551 E9.67256
G1 X90.011 Y153.845 E9.69605
G1 X90.028 Y153.375 E9.71169
G1 X90.181 Y150.695 E9.80097
G1 X90.252 Y148.21 E9.88366
G1 X90.252 Y145.686 E9.96761
G1 X90.181 Y143.162 E10.05159
G1 X90.039 Y140.64 E10.1356
G1 X89.827 Y138.134 E10.21925
G1 X89.544 Y135.64 E10.30273
G1 X89.186 Y133.122 E10.38732
G1 X88.766 Y130.668 E10.47013
G1 X88.28 Y128.231 E10.55278
G1 X87.7 Y125.712 E10.63876
G1 X87.081 Y123.335 E10.72045
G1 X86.368 Y120.876 E10.80561
G1 X85.599 Y118.485 E10.88915
G1 X84.76 Y116.108 E10.97299
G1 X83.874 Y113.807 E11.05499
G1 X82.871 Y111.402 E11.14166
G1 X82.511 Y110.593 E11.17111
G1 X82.35 Y110.21 E11.18493
G1 X82.296 Y110.075 E11.18977
G1 X81.985 Y109.19 E11.22097
G1 X81.751 Y108.282 E11.25216
G1 X81.594 Y107.358 E11.28333
G1 X81.513 Y106.299 E11.31865
G1 X81.504 Y105.979 E11.3293
G1 X81.5 Y105.67 E11.33958
G1 X81.501 Y38.525 E13.57283
G1 X81.51 Y37.86 E13.59495
G1 X81.563 Y36.924 E13.62613
G1 X81.695 Y35.995 E13.65734
G1 X81.906 Y35.081 E13.68854
G1 X82.194 Y34.189 E13.71972
G0 F6000 X82.592 Y34.264
G1 F600 X82.955 Y33.418 E13.75034
G1 X83.389 Y32.606 E13.78096
G1 X83.892 Y31.835 E13.81158
G1 X84.461 Y31.111 E13.8422
G1 X85.089 Y30.439 E13.8728
G1 X85.774 Y29.823 E13.90344
G1 X86.51 Y29.27 E13.93405
G1 X87.291 Y28.782 E13.96469
G1 X88.111 Y28.364 E13.9953
G1 X88.965 Y28.019 E14.02593
G1 X89.845 Y27.749 E14.05655
G1 X90.745 Y27.557 E14.08716
G1 X91.659 Y27.443 E14.11779
G1 X92.212 Y27.413 E14.13621
G1 X92.533 Y27.404 E14.14689
G1 X92.83 Y27.4 E14.15677
G1 X126.793 Y27.4 E15.28638
G1 X127.643 Y27.411 E15.31466
G1 X128.562 Y27.464 E15.34527
G1 X129.473 Y27.597 E15.3759
G1 X130.369 Y27.808 E15.40651
G1 X131.243 Y28.096 E15.43712
G1 X132.09 Y28.459 E15.46777
G1 X132.901 Y28.894 E15.49838
G1 X133.671 Y29.398 E15.52899
G1 X134.395 Y29.967 E15.55961
G1 X135.067 Y30.597 E15.59025
G1 X135.682 Y31.282 E15.62087
G1 X136.235 Y32.018 E15.65149
G1 X136.722 Y32.799 E15.6821
G1 X137.139 Y33.62 E15.71273
G1 X137.484 Y34.474 E15.74336
G1 X137.753 Y35.354 E15.77397
G1 X137.945 Y36.255 E15.80461
G1 X138.058 Y37.168 E15.83521
G1 X138.087 Y37.712 E15.85333
G1 X138.096 Y38.032 E15.86397
G1 X138.1 Y38.33 E15.87389
G1 X138.099 Y105.42 E18.10531
G1 X138.089 Y106.144 E18.12939
G1 X138.036 Y107.064 E18.16004
G1 X137.904 Y107.975 E18.19066
G1 X137.693 Y108.871 E18.22127
G1 X137.406 Y109.745 E18.25187
G1 X137.209 Y110.229 E18.26925
G1 X136.784 Y111.206 E18.30469
G1 X135.792 Y113.578 E18.3902
G1 X134.88 Y115.936 E18.47429
G1 X134.042 Y118.317 E18.55824
G1 X133.272 Y120.712 E18.64192
G1 X132.56 Y123.158 E18.72665
G1 X131.923 Y125.604 E18.81072
G1 X131.353 Y128.077 E18.89513
G1 X130.854 Y130.556 E18.97923
G1 X130.432 Y133.021 E19.06241
G1 X130.074 Y135.533 E19.1468
G1 X129.789 Y138.039 E19.23069
G1 X129.573 Y140.572 E19.31524
G1 X129.43 Y143.087 E19.39903
G1 X129.357 Y145.631 E19.48368
G1 X129.357 Y148.142 E19.56719
G1 X129.429 Y150.715 E19.65281
G1 X129.499 Y152.134 E19.70006
G1 X129.572 Y153.386 E19.74177
G1 X129.585 Y153.678 E19.75149
G1 X129.595 Y154.007 E19.76244
G1 X129.6 Y154.329 E19.77315
G1 X129.599 Y181.41 E20.67387
G1 X129.589 Y182.137 E20.69805
G1 X129.536 Y183.056 E20.72867
G1 X129.404 Y183.967 E20.75928
G1 X129.193 Y184.863 E20.7899
G1 X128.906 Y185.738 E20.82053
G1 X128.543 Y186.584 E20.85115
G1 X128.109 Y187.396 E20.88177
G1 X127.605 Y188.167 E20.91241
G1 X127.037 Y188.891 E20.94301
G1 X126.408 Y189.563 E20.97363
G1 X125.723 Y190.178 E21.00425
G1 X124.987 Y190.731 E21.03487
G1 X124.206 Y191.219 E21.0655
G1 X123.386 Y191.637 E21.09611
G1 X122.532 Y191.982 E21.12674
G1 X121.652 Y192.251 E21.15735
G1 X120.751 Y192.444 E21.188
G1 X119.838 Y192.557 E21.21859
G1 X119.288 Y192.587 E21.23691
G1 X118.968 Y192.596 E21.24756
G1 X118.67 Y192.6 E21.25747
G1 X101.57 Y192.599 E21.82622
G1 X100.872 Y192.59 E21.84944
G1 X99.953 Y192.538 E21.88005
G1 X99.042 Y192.407 E21.91067
G1 X98.146 Y192.197 E21.94128
G1 X97.271 Y191.91 E21.9719
G1 X96.424 Y191.548 E22.00254
G1 X95.612 Y191.114 E22.03316
G1 X94.841 Y190.612 E22.06376
G1 X94.116 Y190.044 E22.0944
G1 X93.443 Y189.415 E22.12503
G1 X92.828 Y188.731 E22.15563
G1 X92.274 Y187.996 E22.18624
G1 X91.786 Y187.215 E22.21687
G1 X91.367 Y186.395 E22.2475
G1 X91.021 Y185.542 E22.27811
G1 X90.751 Y184.662 E22.30873
G1 X90.558 Y183.761 E22.33938
G1 X90.444 Y182.848 E22.36998
G1 X90.413 Y182.277 E22.389
G1 X90.404 Y181.944 E22.40008
G1 X90.4 Y181.658 E22.40959
G1 X90.401 Y154.557 E23.31097
G1 X90.411 Y153.851 E23.33446
G1 X90.427 Y153.398 E23.34953
G1 X90.579 Y150.73 E23.43842
G1 X90.652 Y148.186 E23.52307
G1 X90.652 Y145.675 E23.60658
G1 X90.581 Y143.127 E23.69136
G1 X90.44 Y140.62 E23.77488
G1 X90.225 Y138.091 E23.85929
G1 X89.944 Y135.61 E23.94234
G1 X89.582 Y133.064 E24.02787
G1 X89.159 Y130.593 E24.11125
G1 X88.668 Y128.135 E24.19462
G1 X88.093 Y125.635 E24.27994
G1 X87.458 Y123.195 E24.3638
G1 X86.757 Y120.779 E24.44747
G1 X85.981 Y118.367 E24.53175
G1 X85.135 Y115.968 E24.61635
G1 X84.245 Y113.658 E24.69869
G1 X83.235 Y111.236 E24.78597
G1 X82.877 Y110.43 E24.8153
G1 X82.721 Y110.062 E24.8286
G1 X82.667 Y109.927 E24.83343
G1 X82.363 Y109.058 E24.86405
G1 X82.135 Y108.166 E24.89467
G1 X81.985 Y107.258 E24.92528
G1 X81.913 Y106.288 E24.95763
G1 X81.904 Y105.968 E24.96828
G1 X81.9 Y105.67 E24.97819
G1 X81.901 Y38.531 E27.21125
G1 X81.91 Y37.866 E27.23337
G1 X81.962 Y36.946 E27.26401
G1 X82.094 Y36.035 E27.29463
G1 X82.305 Y35.139 E27.32525
G1 X82.592 Y34.264 E27.35588
G0 F6000 X82.991 Y34.341
G1 F600 X83.353 Y33.514 E27.3859
G1 X83.786 Y32.722 E27.41592
G1 X84.288 Y31.971 E27.44597
G1 X84.855 Y31.267 E27.47603
G1 X85.481 Y30.617 E27.50605
G1 X86.162 Y30.024 E27.53608
G1 X86.894 Y29.494 E27.56614
G1 X87.669 Y29.031 E27.59617
G1 X88.482 Y28.638 E27.6262
G1 X89.327 Y28.318 E27.65625
G1 X90.196 Y28.075 E27.68626
G1 X91.084 Y27.909 E27.71631
G1 X92.223 Y27.813 E27.75433
G1 X92.544 Y27.804 E27.76501
G1 X92.83 Y27.8 E27.77452
G1 X126.793 Y27.8 E28.90414
G1 X127.637 Y27.811 E28.93221
G1 X128.539 Y27.864 E28.96226
G1 X129.432 Y27.996 E28.99229
G1 X130.31 Y28.207 E29.02232
G1 X131.166 Y28.495 E29.05236
G1 X131.993 Y28.857 E29.08239
G1 X132.785 Y29.292 E29.11244
G1 X133.536 Y29.794 E29.14248
G1 X134.239 Y30.361 E29.17252
G1 X134.889 Y30.988 E29.20256
G1 X135.481 Y31.67 E29.2326
G1 X136.011 Y32.401 E29.26263
G1 X136.473 Y33.177 E29.29267
G1 X136.866 Y33.99 E29.3227
G1 X137.184 Y34.835 E29.35273
G1 X137.427 Y35.705 E29.38277
G1 X137.592 Y36.593 E29.41282
G1 X137.687 Y37.723 E29.45053
G1 X137.696 Y38.043 E29.46118
G1 X137.7 Y38.33 E29.47073
G1 X137.699 Y105.415 E31.70198
G1 X137.689 Y106.139 E31.72606
G1 X137.637 Y107.04 E31.75608
G1 X137.505 Y107.934 E31.78614
G1 X137.294 Y108.812 E31.81617
G1 X136.842 Y110.069 E31.8606
G1 X136.43 Y111.016 E31.89495
G1 X135.421 Y113.428 E31.98191
G1 X134.505 Y115.796 E32.06636
G1 X133.66 Y118.199 E32.15108
G1 X132.89 Y120.593 E32.23472
G1 X132.175 Y123.05 E32.31983
G1 X131.532 Y125.519 E32.40469
G1 X130.965 Y127.98 E32.48869
G1 X130.462 Y130.475 E32.57334
G1 X130.036 Y132.969 E32.65749
G1 X129.675 Y135.503 E32.74263
G1 X129.391 Y137.996 E32.82608
G1 X129.173 Y140.549 E32.9113
G1 X129.03 Y143.055 E32.99479
G1 X128.957 Y145.619 E33.0801
G1 X128.957 Y148.153 E33.16438
G1 X129.029 Y150.747 E33.25069
G1 X129.096 Y152.082 E33.29515
G1 X129.173 Y153.41 E33.33939
G1 X129.185 Y153.69 E33.34871
G1 X129.195 Y154.019 E33.35966
G1 X129.2 Y154.329 E33.36997
G1 X129.199 Y181.404 E34.27049
G1 X129.189 Y182.131 E34.29468
G1 X129.137 Y183.033 E34.32473
G1 X129.005 Y183.926 E34.35475
G1 X128.794 Y184.805 E34.38482
G1 X128.507 Y185.661 E34.41484
G1 X128.145 Y186.488 E34.44487
G1 X127.711 Y187.28 E34.47491
G1 X127.209 Y188.031 E34.50495
G1 X126.643 Y188.734 E34.53497
G1 X126.016 Y189.385 E34.56503
G1 X125.335 Y189.977 E34.59504
G1 X124.604 Y190.507 E34.62508
G1 X123.828 Y190.97 E34.65513
G1 X123.015 Y191.363 E34.68516
G1 X122.17 Y191.683 E34.71522
G1 X121.301 Y191.926 E34.74523
G1 X120.413 Y192.091 E34.77527
G1 X119.277 Y192.187 E34.81319
G1 X118.957 Y192.196 E34.82384
G1 X118.67 Y192.2 E34.83338
G1 X101.575 Y192.199 E35.40196
G1 X100.877 Y192.19 E35.42518
G1 X99.976 Y192.139 E35.4552
G1 X99.082 Y192.007 E35.48525
G1 X98.204 Y191.798 E35.51527
G1 X97.347 Y191.511 E35.54533
G1 X96.52 Y191.15 E35.57534
G1 X95.727 Y190.717 E35.6054
G1 X94.976 Y190.216 E35.63542
G1 X94.272 Y189.65 E35.66547
G1 X93.621 Y189.024 E35.69551
G1 X93.028 Y188.343 E35.72554
G1 X92.498 Y187.612 E35.75557
G1 X92.034 Y186.837 E35.78561
G1 X91.64 Y186.024 E35.81566
G1 X91.32 Y185.18 E35.84568
G1 X91.076 Y184.31 E35.87574
G1 X90.91 Y183.422 E35.90578
G1 X90.813 Y182.267 E35.94433
G1 X90.804 Y181.934 E35.95541
G1 X90.8 Y181.658 E35.96459
G1 X90.801 Y154.563 E36.86578
G1 X90.811 Y153.857 E36.88926
G1 X90.827 Y153.42 E36.90381
G1 X90.979 Y150.762 E36.99236
G1 X91.052 Y148.198 E37.07767
G1 X91.052 Y145.664 E37.16195
G1 X90.981 Y143.13 E37.24626
G1 X90.839 Y140.597 E37.33065
G1 X90.623 Y138.049 E37.4157
G1 X90.338 Y135.546 E37.49948
G1 X89.978 Y133.012 E37.58461
G1 X89.552 Y130.519 E37.66873
G1 X89.055 Y128.032 E37.75308
G1 X88.484 Y125.549 E37.83782
G1 X87.843 Y123.087 E37.92244
G1 X87.139 Y120.66 E38.00649
G1 X86.364 Y118.249 E38.09072
G1 X85.514 Y115.84 E38.17569
G1 X84.611 Y113.496 E38.25923
G1 X83.604 Y111.082 E38.34623
G1 X83.242 Y110.268 E38.37586
G1 X83.093 Y109.913 E38.38867
G1 X83.039 Y109.778 E38.3935
G1 X82.741 Y108.926 E38.42352
G1 X82.519 Y108.05 E38.45358
G1 X82.376 Y107.158 E38.48363
G1 X82.313 Y106.277 E38.513
G1 X82.304 Y105.957 E38.52365
G1 X82.3 Y105.67 E38.5332
G1 X82.301 Y38.536 E40.76608
G1 X82.31 Y37.871 E40.7882
G1 X82.362 Y36.969 E40.81825
G1 X82.494 Y36.076 E40.84828
G1 X82.704 Y35.198 E40.8783
G1 X82.991 Y34.341 E40.90836
G1 F2700 E35.90836
;MESH:Wakeup_Transmitter_Lid.stl
G0 F6000 X96.62 Y42.682
G0 X95.251 Y42.181
G0 X95.579 Y43.692
G0 X95.874 Y44.232
G0 X96.31 Y44.657
G0 X96.749 Y44.881
G0 X97.78 Y45.185
;TYPE:WALL-INNER
G1 F2700 E40.90836
G1 F600 X98.194 Y45.091 E40.92248
G1 X98.504 Y44.959 E40.93369
G1 X98.785 Y44.787 E40.94465
G1 X99.037 Y44.575 E40.9556
G1 X99.255 Y44.329 E40.96653
G1 X99.432 Y44.053 E40.97744
G1 X99.569 Y43.752 E40.98844
G1 X99.657 Y43.434 E40.99941
G1 X99.699 Y43.104 E41.01048
G1 X99.679 Y42.676 E41.02473
G1 X99.573 Y42.255 E41.03917
G1 X99.432 Y41.947 E41.05043
G1 X99.255 Y41.671 E41.06134
G1 X99.035 Y41.422 E41.07239
G1 X98.785 Y41.214 E41.08321
G1 X98.501 Y41.039 E41.0943
G1 X98.199 Y40.913 E41.10519
G1 X97.883 Y40.832 E41.11604
G1 X97.555 Y40.799 E41.127
G1 X97.222 Y40.816 E41.13809
G1 X96.807 Y40.909 E41.15224
G1 X96.495 Y41.041 E41.1635
G1 X96.216 Y41.212 E41.17439
G1 X95.963 Y41.425 E41.18539
G1 X95.745 Y41.671 E41.19632
G1 X95.568 Y41.947 E41.20722
G1 X95.431 Y42.247 E41.21819
G1 X95.343 Y42.565 E41.22917
G1 X95.301 Y42.896 E41.24027
G1 X95.321 Y43.324 E41.25452
G1 X95.427 Y43.745 E41.26896
G1 X95.568 Y44.053 E41.28022
G1 X95.745 Y44.329 E41.29113
G1 X95.963 Y44.575 E41.30206
G1 X96.216 Y44.788 E41.31306
G1 X96.499 Y44.961 E41.32409
G1 X96.801 Y45.087 E41.33498
G1 X97.119 Y45.168 E41.34589
G1 X97.444 Y45.201 E41.35676
G1 X97.78 Y45.185 E41.36794
G0 F6000 X97.726 Y44.787
;TYPE:WALL-OUTER
G1 F600 X98.071 Y44.709 E41.37971
G1 X98.32 Y44.603 E41.38871
G1 X98.55 Y44.462 E41.39768
G1 X98.757 Y44.288 E41.40668
G1 X98.935 Y44.087 E41.41561
G1 X99.08 Y43.861 E41.42454
G1 X99.192 Y43.615 E41.43353
G1 X99.264 Y43.355 E41.4425
G1 X99.298 Y43.088 E41.45145
G1 X99.281 Y42.735 E41.46321
G1 X99.194 Y42.388 E41.4751
G1 X99.08 Y42.139 E41.48421
G1 X98.935 Y41.913 E41.49314
G1 X98.755 Y41.71 E41.50217
G1 X98.551 Y41.539 E41.51102
G1 X98.318 Y41.396 E41.52011
G1 X98.072 Y41.293 E41.52898
G1 X97.813 Y41.227 E41.53787
G1 X97.545 Y41.2 E41.54683
G1 X97.276 Y41.214 E41.55579
G1 X96.93 Y41.291 E41.56758
G1 X96.679 Y41.398 E41.57666
G1 X96.45 Y41.538 E41.58558
