;FLAVOR:Marlin
;TIME:12827
;Filament used: 5.69809m
;Layer height: 0.15
;MINX:81.5
;MINY:65
;MINZ:0.2
;MAXX:138.5
;MAXY:155
;MAXZ:24.05
;Generated with Cura_SteamEngine 4.11.0
M140 S60
M105
M190 S60
M104 S210
M105
M109 S210
M82 ;absolute extrusion mode
M201 X500.00 Y500.00 Z100.00 E5000.00 ;Setup machine max acceleration
M203 X500.00 Y500.00 Z10.00 E50.00 ;Setup machine max feedrate
M204 P500.00 R1000.00 T500.00 ;Setup Print/Retract/Travel acceleration
M205 X8.00 Y8.00 Z0.40 E5.00 ;Setup Jerk
M220 S100 ;Reset Feedrate
M221 S100 ;Reset Flowrate

G28 ;Home
G29 ;Auto Bed Leveling
M420 S1 Z2 ;Enable ABL using saved Mesh and Fade Height

G92 E0 ;Reset Extruder
G1 Z2.0 F3000 ;Move Z Axis up
G1 X10.1 Y20 Z0.28 F5000.0 ;Move to start position
G1 X10.1 Y200.0 Z0.28 F1500.0 E15 ;Draw the first line
G1 X10.4 Y200.0 Z0.28 F5000.0 ;Move to side a little
G1 X10.4 Y20 Z0.28 F1500.0 E30 ;Draw the second line
G92 E0 ;Reset Extruder
G1 Z2.0 F3000 ;Move Z Axis up
G92 E0
G92 E0
G1 F2700 E-5
;LAYER_COUNT:160
;LAYER:0
M107
G0 F6000 X84.066 Y68.958 Z0.2
;TYPE:SKIRT
G1 F2700 E0
G1 F600 X84.698 Y68.264 E0.03122
G1 X85.386 Y67.627 E0.0624
G1 X86.126 Y67.051 E0.09359
G1 X86.912 Y66.539 E0.12479
G1 X87.739 Y66.097 E0.15598
G1 X88.601 Y65.727 E0.18718
G1 X89.491 Y65.431 E0.21838
G1 X90.403 Y65.213 E0.24957
G1 X91.33 Y65.072 E0.28075
G1 X92.201 Y65.013 E0.30979
G1 X92.522 Y65.004 E0.32047
G1 X92.83 Y65 E0.33071
G1 X126.793 Y65 E1.46033
G1 X127.649 Y65.011 E1.4888
G1 X128.585 Y65.065 E1.51998
G1 X129.513 Y65.197 E1.55116
G1 X130.427 Y65.409 E1.58237
G1 X131.319 Y65.698 E1.61355
G1 X132.184 Y66.061 E1.64475
G1 X133.014 Y66.497 E1.67594
G1 X133.805 Y67.002 E1.70715
G1 X134.549 Y67.573 E1.73834
G1 X135.242 Y68.205 E1.76954
G1 X135.879 Y68.893 E1.80072
G1 X136.454 Y69.634 E1.83192
G1 X136.965 Y70.42 E1.8631
G1 X137.407 Y71.248 E1.89432
G1 X137.776 Y72.11 E1.92551
G1 X138.071 Y73 E1.95669
G1 X138.289 Y73.912 E1.98788
G1 X138.429 Y74.84 E2.01909
G1 X138.487 Y75.701 E2.04779
G1 X138.496 Y76.021 E2.05844
G1 X138.5 Y76.33 E2.06872
G1 X138.499 Y143.4 E4.29948
G1 X138.49 Y144.127 E4.32366
G1 X138.439 Y145.064 E4.35487
G1 X138.307 Y145.992 E4.38605
G1 X138.098 Y146.906 E4.41723
G1 X137.811 Y147.799 E4.44843
G1 X137.449 Y148.665 E4.47965
G1 X137.015 Y149.496 E4.51083
G1 X136.511 Y150.287 E4.54202
G1 X135.942 Y151.032 E4.5732
G1 X135.311 Y151.727 E4.60442
G1 X134.624 Y152.365 E4.63561
G1 X133.885 Y152.942 E4.66679
G1 X133.099 Y153.454 E4.69799
G1 X132.273 Y153.897 E4.72917
G1 X131.411 Y154.269 E4.76039
G1 X130.522 Y154.565 E4.79156
G1 X129.61 Y154.785 E4.82276
G1 X128.683 Y154.926 E4.85395
G1 X127.799 Y154.987 E4.88342
G1 X127.478 Y154.996 E4.8941
G1 X127.17 Y155 E4.90434
G1 X93.065 Y154.999 E6.03868
G1 X92.367 Y154.99 E6.0619
G1 X91.431 Y154.938 E6.09308
G1 X90.502 Y154.806 E6.12429
G1 X89.588 Y154.596 E6.15548
G1 X88.695 Y154.309 E6.18668
G1 X87.83 Y153.946 E6.21788
G1 X86.999 Y153.512 E6.24906
G1 X86.208 Y153.008 E6.28025
G1 X85.463 Y152.438 E6.31145
G1 X84.769 Y151.807 E6.34265
G1 X84.132 Y151.12 E6.37381
G1 X83.555 Y150.38 E6.40502
G1 X83.043 Y149.594 E6.43622
G1 X82.6 Y148.767 E6.46743
G1 X82.229 Y147.906 E6.49861
G1 X81.933 Y147.016 E6.5298
G1 X81.714 Y146.104 E6.561
G1 X81.573 Y145.177 E6.59219
G1 X81.513 Y144.288 E6.62182
G1 X81.504 Y143.955 E6.6329
G1 X81.5 Y143.658 E6.64278
G1 X81.501 Y76.525 E8.87563
G1 X81.51 Y75.86 E8.89775
G1 X81.563 Y74.924 E8.92893
G1 X81.695 Y73.995 E8.96014
G1 X81.906 Y73.081 E8.99134
G1 X82.194 Y72.189 E9.02252
G1 X82.557 Y71.324 E9.05372
G1 X82.992 Y70.493 E9.08492
G1 X83.496 Y69.703 E9.11608
G1 X84.066 Y68.958 E9.14728
G0 F6000 X84.461 Y69.111
G1 F600 X85.089 Y68.439 E9.17787
G1 X85.774 Y67.823 E9.20852
G1 X86.51 Y67.27 E9.23913
G1 X87.291 Y66.782 E9.26976
G1 X88.111 Y66.364 E9.30038
G1 X88.965 Y66.019 E9.33101
G1 X89.845 Y65.749 E9.36163
G1 X90.745 Y65.557 E9.39223
G1 X91.659 Y65.443 E9.42287
G1 X92.212 Y65.413 E9.44129
G1 X92.533 Y65.404 E9.45197
G1 X92.83 Y65.4 E9.46185
G1 X126.793 Y65.4 E10.59146
G1 X127.643 Y65.411 E10.61974
G1 X128.562 Y65.464 E10.65035
G1 X129.473 Y65.597 E10.68098
G1 X130.369 Y65.808 E10.71159
G1 X131.243 Y66.096 E10.7422
G1 X132.09 Y66.459 E10.77285
G1 X132.901 Y66.894 E10.80346
G1 X133.671 Y67.398 E10.83407
G1 X134.395 Y67.967 E10.86469
G1 X135.067 Y68.597 E10.89533
G1 X135.682 Y69.282 E10.92595
G1 X136.235 Y70.018 E10.95657
G1 X136.722 Y70.799 E10.98718
G1 X137.139 Y71.62 E11.01781
G1 X137.484 Y72.474 E11.04844
G1 X137.753 Y73.354 E11.07905
G1 X137.945 Y74.255 E11.10969
G1 X138.058 Y75.168 E11.14029
G1 X138.087 Y75.712 E11.1584
G1 X138.096 Y76.032 E11.16905
G1 X138.1 Y76.33 E11.17896
G1 X138.099 Y143.395 E13.40956
G1 X138.09 Y144.122 E13.43374
G1 X138.039 Y145.041 E13.46435
G1 X137.908 Y145.953 E13.495
G1 X137.698 Y146.849 E13.5256
G1 X137.412 Y147.724 E13.55622
G1 X137.051 Y148.571 E13.58684
G1 X136.617 Y149.383 E13.61747
G1 X136.115 Y150.155 E13.6481
G1 X135.547 Y150.88 E13.67873
G1 X134.919 Y151.553 E13.70934
G1 X134.235 Y152.169 E13.73996
G1 X133.5 Y152.723 E13.77057
G1 X132.72 Y153.212 E13.80119
G1 X131.9 Y153.631 E13.83182
G1 X131.047 Y153.977 E13.86244
G1 X130.167 Y154.248 E13.89306
G1 X129.267 Y154.441 E13.92368
G1 X128.353 Y154.556 E13.95432
G1 X127.788 Y154.587 E13.97314
G1 X127.467 Y154.596 E13.98382
G1 X127.17 Y154.6 E13.9937
G1 X93.07 Y154.599 E15.12787
G1 X92.372 Y154.59 E15.15108
G1 X91.453 Y154.538 E15.1817
G1 X90.542 Y154.407 E15.21231
G1 X89.646 Y154.197 E15.24292
G1 X88.771 Y153.91 E15.27355
G1 X87.924 Y153.548 E15.30418
G1 X87.112 Y153.114 E15.33481
G1 X86.341 Y152.612 E15.36541
G1 X85.616 Y152.044 E15.39604
G1 X84.943 Y151.415 E15.42668
G1 X84.328 Y150.731 E15.45727
G1 X83.774 Y149.996 E15.48788
G1 X83.286 Y149.215 E15.51851
G1 X82.867 Y148.395 E15.54914
G1 X82.521 Y147.542 E15.57976
G1 X82.251 Y146.662 E15.61037
G1 X82.058 Y145.761 E15.64102
G1 X81.944 Y144.848 E15.67162
G1 X81.913 Y144.277 E15.69064
G1 X81.904 Y143.944 E15.70172
G1 X81.9 Y143.658 E15.71124
G1 X81.901 Y76.531 E17.94389
G1 X81.91 Y75.866 E17.96601
G1 X81.962 Y74.946 E17.99666
G1 X82.094 Y74.035 E18.02727
G1 X82.305 Y73.139 E18.05789
G1 X82.592 Y72.264 E18.08852
G1 X82.955 Y71.418 E18.11914
G1 X83.389 Y70.606 E18.14976
G1 X83.892 Y69.835 E18.18038
G1 X84.461 Y69.111 E18.211
G0 F6000 X84.855 Y69.267
G1 F600 X85.481 Y68.617 E18.24102
G1 X86.162 Y68.024 E18.27105
G1 X86.894 Y67.494 E18.30111
G1 X87.669 Y67.031 E18.33114
G1 X88.482 Y66.638 E18.36117
G1 X89.327 Y66.318 E18.39122
G1 X90.196 Y66.075 E18.42124
G1 X91.084 Y65.909 E18.45128
G1 X92.223 Y65.813 E18.4893
G1 X92.544 Y65.804 E18.49998
G1 X92.83 Y65.8 E18.50949
G1 X126.793 Y65.8 E19.63911
G1 X127.637 Y65.811 E19.66718
G1 X128.539 Y65.864 E19.69723
G1 X129.432 Y65.996 E19.72726
G1 X130.31 Y66.207 E19.75729
G1 X131.166 Y66.495 E19.78733
G1 X131.993 Y66.857 E19.81736
G1 X132.785 Y67.292 E19.84741
G1 X133.536 Y67.794 E19.87746
G1 X134.239 Y68.361 E19.9075
G1 X134.889 Y68.988 E19.93753
G1 X135.481 Y69.67 E19.96757
G1 X136.011 Y70.401 E19.9976
G1 X136.473 Y71.177 E20.02764
G1 X136.866 Y71.99 E20.05767
G1 X137.184 Y72.835 E20.0877
G1 X137.427 Y73.705 E20.11775
G1 X137.592 Y74.593 E20.14779
G1 X137.687 Y75.723 E20.1855
G1 X137.696 Y76.043 E20.19615
G1 X137.7 Y76.33 E20.2057
G1 X137.699 Y143.39 E22.43612
G1 X137.69 Y144.117 E22.4603
G1 X137.639 Y145.019 E22.49035
G1 X137.508 Y145.913 E22.5204
G1 X137.299 Y146.791 E22.55042
G1 X137.013 Y147.648 E22.58047
G1 X136.652 Y148.476 E22.61052
G1 X136.22 Y149.268 E22.64052
G1 X135.719 Y150.02 E22.67058
G1 X135.153 Y150.724 E22.70062
G1 X134.528 Y151.375 E22.73064
G1 X133.847 Y151.969 E22.76069
G1 X133.116 Y152.5 E22.79074
G1 X132.342 Y152.964 E22.82076
G1 X131.529 Y153.358 E22.85081
G1 X130.685 Y153.678 E22.88083
G1 X129.815 Y153.923 E22.91089
G1 X128.928 Y154.089 E22.9409
G1 X127.777 Y154.187 E22.97932
G1 X127.456 Y154.196 E22.99
G1 X127.17 Y154.2 E22.99952
G1 X93.075 Y154.199 E24.13352
G1 X92.377 Y154.19 E24.15674
G1 X91.476 Y154.139 E24.18675
G1 X90.582 Y154.007 E24.21681
G1 X89.704 Y153.798 E24.24683
G1 X88.847 Y153.511 E24.27689
G1 X88.02 Y153.15 E24.3069
G1 X87.227 Y152.717 E24.33695
G1 X86.476 Y152.216 E24.36698
G1 X85.772 Y151.65 E24.39702
G1 X85.121 Y151.024 E24.42706
G1 X84.528 Y150.343 E24.4571
G1 X83.998 Y149.612 E24.48713
G1 X83.534 Y148.837 E24.51717
G1 X83.14 Y148.024 E24.54722
G1 X82.82 Y147.18 E24.57724
G1 X82.576 Y146.31 E24.60729
G1 X82.41 Y145.422 E24.63734
G1 X82.313 Y144.267 E24.67589
G1 X82.304 Y143.934 E24.68697
G1 X82.3 Y143.658 E24.69615
G1 X82.301 Y76.536 E26.92864
G1 X82.31 Y75.871 E26.95076
G1 X82.362 Y74.969 E26.98081
G1 X82.494 Y74.076 E27.01083
G1 X82.704 Y73.198 E27.04086
G1 X82.991 Y72.341 E27.07092
G1 X83.353 Y71.514 E27.10094
G1 X83.786 Y70.722 E27.13097
G1 X84.288 Y69.971 E27.16101
G1 X84.855 Y69.267 E27.19108
G1 F2700 E22.19108
;MESH:Wakeup_Transmitter_Box.stl
G0 F6000 X91.835 Y76.42
G0 X92.92 Y76.42
G0 X93.282 Y143.218
G0 X126.9 Y143.4
;TYPE:WALL-INNER
G1 F2700 E27.19108
G1 F600 X93.1 Y143.4 E28.31527
G1 X93.1 Y76.6 E30.53705
G1 X126.9 Y76.6 E31.66124
G1 X126.9 Y143.4 E33.88302
G0 F6000 X127.3 Y143.8
;TYPE:WALL-OUTER
G1 F600 X92.7 Y143.8 E35.03382
G1 X92.7 Y76.2 E37.2822
G1 X127.3 Y76.2 E38.433
G1 X127.3 Y143.8 E40.68139
G0 F6000 X127.03 Y143.53
G0 X126.79 Y143.01
G0 X126.51 Y143.01
;TYPE:SKIN
G1 F600 X93.49 Y143.01 E41.77964
G1 X93.49 Y76.99 E43.97547
G1 X126.51 Y76.99 E45.07372
G1 X126.51 Y143.01 E47.26955
G1 F2700 E42.26955
G0 F6000 X126.79 Y143.01
G0 X94.2 Y143.29
G1 F2700 E47.26955
G0 F6000 X94.2 Y142.849
G1 F600 X93.649 Y142.298 E47.29547
G0 F6000 X93.649 Y141.732
G1 F600 X94.765 Y142.849 E47.34799
G0 F6000 X95.331 Y142.849
G1 F600 X93.649 Y141.166 E47.42713
G0 F6000 X93.649 Y140.601
G1 F600 X95.897 Y142.849 E47.53287
G0 F6000 X96.462 Y142.849
G1 F600 X93.649 Y140.035 E47.66521
G0 F6000 X93.649 Y139.469
G1 F600 X97.028 Y142.849 E47.82417
G0 F6000 X97.594 Y142.849
G1 F600 X93.649 Y138.904 E48.00973
G0 F6000 X93.649 Y138.338
G1 F600 X98.159 Y142.849 E48.22189
G0 F6000 X98.725 Y142.849
G1 F600 X93.649 Y137.772 E48.46067
G0 F6000 X93.649 Y137.206
G1 F600 X99.291 Y142.849 E48.72608
G0 F6000 X99.856 Y142.849
G1 F600 X93.649 Y136.641 E49.01806
G0 F6000 X93.649 Y136.075
G1 F600 X100.422 Y142.849 E49.33666
G0 F6000 X100.988 Y142.849
G1 F600 X93.649 Y135.509 E49.68189
G0 F6000 X93.649 Y134.944
G1 F600 X101.553 Y142.849 E50.05369
G0 F6000 X102.119 Y142.849
G1 F600 X93.649 Y134.378 E50.45212
G0 F6000 X93.649 Y133.812
G1 F600 X102.685 Y142.849 E50.87717
G0 F6000 X103.251 Y142.849
G1 F600 X93.649 Y133.247 E51.32882
G0 F6000 X93.649 Y132.681
G1 F600 X103.816 Y142.849 E51.80707
G0 F6000 X104.382 Y142.849
G1 F600 X93.649 Y132.115 E52.31194
G0 F6000 X93.649 Y131.55
G1 F600 X104.948 Y142.849 E52.84341
G0 F6000 X105.513 Y142.849
G1 F600 X93.649 Y130.984 E53.40148
G0 F6000 X93.649 Y130.418
G1 F600 X106.079 Y142.849 E53.98617
G0 F6000 X106.645 Y142.849
G1 F600 X93.649 Y129.853 E54.59746
G0 F6000 X93.649 Y129.287
G1 F600 X107.21 Y142.849 E55.23535
G0 F6000 X107.776 Y142.849
G1 F600 X93.649 Y128.721 E55.89987
G0 F6000 X93.649 Y128.156
G1 F600 X108.342 Y142.849 E56.59098
G0 F6000 X108.907 Y142.849
G1 F600 X93.649 Y127.59 E57.30869
G0 F6000 X93.649 Y127.024
G1 F600 X109.473 Y142.849 E58.05303
G0 F6000 X110.039 Y142.849
G1 F600 X93.649 Y126.458 E58.82399
G0 F6000 X93.649 Y125.893
G1 F600 X110.604 Y142.849 E59.62152
G0 F6000 X111.17 Y142.849
G1 F600 X93.649 Y125.327 E60.44568
G0 F6000 X93.649 Y124.761
G1 F600 X111.736 Y142.849 E61.29646
G0 F6000 X112.301 Y142.849
G1 F600 X93.649 Y124.196 E62.17382
G0 F6000 X93.649 Y123.63
G1 F600 X112.867 Y142.849 E63.0778
G0 F6000 X113.433 Y142.849
G1 F600 X93.649 Y123.064 E64.0084
G0 F6000 X93.649 Y122.499
G1 F600 X113.999 Y142.849 E64.9656
G0 F6000 X114.564 Y142.849
G1 F600 X93.649 Y121.933 E65.9494
G0 F6000 X93.649 Y121.367
G1 F600 X115.13 Y142.849 E66.95983
G0 F6000 X115.696 Y142.849
G1 F600 X93.649 Y120.802 E67.99685
G0 F6000 X93.649 Y120.236
G1 F600 X116.261 Y142.849 E69.06047
G0 F6000 X116.827 Y142.849
G1 F600 X93.649 Y119.67 E70.15072
G0 F6000 X93.649 Y119.105
G1 F600 X117.393 Y142.849 E71.26756
G0 F6000 X117.958 Y142.849
G1 F600 X93.649 Y118.539 E72.41101
G0 F6000 X93.649 Y117.973
G1 F600 X118.524 Y142.849 E73.58108
G0 F6000 X119.09 Y142.849
G1 F600 X93.649 Y117.408 E74.77774
G0 F6000 X93.649 Y116.842
G1 F600 X119.655 Y142.849 E76.00101
G0 F6000 X120.221 Y142.849
G1 F600 X93.649 Y116.276 E77.2509
G0 F6000 X93.649 Y115.71
G1 F600 X120.787 Y142.849 E78.52741
G0 F6000 X121.352 Y142.849
G1 F600 X93.649 Y115.145 E79.8305
G0 F6000 X93.649 Y114.579
G1 F600 X121.918 Y142.849 E81.16021
G0 F6000 X122.484 Y142.849
G1 F600 X93.649 Y114.013 E82.51654
G0 F6000 X93.649 Y113.448
G1 F600 X123.05 Y142.849 E83.89947
G0 F6000 X123.615 Y142.849
G1 F600 X93.649 Y112.882 E85.30901
G0 F6000 X93.649 Y112.316
G1 F600 X124.181 Y142.849 E86.74516
G0 F6000 X124.747 Y142.849
G1 F600 X93.649 Y111.751 E88.20792
G0 F6000 X93.649 Y111.185
G1 F600 X125.312 Y142.849 E89.69727
G0 F6000 X125.878 Y142.849
G1 F600 X93.649 Y110.619 E91.21325
G0 F6000 X93.649 Y110.054
G1 F600 X126.35 Y142.754 E92.75138
G0 F6000 X126.35 Y142.189
G1 F600 X93.649 Y109.488 E94.28953
G0 F6000 X93.649 Y108.922
G1 F600 X126.35 Y141.623 E95.82769
G0 F6000 X126.35 Y141.057
G1 F600 X93.649 Y108.357 E97.36582
G0 F6000 X93.649 Y107.791
G1 F600 X126.35 Y140.492 E98.90397
G0 F6000 X126.35 Y139.926
G1 F600 X93.649 Y107.225 E100.44213
G0 F6000 X93.649 Y106.659
G1 F600 X126.35 Y139.36 E101.98028
G0 F6000 X126.35 Y138.795
G1 F600 X93.649 Y106.094 E103.51844
G0 F6000 X93.649 Y105.528
G1 F600 X126.35 Y138.229 E105.05659
G0 F6000 X126.35 Y137.663
G1 F600 X93.649 Y104.962 E106.59475
G0 F6000 X93.649 Y104.397
G1 F600 X126.35 Y137.098 E108.1329
G0 F6000 X126.35 Y136.532
G1 F600 X93.649 Y103.831 E109.67106
G0 F6000 X93.649 Y103.265
G1 F600 X126.35 Y135.966 E111.20921
G0 F6000 X126.35 Y135.401
G1 F600 X93.649 Y102.7 E112.74737
G0 F6000 X93.649 Y102.134
G1 F600 X126.35 Y134.835 E114.28552
G0 F6000 X126.35 Y134.269
G1 F600 X93.649 Y101.568 E115.82368
G0 F6000 X93.649 Y101.003
G1 F600 X126.35 Y133.703 E117.36181
G0 F6000 X126.35 Y133.138
G1 F600 X93.649 Y100.437 E118.89996
G0 F6000 X93.649 Y99.871
G1 F600 X126.35 Y132.572 E120.43812
G0 F6000 X126.35 Y132.006
G1 F600 X93.649 Y99.306 E121.97625
G0 F6000 X93.649 Y98.74
G1 F600 X126.35 Y131.441 E123.5144
G0 F6000 X126.35 Y130.875
G1 F600 X93.649 Y98.174 E125.05256
G0 F6000 X93.649 Y97.609
G1 F600 X126.35 Y130.309 E126.59069
G0 F6000 X126.35 Y129.744
G1 F600 X93.649 Y97.043 E128.12884
G0 F6000 X93.649 Y96.477
G1 F600 X126.35 Y129.178 E129.667
G0 F6000 X126.35 Y128.612
G1 F600 X93.649 Y95.911 E131.20515
G0 F6000 X93.649 Y95.346
G1 F600 X126.35 Y128.047 E132.74331
G0 F6000 X126.35 Y127.481
G1 F600 X93.649 Y94.78 E134.28146
G0 F6000 X93.649 Y94.214
G1 F600 X126.35 Y126.915 E135.81962
G0 F6000 X126.35 Y126.35
G1 F600 X93.649 Y93.649 E137.35777
G0 F6000 X93.649 Y93.083
G1 F600 X126.35 Y125.784 E138.89593
G0 F6000 X126.35 Y125.218
G1 F600 X93.649 Y92.517 E140.43408
G0 F6000 X93.649 Y91.952
G1 F600 X126.35 Y124.653 E141.97224
G0 F6000 X126.35 Y124.087
G1 F600 X93.649 Y91.386 E143.51039
G0 F6000 X93.649 Y90.82
G1 F600 X126.35 Y123.521 E145.04855
G0 F6000 X126.35 Y122.955
G1 F600 X93.649 Y90.255 E146.58668
G0 F6000 X93.649 Y89.689
G1 F600 X126.35 Y122.39 E148.12483
G0 F6000 X126.35 Y121.824
G1 F600 X93.649 Y89.123 E149.66299
G0 F6000 X93.649 Y88.558
G1 F600 X126.35 Y121.258 E151.20112
G0 F6000 X126.35 Y120.693
G1 F600 X93.649 Y87.992 E152.73927
G0 F6000 X93.649 Y87.426
G1 F600 X126.35 Y120.127 E154.27743
G0 F6000 X126.35 Y119.561
G1 F600 X93.649 Y86.86 E155.81558
G0 F6000 X93.649 Y86.295
G1 F600 X126.35 Y118.996 E157.35374
G0 F6000 X126.35 Y118.43
G1 F600 X93.649 Y85.729 E158.89189
G0 F6000 X93.649 Y85.163
G1 F600 X126.35 Y117.864 E160.43005
G0 F6000 X126.35 Y117.299
G1 F600 X93.649 Y84.598 E161.9682
G0 F6000 X93.649 Y84.032
G1 F600 X126.35 Y116.733 E163.50636
G0 F6000 X126.35 Y116.167
G1 F600 X93.649 Y83.466 E165.04451
G0 F6000 X93.649 Y82.901
G1 F600 X126.35 Y115.602 E166.58267
G0 F6000 X126.35 Y115.036
G1 F600 X93.649 Y82.335 E168.12082
G0 F6000 X93.649 Y81.769
